;FLAVOR:Marlin
;TIME:1266
;Filament used: 0.479723m
;Layer height: 0.2
;MINX:81.525
;MINY:25.043
;MINZ:0.2
;MAXX:136.492
;MAXY:73.223
;MAXZ:5
;Generated with Cura_SteamEngine 4.5.0
M82 ;absolute extrusion mode
; Ender 3 Custom Start G-code
M117 Getting the bed up to temp!
M140 S60.0 ; Set Heat Bed temperature
M190 S60.0 ; Wait for Heat Bed temperature
M117 Pre-heating the extruder!
M104 S228.0/2
G28 ; Home all axes
M420 S1; Auto bed-level (BL-Touch)
G92 E0 ; Reset Extruder
M117 Getting the extruder up to temp!
M104 S228.0 ; Set Extruder temperature
M109 S228.0 ; Wait for Extruder temperature
G1 Z1.0 F3000 ; move z up little to prevent scratching of surface
G1 X0.1 Y20 Z0.3 F5000.0 ; move to start-line position
M117 LET THE PURGE BEGIN!
G1 X0.1 Y200.0 Z0.3 F1500.0 E15 ; draw 1st line
G1 X0.4 Y200.0 Z0.3 F5000.0 ; move to side a little
G1 X0.4 Y20 Z0.3 F1500.0 E30 ; draw 2nd line
G92 E0 ; reset extruder
G1 Z1.0 F3000 ; move z up little to prevent scratching of surface
M117 Autobots! Roll Out!
G92 E0
G92 E0
G1 F3000 E-8
;LAYER_COUNT:25
;LAYER:0
M107
M204 S500
M205 X8 Y8
G0 F6000 X82.215 Y32.238 Z0.2
;TYPE:SKIRT
G1 F3000 E0
G1 F1200 X82.578 Y31.373 E0.0312
G1 X83.013 Y30.542 E0.0624
G1 X83.517 Y29.751 E0.09359
G1 X84.086 Y29.006 E0.12477
G1 X84.717 Y28.312 E0.15597
G1 X85.405 Y27.674 E0.18718
G1 X86.144 Y27.097 E0.21836
G1 X86.93 Y26.586 E0.24954
G1 X87.757 Y26.143 E0.28075
G1 X88.619 Y25.772 E0.31196
G1 X89.508 Y25.476 E0.34312
G1 X90.42 Y25.257 E0.37432
G1 X91.348 Y25.116 E0.40554
G1 X92.225 Y25.056 E0.43478
G1 X92.854 Y25.043 E0.4557
G1 X98.944 Y25.044 E0.65826
G1 X100.556 Y25.068 E0.71188
G1 X101.733 Y25.102 E0.75104
G1 X104.317 Y25.102 E0.83698
G1 X105.662 Y25.073 E0.88173
G1 X106.841 Y25.043 E0.92096
G1 X112.939 Y25.044 E1.12378
G1 X114.778 Y25.07 E1.18495
G1 X117.422 Y25.07 E1.27289
G1 X118.768 Y25.043 E1.31766
G1 X124.951 Y25.044 E1.52331
G1 X125.641 Y25.054 E1.54626
G1 X126.578 Y25.108 E1.57748
G1 X127.506 Y25.241 E1.60866
G1 X128.42 Y25.453 E1.63987
G1 X129.312 Y25.741 E1.67104
G1 X130.177 Y26.105 E1.70226
G1 X131.007 Y26.541 E1.73344
G1 X131.797 Y27.046 E1.76463
G1 X132.541 Y27.617 E1.79582
G1 X133.234 Y28.249 E1.82701
G1 X133.871 Y28.938 E1.85822
G1 X134.446 Y29.678 E1.88939
G1 X134.957 Y30.465 E1.9206
G1 X135.398 Y31.292 E1.95178
G1 X135.768 Y32.154 E1.98297
G1 X136.063 Y33.045 E2.01419
G1 X136.28 Y33.957 E2.04537
G1 X136.42 Y34.884 E2.07655
G1 X136.477 Y35.706 E2.10396
G1 X136.487 Y36.023 E2.11451
G1 X136.492 Y36.37 E2.12605
G1 X136.491 Y42.462 E2.32867
G1 X136.481 Y43.171 E2.35225
G1 X136.431 Y44.074 E2.38233
G1 X136.355 Y44.847 E2.40817
G1 X136.182 Y46.368 E2.45908
G1 X135.967 Y48.911 E2.54397
G1 X135.822 Y51.469 E2.62918
G1 X135.73 Y52.402 E2.66036
G1 X135.56 Y53.316 E2.69129
G1 X134.826 Y56.505 E2.80012
G1 X134.338 Y58.941 E2.88276
G1 X133.908 Y61.448 E2.96736
G1 X133.846 Y61.875 E2.98171
G1 X133.663 Y63.043 E3.02103
G1 X133.373 Y64.362 E3.06595
G1 X133.065 Y65.294 E3.0986
G1 X132.694 Y66.155 E3.12978
G1 X132.252 Y66.982 E3.16097
G1 X131.74 Y67.768 E3.19217
G1 X131.164 Y68.508 E3.22336
G1 X130.526 Y69.196 E3.25456
G1 X129.832 Y69.827 E3.28576
G1 X129.087 Y70.397 E3.31696
G1 X128.297 Y70.901 E3.34813
G1 X127.466 Y71.336 E3.37932
G1 X126.601 Y71.699 E3.41052
G1 X125.708 Y71.986 E3.44172
G1 X124.794 Y72.197 E3.47292
G1 X123.866 Y72.329 E3.5041
G1 X123.102 Y72.377 E3.52956
G1 X122.788 Y72.386 E3.54001
G1 X120.131 Y72.502 E3.62846
G1 X117.636 Y72.68 E3.71166
G1 X115.134 Y72.932 E3.7953
G1 X114.452 Y73.018 E3.81816
G1 X113.381 Y73.141 E3.85401
G1 X112.461 Y73.208 E3.88469
G1 X112.133 Y73.218 E3.89561
G1 X111.798 Y73.223 E3.90675
G1 X107.388 Y73.222 E4.05343
G1 X106.69 Y73.212 E4.07665
G1 X105.754 Y73.158 E4.10783
G1 X104.826 Y73.026 E4.13901
G1 X103.912 Y72.814 E4.17021
G1 X103.02 Y72.525 E4.2014
G1 X102.155 Y72.162 E4.2326
G1 X101.407 Y71.773 E4.26064
G1 X100.835 Y71.445 E4.28257
G1 X99.284 Y70.521 E4.34262
G1 X97.061 Y69.279 E4.42731
G1 X94.861 Y68.131 E4.50985
G1 X92.592 Y67.027 E4.59378
G1 X90.298 Y65.99 E4.67751
G1 X88.672 Y65.308 E4.73615
G1 X88.188 Y65.097 E4.75372
G1 X87.345 Y64.686 E4.78491
G1 X86.54 Y64.205 E4.8161
G1 X85.779 Y63.657 E4.84729
G1 X85.068 Y63.046 E4.87847
G1 X84.411 Y62.376 E4.90968
G1 X83.814 Y61.653 E4.94087
G1 X83.28 Y60.882 E4.97206
G1 X82.814 Y60.068 E5.00326
G1 X82.419 Y59.217 E5.03446
G1 X82.098 Y58.336 E5.06565
G1 X81.853 Y57.431 E5.09683
G1 X81.686 Y56.508 E5.12803
G1 X81.615 Y55.84 E5.15037
G1 X81.59 Y55.508 E5.16144
G1 X81.559 Y54.684 E5.18887
G1 X81.559 Y48.567 E5.39232
G1 X81.574 Y47.5 E5.42781
G1 X81.574 Y44.896 E5.51442
G1 X81.525 Y42.724 E5.58668
G1 X81.525 Y36.605 E5.7902
G1 X81.534 Y35.91 E5.81332
G1 X81.586 Y34.973 E5.84453
G1 X81.718 Y34.045 E5.87571
G1 X81.928 Y33.131 E5.9069
G1 X82.215 Y32.238 E5.9381
G0 F6000 X82.614 Y32.313
G1 F1200 X82.976 Y31.467 E5.9687
G1 X83.41 Y30.655 E5.99933
G1 X83.913 Y29.883 E6.02997
G1 X84.481 Y29.159 E6.06058
G1 X85.109 Y28.486 E6.0912
G1 X85.794 Y27.87 E6.12184
G1 X86.529 Y27.316 E6.15245
G1 X87.31 Y26.828 E6.18308
G1 X88.13 Y26.41 E6.21369
G1 X88.983 Y26.064 E6.24431
G1 X89.863 Y25.794 E6.27492
G1 X90.763 Y25.601 E6.30554
G1 X91.677 Y25.487 E6.33617
G1 X92.236 Y25.456 E6.35479
G1 X92.854 Y25.443 E6.37535
G1 X98.939 Y25.444 E6.57774
G1 X100.544 Y25.467 E6.63113
G1 X101.756 Y25.502 E6.67146
G1 X104.28 Y25.502 E6.75541
G1 X105.679 Y25.472 E6.80195
G1 X106.841 Y25.443 E6.84061
G1 X112.934 Y25.444 E7.04326
G1 X114.773 Y25.47 E7.10443
G1 X117.384 Y25.47 E7.19128
G1 X118.768 Y25.443 E7.23732
G1 X124.946 Y25.444 E7.4428
G1 X125.636 Y25.454 E7.46575
G1 X126.555 Y25.507 E7.49637
G1 X127.466 Y25.64 E7.52699
G1 X128.362 Y25.852 E7.55761
G1 X129.236 Y26.14 E7.58822
G1 X130.082 Y26.503 E7.61884
G1 X130.893 Y26.938 E7.64945
G1 X131.664 Y27.442 E7.68008
G1 X132.388 Y28.011 E7.71071
G1 X133.06 Y28.641 E7.74135
G1 X133.674 Y29.326 E7.77194
G1 X134.227 Y30.062 E7.80256
G1 X134.714 Y30.844 E7.8332
G1 X135.131 Y31.665 E7.86383
G1 X135.475 Y32.518 E7.89442
G1 X135.744 Y33.399 E7.92506
G1 X135.936 Y34.299 E7.95567
G1 X136.049 Y35.213 E7.9863
G1 X136.077 Y35.719 E8.00315
G1 X136.087 Y36.036 E8.0137
G1 X136.092 Y36.37 E8.02481
G1 X136.091 Y42.456 E8.22723
G1 X136.081 Y43.165 E8.25082
G1 X136.033 Y44.035 E8.2798
G1 X135.957 Y44.802 E8.30543
G1 X135.784 Y46.325 E8.35641
G1 X135.569 Y48.855 E8.44086
G1 X135.423 Y51.446 E8.52718
G1 X135.331 Y52.362 E8.5578
G1 X135.17 Y53.226 E8.58703
G1 X134.437 Y56.409 E8.69567
G1 X133.946 Y58.86 E8.77881
G1 X133.511 Y61.395 E8.86435
G1 X133.451 Y61.813 E8.8784
G1 X133.268 Y62.981 E8.91772
G1 X132.988 Y64.252 E8.96101
G1 X132.685 Y65.167 E8.99307
G1 X132.319 Y66.012 E9.02369
G1 X131.881 Y66.822 E9.05432
G1 X131.375 Y67.591 E9.08494
G1 X130.804 Y68.313 E9.11556
G1 X130.172 Y68.983 E9.14619
G1 X129.485 Y69.595 E9.17679
G1 X128.747 Y70.146 E9.20742
G1 X127.964 Y70.63 E9.23804
G1 X127.142 Y71.045 E9.26867
G1 X126.287 Y71.386 E9.29928
G1 X125.406 Y71.653 E9.3299
G1 X124.505 Y71.841 E9.36051
G1 X123.591 Y71.951 E9.39113
G1 X123.091 Y71.978 E9.40779
G1 X122.69 Y71.99 E9.42113
G1 X120.119 Y72.101 E9.50672
G1 X117.603 Y72.282 E9.59062
G1 X115.079 Y72.536 E9.67499
G1 X114.406 Y72.621 E9.69755
G1 X113.335 Y72.744 E9.73341
G1 X112.449 Y72.808 E9.76296
G1 X111.798 Y72.823 E9.78461
G1 X107.394 Y72.822 E9.93109
G1 X106.696 Y72.812 E9.95431
G1 X105.777 Y72.759 E9.98493
G1 X104.866 Y72.626 E10.01555
G1 X103.97 Y72.415 E10.04616
G1 X103.096 Y72.127 E10.07677
G1 X102.249 Y71.764 E10.10742
G1 X101.604 Y71.425 E10.13166
G1 X101.04 Y71.102 E10.15327
G1 X99.478 Y70.171 E10.21375
G1 X97.262 Y68.933 E10.29818
G1 X95.014 Y67.76 E10.38251
G1 X92.753 Y66.66 E10.46614
G1 X90.481 Y65.633 E10.54907
G1 X88.832 Y64.942 E10.60854
G1 X88.348 Y64.731 E10.6261
G1 X87.521 Y64.327 E10.65671
G1 X86.732 Y63.852 E10.68734
G1 X85.987 Y63.311 E10.71797
G1 X85.292 Y62.707 E10.74859
G1 X84.652 Y62.045 E10.77922
G1 X84.072 Y61.331 E10.80981
G1 X83.556 Y60.568 E10.84045
G1 X83.108 Y59.764 E10.87106
G1 X82.731 Y58.924 E10.90168
G1 X82.429 Y58.054 E10.93231
G1 X82.204 Y57.161 E10.96294
G1 X82.014 Y55.81 E11.00832
G1 X81.989 Y55.478 E11.01939
G1 X81.959 Y54.684 E11.04582
G1 X81.959 Y48.573 E11.24907
G1 X81.974 Y47.506 E11.28457
G1 X81.974 Y44.886 E11.37171
G1 X81.925 Y42.724 E11.44364
G1 X81.925 Y36.61 E11.64699
G1 X81.934 Y35.915 E11.67011
G1 X81.986 Y34.996 E11.70072
G1 X82.117 Y34.084 E11.73136
G1 X82.327 Y33.188 E11.76197
G1 X82.614 Y32.313 E11.7926
G0 F6000 X83.013 Y32.39
G1 F1200 X83.374 Y31.562 E11.82264
G1 X83.807 Y30.77 E11.85267
G1 X84.309 Y30.019 E11.88271
G1 X84.875 Y29.315 E11.91276
G1 X85.501 Y28.664 E11.94279
G1 X86.182 Y28.071 E11.97283
G1 X86.913 Y27.54 E12.00288
G1 X87.687 Y27.076 E12.03289
G1 X88.5 Y26.683 E12.06293
G1 X89.345 Y26.363 E12.09298
G1 X90.214 Y26.119 E12.123
G1 X91.102 Y25.953 E12.15305
G1 X92.247 Y25.856 E12.19127
G1 X92.854 Y25.843 E12.21146
G1 X98.933 Y25.844 E12.41365
G1 X100.533 Y25.867 E12.46687
G1 X101.745 Y25.902 E12.5072
G1 X104.289 Y25.902 E12.59181
G1 X105.7 Y25.872 E12.63875
G1 X106.841 Y25.843 E12.67672
G1 X112.928 Y25.844 E12.87917
G1 X114.767 Y25.87 E12.94034
G1 X117.393 Y25.87 E13.02768
G1 X118.768 Y25.843 E13.07342
G1 X124.94 Y25.844 E13.27871
G1 X125.63 Y25.854 E13.30166
G1 X126.531 Y25.907 E13.33168
G1 X127.425 Y26.04 E13.36174
G1 X128.303 Y26.251 E13.39177
G1 X129.159 Y26.539 E13.42181
G1 X129.986 Y26.901 E13.45184
G1 X130.778 Y27.335 E13.48187
G1 X131.528 Y27.838 E13.51191
G1 X132.231 Y28.405 E13.54195
G1 X132.881 Y29.032 E13.57199
G1 X133.473 Y29.714 E13.60202
G1 X134.002 Y30.446 E13.63206
G1 X134.465 Y31.221 E13.66209
G1 X134.857 Y32.035 E13.69214
G1 X135.176 Y32.88 E13.72218
G1 X135.419 Y33.75 E13.75222
G1 X135.583 Y34.638 E13.78226
G1 X135.677 Y35.731 E13.81875
G1 X135.687 Y36.048 E13.82929
G1 X135.692 Y36.37 E13.84001
G1 X135.691 Y42.451 E14.04226
G1 X135.681 Y43.16 E14.06584
G1 X135.635 Y43.997 E14.09373
G1 X135.56 Y44.757 E14.11913
G1 X135.387 Y46.283 E14.17021
G1 X135.17 Y48.832 E14.25529
G1 X135.024 Y51.424 E14.34164
G1 X134.933 Y52.322 E14.37166
G1 X134.78 Y53.136 E14.39921
G1 X134.049 Y56.312 E14.5076
G1 X133.546 Y58.819 E14.59265
G1 X133.12 Y61.309 E14.67667
G1 X133.056 Y61.751 E14.69152
G1 X132.873 Y62.919 E14.73085
G1 X132.604 Y64.142 E14.7725
G1 X132.305 Y65.041 E14.80401
G1 X131.944 Y65.869 E14.83405
G1 X131.512 Y66.661 E14.86406
G1 X131.01 Y67.412 E14.8941
G1 X130.445 Y68.116 E14.92412
G1 X129.819 Y68.768 E14.95419
G1 X129.138 Y69.361 E14.98422
G1 X128.407 Y69.892 E15.01427
G1 X127.633 Y70.356 E15.04429
G1 X126.82 Y70.75 E15.07433
G1 X125.976 Y71.07 E15.10436
G1 X125.106 Y71.314 E15.13441
G1 X124.218 Y71.481 E15.16446
G1 X123.079 Y71.578 E15.20248
G1 X122.663 Y71.59 E15.21632
G1 X120.11 Y71.701 E15.30132
G1 X117.568 Y71.883 E15.38608
G1 X115.024 Y72.139 E15.47112
G1 X114.361 Y72.223 E15.49335
G1 X113.29 Y72.346 E15.52921
G1 X112.437 Y72.408 E15.55765
G1 X111.798 Y72.423 E15.57891
G1 X107.4 Y72.422 E15.72519
G1 X106.702 Y72.412 E15.74841
G1 X105.8 Y72.359 E15.77846
G1 X104.907 Y72.227 E15.80848
G1 X104.029 Y72.016 E15.83852
G1 X103.173 Y71.728 E15.86856
G1 X102.346 Y71.366 E15.89858
G1 X101.802 Y71.078 E15.91905
G1 X101.245 Y70.758 E15.94042
G1 X99.699 Y69.837 E16.00027
G1 X97.436 Y68.572 E16.0865
G1 X95.212 Y67.412 E16.16993
G1 X92.914 Y66.294 E16.25493
G1 X90.634 Y65.264 E16.33814
G1 X88.992 Y64.575 E16.39737
G1 X88.508 Y64.364 E16.41493
G1 X87.697 Y63.967 E16.44496
G1 X86.924 Y63.5 E16.475
G1 X86.196 Y62.966 E16.50503
G1 X85.517 Y62.369 E16.5351
G1 X84.894 Y61.715 E16.56514
G1 X84.332 Y61.009 E16.59515
G1 X83.834 Y60.256 E16.62518
G1 X83.404 Y59.461 E16.65524
G1 X83.047 Y58.632 E16.68526
G1 X82.764 Y57.774 E16.71531
G1 X82.559 Y56.895 E16.74533
G1 X82.413 Y55.78 E16.78273
G1 X82.388 Y55.448 E16.79381
G1 X82.359 Y54.684 E16.81924
G1 X82.359 Y48.579 E17.02229
G1 X82.374 Y47.512 E17.05778
G1 X82.374 Y44.877 E17.14542
G1 X82.325 Y42.724 E17.21705
G1 X82.325 Y36.615 E17.42023
G1 X82.334 Y35.92 E17.44335
G1 X82.386 Y35.018 E17.4734
G1 X82.517 Y34.125 E17.50342
G1 X82.726 Y33.246 E17.53347
G1 X83.013 Y32.39 E17.5635
G1 F3000 E9.5635
;MESH:CE3_Fu??.3mf(2)
G0 F6000 X91.86 Y36.457
G0 X92.938 Y36.456
G0 X93.124 Y36.642
;TYPE:WALL-INNER
G1 F3000 E17.5635
G1 F1200 X93.323 Y36.642 E17.57012
G1 X98.892 Y36.642 E17.75535
G1 X98.892 Y42.426 E17.94772
G1 X93.125 Y42.426 E18.13953
G1 X93.124 Y36.841 E18.32529
G1 X93.124 Y36.642 E18.32957
G0 F6000 X92.724 Y36.242
;TYPE:WALL-OUTER
G1 F1200 X99.092 Y36.242 E18.54137
G1 X99.292 Y36.243 E18.54803
G1 X99.292 Y42.826 E18.76698
G1 X92.725 Y42.826 E18.9854
G1 X92.724 Y36.242 E19.20438
G0 F6000 X92.994 Y36.512
G0 X93.514 Y36.752
G0 X93.514 Y37.032
;TYPE:SKIN
G1 F1200 X98.502 Y37.032 E19.37028
G1 X98.502 Y42.036 E19.53672
G1 X93.515 Y42.036 E19.70259
G1 X93.514 Y37.032 E19.86902
G0 F6000 X93.514 Y36.752
G0 X98.71 Y36.824
G0 X98.782 Y37.813
G0 X98.341 Y37.813
G1 F1200 X97.72 Y37.192 E19.89823
G0 F6000 X97.155 Y37.192
G1 F1200 X98.341 Y38.378 E19.95401
G0 F6000 X98.341 Y38.944
G1 F1200 X96.589 Y37.192 E20.03642
G0 F6000 X96.023 Y37.192
G1 F1200 X98.341 Y39.51 E20.14546
G0 F6000 X98.341 Y40.075
G1 F1200 X95.458 Y37.192 E20.28106
G0 F6000 X94.892 Y37.192
G1 F1200 X98.341 Y40.641 E20.44329
G0 F6000 X98.341 Y41.207
G1 F1200 X94.326 Y37.192 E20.63215
G0 F6000 X93.76 Y37.192
G1 F1200 X98.341 Y41.773 E20.84762
G0 F6000 X97.879 Y41.876
G1 F1200 X93.673 Y37.67 E21.04546
G0 F6000 X93.673 Y38.236
G1 F1200 X97.313 Y41.876 E21.21667
G0 F6000 X96.747 Y41.876
G1 F1200 X93.673 Y38.801 E21.36129
G0 F6000 X93.673 Y39.367
G1 F1200 X96.182 Y41.876 E21.4793
G0 F6000 X95.616 Y41.876
G1 F1200 X93.673 Y39.933 E21.5707
G0 F6000 X93.673 Y40.499
G1 F1200 X95.05 Y41.876 E21.63547
G0 F6000 X94.485 Y41.876
G1 F1200 X93.673 Y41.065 E21.67364
G0 F6000 X93.673 Y41.63
G1 F1200 X93.919 Y41.876 E21.68521
G0 F6000 X93.919 Y42.226
G1 F3000 E13.68521
;MESH:CE3_Fu??.3mf(3)
G0 F6000 X93.919 Y42.316
G0 X93.158 Y42.606
G0 X93.158 Y43.691
G0 X93.158 Y47.367
G0 X93.158 Y48.452
G0 X93.158 Y48.632
;TYPE:WALL-INNER
G1 F3000 E21.68521
G1 F1200 X93.357 Y48.632 E21.69183
G1 X98.925 Y48.632 E21.87702
G1 X98.925 Y54.414 E22.06933
G1 X93.159 Y54.414 E22.26111
G1 X93.158 Y48.831 E22.4468
G1 X93.158 Y48.632 E22.45108
G0 F6000 X92.758 Y48.232
;TYPE:WALL-OUTER
G1 F1200 X99.325 Y48.232 E22.6695
G1 X99.325 Y54.814 E22.88842
G1 X92.759 Y54.814 E23.10681
G1 X92.758 Y48.232 E23.32572
G0 F6000 X93.028 Y48.502
G0 X93.548 Y48.742
G0 X93.548 Y49.022
;TYPE:SKIN
G1 F1200 X98.535 Y49.022 E23.49159
G1 X98.535 Y54.024 E23.65796
G1 X93.549 Y54.024 E23.82379
G1 X93.548 Y49.022 E23.99016
G0 F6000 X93.548 Y48.742
G0 X98.743 Y48.814
G0 X98.815 Y49.725
G0 X98.374 Y49.725
G1 F1200 X97.831 Y49.182 E24.0157
G0 F6000 X97.265 Y49.182
G1 F1200 X98.374 Y50.291 E24.06787
G0 F6000 X98.374 Y50.857
G1 F1200 X96.699 Y49.182 E24.14665
G0 F6000 X96.133 Y49.182
G1 F1200 X98.374 Y51.422 E24.25204
G0 F6000 X98.374 Y51.988
G1 F1200 X95.568 Y49.182 E24.38403
G0 F6000 X95.002 Y49.182
G1 F1200 X98.374 Y52.554 E24.54263
G0 F6000 X98.374 Y53.119
G1 F1200 X94.436 Y49.182 E24.72784
G0 F6000 X93.871 Y49.182
G1 F1200 X98.374 Y53.685 E24.93965
G0 F6000 X97.987 Y53.863
G1 F1200 X93.707 Y49.583 E25.14097
G0 F6000 X93.707 Y50.149
G1 F1200 X97.421 Y53.863 E25.31566
G0 F6000 X96.855 Y53.863
G1 F1200 X93.707 Y50.715 E25.46373
G0 F6000 X93.707 Y51.28
G1 F1200 X96.29 Y53.863 E25.58523
G0 F6000 X95.724 Y53.863
G1 F1200 X93.707 Y51.846 E25.6801
G0 F6000 X93.707 Y52.412
G1 F1200 X95.158 Y53.863 E25.74836
G0 F6000 X94.593 Y53.863
G1 F1200 X93.707 Y52.977 E25.79003
G0 F6000 X93.707 Y53.543
G1 F1200 X94.027 Y53.863 E25.80508
G0 F6000 X94.027 Y54.214
G1 F3000 E17.80508
;MESH:CE3_Monitor-Fu??-vorne.3mf
G0 F6000 X94.027 Y54.304
G0 X98.743 Y54.232
G0 X99.105 Y50.258
G0 X100.19 Y50.258
G0 X106.292 Y50.258
G0 X107.377 Y50.258
G0 X107.557 Y50.258
;TYPE:WALL-INNER
G1 F3000 E25.80508
G1 F1200 X107.557 Y49.363 E25.83485
G1 X111.646 Y49.363 E25.97085
G1 X111.646 Y50.258 E26.00062
G1 X107.557 Y50.258 E26.13662
G0 F6000 X107.157 Y50.658
;TYPE:WALL-OUTER
G1 F1200 X107.157 Y48.963 E26.19299
G1 X112.046 Y48.963 E26.3556
G1 X112.046 Y50.658 E26.41198
G1 X107.157 Y50.658 E26.57459
