;FLAVOR:Marlin
;TIME:308
;Filament used: 0.111271m
;Layer height: 0.12
;MINX:98.319
;MINY:100.18
;MINZ:0.2
;MAXX:127.8
;MAXY:134.8
;MAXZ:0.92
;Generated with Cura_SteamEngine 4.2.1
M140 S60
M105
M190 S60
M104 S190
M105
M109 S190
M82 ;absolute extrusion mode
; Ender 3 Custom Start G-code
G28 ; Home all axes
M420 S1
G92 E0 ; Reset Extruder
G1 Z2.0 F3000 ; Move Z Axis up little to prevent scratching of Heat Bed
G1 X0.1 Y20 Z0.3 F5000.0 ; Move to start position
G1 X0.1 Y200.0 Z0.3 F1500.0 E15 ; Draw the first line
G1 X0.4 Y200.0 Z0.3 F5000.0 ; Move to side a little
G1 X0.4 Y20 Z0.3 F1500.0 E30 ; Draw the second line
G92 E0 ; Reset Extruder
G1 Z2.0 F3000 ; Move Z Axis up little to prevent scratching of Heat Bed
G92 E0
G92 E0
G1 F3000 E-8
;LAYER_COUNT:7
;LAYER:0
M107
M204 S500
M205 X8 Y8
G0 F6000 X100.742 Y102.329 Z0.2
;TYPE:SKIRT
G1 F3000 E0
G1 F1200 X101.341 Y101.814 E0.02627
G1 X101.989 Y101.363 E0.05253
G1 X102.68 Y100.979 E0.07883
G1 X103.405 Y100.667 E0.10508
G1 X104.158 Y100.43 E0.13133
G1 X104.932 Y100.271 E0.15761
G1 X105.717 Y100.19 E0.18386
G1 X106.119 Y100.18 E0.19724
G1 X111.119 Y100.18 E0.36354
G1 X111.908 Y100.22 E0.38981
G1 X112.688 Y100.339 E0.41606
G1 X113.082 Y100.441 E0.42959
G1 X113.813 Y100.291 E0.45441
G1 X114.598 Y100.21 E0.48066
G1 X115 Y100.2 E0.49404
G1 X120 Y100.2 E0.66034
G1 X120.789 Y100.24 E0.68661
G1 X121.569 Y100.359 E0.71286
G1 X122.334 Y100.557 E0.73914
G1 X123.074 Y100.831 E0.76538
G1 X123.783 Y101.179 E0.79165
G1 X124.454 Y101.597 E0.81795
G1 X125.078 Y102.08 E0.84419
G1 X125.651 Y102.623 E0.87045
G1 X126.166 Y103.222 E0.89672
G1 X126.617 Y103.87 E0.92298
G1 X127.001 Y104.561 E0.94927
G1 X127.313 Y105.286 E0.97552
G1 X127.55 Y106.039 E1.00178
G1 X127.709 Y106.813 E1.02806
G1 X127.79 Y107.598 E1.05431
G1 X127.8 Y108 E1.06768
G1 X127.8 Y127 E1.69963
G1 X127.76 Y127.789 E1.7259
G1 X127.641 Y128.569 E1.75215
G1 X127.443 Y129.334 E1.77843
G1 X127.169 Y130.074 E1.80467
G1 X126.821 Y130.783 E1.83094
G1 X126.403 Y131.454 E1.85724
G1 X125.92 Y132.078 E1.88348
G1 X125.377 Y132.651 E1.90974
G1 X124.778 Y133.166 E1.93601
G1 X124.13 Y133.617 E1.96227
G1 X123.439 Y134.001 E1.98856
G1 X122.714 Y134.313 E2.01482
G1 X121.961 Y134.55 E2.04107
G1 X121.187 Y134.709 E2.06735
G1 X120.402 Y134.79 E2.0936
G1 X120 Y134.8 E2.10697
G1 X115 Y134.8 E2.27328
G1 X114.211 Y134.76 E2.29955
G1 X113.431 Y134.641 E2.32579
G1 X113.037 Y134.539 E2.33933
G1 X112.306 Y134.689 E2.36415
G1 X111.521 Y134.77 E2.3904
G1 X111.119 Y134.78 E2.40377
G1 X106.119 Y134.78 E2.57007
G1 X105.33 Y134.74 E2.59635
G1 X104.55 Y134.621 E2.62259
G1 X103.785 Y134.423 E2.64888
G1 X103.045 Y134.149 E2.67512
G1 X102.336 Y133.801 E2.70139
G1 X101.665 Y133.383 E2.72768
G1 X101.041 Y132.9 E2.75393
G1 X100.468 Y132.357 E2.78018
G1 X99.953 Y131.758 E2.80646
G1 X99.502 Y131.11 E2.83272
G1 X99.118 Y130.419 E2.85901
G1 X98.806 Y129.694 E2.88526
G1 X98.569 Y128.941 E2.91152
G1 X98.41 Y128.167 E2.9378
G1 X98.329 Y127.382 E2.96405
G1 X98.319 Y126.98 E2.97742
G1 X98.319 Y124.99 E3.04361
G1 X98.359 Y124.201 E3.06989
G1 X98.478 Y123.421 E3.09613
G1 X98.676 Y122.656 E3.12241
G1 X98.95 Y121.916 E3.14866
G1 X99.298 Y121.207 E3.17493
G1 X99.716 Y120.536 E3.20122
G1 X100.199 Y119.912 E3.22746
G1 X100.742 Y119.339 E3.25372
G1 X101.341 Y118.824 E3.27999
G1 X101.666 Y118.598 E3.29316
G1 X101.666 Y116.803 E3.35286
G1 X101.656 Y116.797 E3.35325
G1 X101.032 Y116.313 E3.37952
G1 X100.46 Y115.768 E3.40579
G1 X99.946 Y115.169 E3.43205
G1 X99.496 Y114.52 E3.45831
G1 X99.113 Y113.829 E3.48459
G1 X98.802 Y113.103 E3.51086
G1 X98.567 Y112.35 E3.5371
G1 X98.408 Y111.576 E3.56338
G1 X98.319 Y110.4 E3.6026
G1 X98.319 Y107.98 E3.68309
G1 X98.359 Y107.191 E3.70937
G1 X98.478 Y106.411 E3.73561
G1 X98.676 Y105.646 E3.76189
G1 X98.95 Y104.906 E3.78814
G1 X99.298 Y104.197 E3.81441
G1 X99.716 Y103.526 E3.8407
G1 X100.199 Y102.902 E3.86695
G1 X100.742 Y102.329 E3.8932
G0 F6000 X101.135 Y102.51
G1 F1200 X101.73 Y102.022 E3.9188
G1 X102.372 Y101.599 E3.94437
G1 X103.055 Y101.244 E3.96997
G1 X103.77 Y100.963 E3.99552
G1 X104.512 Y100.757 E4.02113
G1 X105.27 Y100.629 E4.0467
G1 X106.119 Y100.58 E4.07499
G1 X111.119 Y100.58 E4.24129
G1 X111.887 Y100.62 E4.26687
G1 X112.647 Y100.739 E4.29245
G1 X113.097 Y100.859 E4.30794
G1 X113.393 Y100.777 E4.31816
G1 X114.151 Y100.649 E4.34373
G1 X115 Y100.6 E4.37201
G1 X120 Y100.6 E4.53831
G1 X120.768 Y100.64 E4.56389
G1 X121.528 Y100.759 E4.58948
G1 X122.271 Y100.957 E4.61505
G1 X122.99 Y101.231 E4.64064
G1 X123.676 Y101.578 E4.66621
G1 X124.323 Y101.994 E4.6918
G1 X124.923 Y102.475 E4.71737
G1 X125.47 Y103.016 E4.74296
G1 X125.958 Y103.611 E4.76856
G1 X126.381 Y104.253 E4.79413
G1 X126.736 Y104.936 E4.81973
G1 X127.017 Y105.651 E4.84528
G1 X127.223 Y106.393 E4.87089
G1 X127.351 Y107.151 E4.89646
G1 X127.4 Y108 E4.92475
G1 X127.4 Y127 E5.55669
G1 X127.36 Y127.768 E5.58227
G1 X127.241 Y128.528 E5.60785
G1 X127.043 Y129.271 E5.63343
G1 X126.769 Y129.99 E5.65902
G1 X126.422 Y130.676 E5.68459
G1 X126.006 Y131.323 E5.71017
G1 X125.525 Y131.923 E5.73575
G1 X124.984 Y132.47 E5.76134
G1 X124.389 Y132.958 E5.78693
G1 X123.747 Y133.381 E5.8125
G1 X123.064 Y133.736 E5.8381
G1 X122.349 Y134.017 E5.86366
G1 X121.607 Y134.223 E5.88927
G1 X120.849 Y134.351 E5.91484
G1 X120 Y134.4 E5.94312
G1 X115 Y134.4 E6.10942
G1 X114.232 Y134.36 E6.135
G1 X113.472 Y134.241 E6.16059
G1 X113.022 Y134.121 E6.17608
G1 X112.726 Y134.203 E6.18629
G1 X111.968 Y134.331 E6.21186
G1 X111.119 Y134.38 E6.24015
G1 X106.119 Y134.38 E6.40645
G1 X105.351 Y134.34 E6.43202
G1 X104.591 Y134.221 E6.45761
G1 X103.848 Y134.023 E6.48319
G1 X103.129 Y133.749 E6.50878
G1 X102.443 Y133.402 E6.53435
G1 X101.796 Y132.986 E6.55993
G1 X101.196 Y132.505 E6.58551
G1 X100.649 Y131.964 E6.6111
G1 X100.161 Y131.369 E6.63669
G1 X99.738 Y130.727 E6.66226
G1 X99.383 Y130.044 E6.68786
G1 X99.102 Y129.329 E6.71341
G1 X98.896 Y128.587 E6.73903
G1 X98.768 Y127.829 E6.7646
G1 X98.719 Y126.98 E6.79288
G1 X98.719 Y124.99 E6.85907
G1 X98.759 Y124.222 E6.88465
G1 X98.878 Y123.462 E6.91023
G1 X99.076 Y122.719 E6.93581
G1 X99.35 Y122 E6.9614
G1 X99.697 Y121.314 E6.98697
G1 X100.113 Y120.667 E7.01255
G1 X100.594 Y120.067 E7.03813
G1 X101.135 Y119.52 E7.06372
G1 X101.73 Y119.032 E7.08931
G1 X102.066 Y118.811 E7.10269
G1 X102.066 Y116.58 E7.17689
G1 X101.787 Y116.399 E7.18795
G1 X101.188 Y115.917 E7.21352
G1 X100.642 Y115.376 E7.23909
G1 X100.155 Y114.78 E7.26469
G1 X99.732 Y114.138 E7.29026
G1 X99.379 Y113.454 E7.31586
G1 X99.098 Y112.738 E7.34144
G1 X98.893 Y111.997 E7.36701
G1 X98.767 Y111.238 E7.3926
G1 X98.719 Y110.4 E7.42052
G1 X98.719 Y107.98 E7.50101
G1 X98.759 Y107.212 E7.52659
G1 X98.878 Y106.452 E7.55218
G1 X99.076 Y105.709 E7.57775
G1 X99.35 Y104.99 E7.60334
G1 X99.697 Y104.304 E7.62891
G1 X100.113 Y103.657 E7.65449
G1 X100.594 Y103.057 E7.68007
G1 X101.135 Y102.51 E7.70566
G0 F6000 X101.527 Y102.696
G1 F1200 X102.117 Y102.237 E7.73052
G1 X102.753 Y101.842 E7.75542
G1 X103.427 Y101.518 E7.7803
G1 X104.132 Y101.268 E7.80518
G1 X104.86 Y101.094 E7.83007
G1 X105.602 Y100.999 E7.85495
G1 X106.119 Y100.98 E7.87216
G1 X111.119 Y100.98 E8.03846
G1 X111.866 Y101.02 E8.06334
G1 X112.604 Y101.139 E8.0882
G1 X113.085 Y101.271 E8.10479
G1 X113.741 Y101.114 E8.12723
G1 X114.483 Y101.019 E8.15211
G1 X115 Y101 E8.16932
G1 X120 Y101 E8.33562
G1 X120.747 Y101.04 E8.3605
G1 X121.485 Y101.159 E8.38536
G1 X122.207 Y101.357 E8.41026
G1 X122.903 Y101.63 E8.43513
G1 X123.566 Y101.977 E8.46002
G1 X124.189 Y102.392 E8.48491
G1 X124.763 Y102.871 E8.50978
G1 X125.284 Y103.408 E8.53466
G1 X125.743 Y103.998 E8.55953
G1 X126.138 Y104.634 E8.58443
G1 X126.462 Y105.308 E8.6093
G1 X126.712 Y106.013 E8.63418
G1 X126.886 Y106.741 E8.65908
G1 X126.981 Y107.483 E8.68396
G1 X127 Y108 E8.70116
G1 X127 Y127 E9.33311
G1 X126.96 Y127.747 E9.35799
G1 X126.841 Y128.485 E9.38285
G1 X126.643 Y129.207 E9.40775
G1 X126.37 Y129.903 E9.43262
G1 X126.023 Y130.566 E9.45751
G1 X125.608 Y131.189 E9.4824
G1 X125.129 Y131.763 E9.50727
G1 X124.592 Y132.284 E9.53215
G1 X124.002 Y132.743 E9.55702
G1 X123.366 Y133.138 E9.58192
G1 X122.692 Y133.462 E9.60679
G1 X121.987 Y133.712 E9.63167
G1 X121.259 Y133.886 E9.65656
G1 X120.517 Y133.981 E9.68144
G1 X120 Y134 E9.69865
G1 X115 Y134 E9.86495
G1 X114.253 Y133.96 E9.88983
G1 X113.515 Y133.841 E9.9147
G1 X113.034 Y133.709 E9.93129
G1 X112.378 Y133.866 E9.95372
G1 X111.636 Y133.961 E9.9786
G1 X111.119 Y133.98 E9.99581
G1 X106.119 Y133.98 E10.16211
G1 X105.372 Y133.94 E10.18699
G1 X104.634 Y133.821 E10.21185
G1 X103.912 Y133.623 E10.23675
G1 X103.216 Y133.35 E10.26162
G1 X102.553 Y133.003 E10.28651
G1 X101.93 Y132.588 E10.31141
G1 X101.356 Y132.109 E10.33627
G1 X100.835 Y131.572 E10.36116
G1 X100.376 Y130.982 E10.38602
G1 X99.981 Y130.346 E10.41092
G1 X99.657 Y129.672 E10.43579
G1 X99.407 Y128.967 E10.46067
G1 X99.233 Y128.239 E10.48557
G1 X99.138 Y127.497 E10.51045
G1 X99.119 Y126.98 E10.52766
G1 X99.119 Y124.99 E10.59384
G1 X99.159 Y124.243 E10.61872
G1 X99.278 Y123.505 E10.64359
G1 X99.476 Y122.783 E10.66849
G1 X99.749 Y122.087 E10.69335
G1 X100.096 Y121.424 E10.71824
G1 X100.511 Y120.801 E10.74314
G1 X100.99 Y120.227 E10.76801
G1 X101.527 Y119.706 E10.79289
G1 X102.117 Y119.247 E10.81775
G1 X102.466 Y119.03 E10.83142
G1 X102.466 Y116.366 E10.92003
G1 X101.922 Y116.002 E10.9418
G1 X101.348 Y115.522 E10.96669
G1 X100.829 Y114.984 E10.99155
G1 X100.37 Y114.393 E11.01644
G1 X99.976 Y113.757 E11.04132
G1 X99.653 Y113.082 E11.06621
G1 X99.404 Y112.377 E11.09108
G1 X99.231 Y111.649 E11.11596
G1 X99.137 Y110.907 E11.14084
G1 X99.119 Y110.4 E11.15771
G1 X99.119 Y107.98 E11.2382
G1 X99.159 Y107.233 E11.26308
G1 X99.278 Y106.495 E11.28795
G1 X99.476 Y105.773 E11.31285
G1 X99.749 Y105.077 E11.33771
G1 X100.096 Y104.414 E11.3626
G1 X100.511 Y103.791 E11.3875
G1 X100.99 Y103.217 E11.41237
G1 X101.527 Y102.696 E11.43725
G0 F6000 X101.384 Y103.382
G1 F1200 X101.918 Y102.889 E11.46142
G1 X102.503 Y102.459 E11.48557
G1 X103.132 Y102.095 E11.50974
G1 X103.797 Y101.802 E11.53391
G1 X104.49 Y101.584 E11.55808
G1 X105.202 Y101.444 E11.58221
G1 X106.119 Y101.38 E11.61278
G1 X111.119 Y101.38 E11.77909
G1 X111.844 Y101.42 E11.80324
G1 X112.561 Y101.539 E11.82741
G1 X113.096 Y101.691 E11.84591
G1 X113.371 Y101.604 E11.8555
G1 X114.083 Y101.464 E11.87964
G1 X115 Y101.4 E11.91021
G1 X120 Y101.4 E12.07651
G1 X120.725 Y101.44 E12.10066
G1 X121.442 Y101.559 E12.12483
G1 X122.141 Y101.757 E12.149
G1 X122.814 Y102.03 E12.17315
G1 X123.453 Y102.375 E12.19731
G1 X124.05 Y102.789 E12.22147
G1 X124.598 Y103.265 E12.24561
G1 X125.091 Y103.799 E12.26979
G1 X125.521 Y104.384 E12.29393
G1 X125.885 Y105.013 E12.3181
G1 X126.178 Y105.678 E12.34227
G1 X126.396 Y106.371 E12.36644
G1 X126.536 Y107.083 E12.39057
G1 X126.6 Y108 E12.42115
G1 X126.6 Y127 E13.05309
G1 X126.56 Y127.725 E13.07724
G1 X126.441 Y128.442 E13.10141
G1 X126.243 Y129.141 E13.12558
G1 X125.97 Y129.814 E13.14973
G1 X125.625 Y130.453 E13.17388
G1 X125.211 Y131.05 E13.19805
G1 X124.735 Y131.598 E13.22219
G1 X124.201 Y132.091 E13.24636
G1 X123.616 Y132.521 E13.27051
G1 X122.987 Y132.885 E13.29468
G1 X122.322 Y133.178 E13.31885
G1 X121.629 Y133.396 E13.34301
G1 X120.917 Y133.536 E13.36715
G1 X120 Y133.6 E13.39772
G1 X115 Y133.6 E13.56402
G1 X114.275 Y133.56 E13.58817
G1 X113.558 Y133.441 E13.61235
G1 X113.023 Y133.289 E13.63085
G1 X112.748 Y133.376 E13.64044
G1 X112.036 Y133.516 E13.66457
G1 X111.119 Y133.58 E13.69515
G1 X106.119 Y133.58 E13.86145
G1 X105.394 Y133.54 E13.8856
G1 X104.677 Y133.421 E13.90977
G1 X103.978 Y133.223 E13.93394
G1 X103.305 Y132.95 E13.95809
G1 X102.666 Y132.605 E13.98224
G1 X102.069 Y132.191 E14.00641
G1 X101.521 Y131.715 E14.03055
G1 X101.028 Y131.181 E14.05472
G1 X100.598 Y130.596 E14.07887
G1 X100.234 Y129.967 E14.10304
G1 X99.941 Y129.302 E14.12721
G1 X99.723 Y128.609 E14.15137
G1 X99.583 Y127.897 E14.17551
G1 X99.519 Y126.98 E14.20608
G1 X99.519 Y124.99 E14.27227
G1 X99.559 Y124.265 E14.29642
G1 X99.678 Y123.548 E14.32059
G1 X99.876 Y122.849 E14.34476
G1 X100.149 Y122.176 E14.36891
G1 X100.494 Y121.537 E14.39307
G1 X100.908 Y120.94 E14.41723
G1 X101.384 Y120.392 E14.44137
G1 X101.918 Y119.899 E14.46555
G1 X102.503 Y119.469 E14.48969
G1 X102.866 Y119.259 E14.50364
G1 X102.866 Y116.133 E14.60761
G1 X102.658 Y116.02 E14.61549
G1 X102.061 Y115.605 E14.63967
G1 X101.514 Y115.128 E14.66381
G1 X101.022 Y114.593 E14.68798
G1 X100.592 Y114.008 E14.71213
G1 X100.229 Y113.379 E14.73628
G1 X99.938 Y112.713 E14.76046
G1 X99.721 Y112.02 E14.78461
G1 X99.582 Y111.307 E14.80877
G1 X99.519 Y110.4 E14.83901
G1 X99.519 Y107.98 E14.9195
G1 X99.559 Y107.255 E14.94365
G1 X99.678 Y106.538 E14.96783
G1 X99.876 Y105.839 E14.99199
G1 X100.149 Y105.166 E15.01614
G1 X100.494 Y104.527 E15.0403
G1 X100.908 Y103.93 E15.06446
G1 X101.384 Y103.382 E15.0886
G0 F6000 X101.778 Y103.553
G1 F1200 X102.308 Y103.089 E15.11203
G1 X102.887 Y102.689 E15.13544
G1 X103.508 Y102.357 E15.15886
G1 X104.162 Y102.097 E15.18227
G1 X104.842 Y101.913 E15.2057
G1 X105.538 Y101.807 E15.22911
G1 X106.119 Y101.78 E15.24846
G1 X111.119 Y101.78 E15.41476
G1 X111.822 Y101.82 E15.43818
G1 X112.516 Y101.939 E15.4616
G1 X113.085 Y102.106 E15.48132
G1 X113.723 Y101.933 E15.50331
G1 X114.419 Y101.827 E15.52672
G1 X115 Y101.8 E15.54607
G1 X120 Y101.8 E15.71237
G1 X120.703 Y101.84 E15.73579
G1 X121.397 Y101.959 E15.75921
G1 X122.072 Y102.157 E15.78261
G1 X122.721 Y102.429 E15.80601
G1 X123.335 Y102.774 E15.82944
G1 X123.906 Y103.185 E15.85283
G1 X124.427 Y103.659 E15.87626
G1 X124.891 Y104.189 E15.89969
G1 X125.291 Y104.768 E15.9231
G1 X125.623 Y105.389 E15.94652
G1 X125.883 Y106.043 E15.96993
G1 X126.067 Y106.723 E15.99336
G1 X126.173 Y107.419 E16.01677
G1 X126.2 Y108 E16.03612
G1 X126.2 Y127 E16.66806
G1 X126.16 Y127.703 E16.69148
G1 X126.041 Y128.397 E16.7149
G1 X125.843 Y129.072 E16.7383
G1 X125.571 Y129.721 E16.7617
G1 X125.226 Y130.335 E16.78512
G1 X124.815 Y130.906 E16.80852
G1 X124.341 Y131.427 E16.83195
G1 X123.811 Y131.891 E16.85538
G1 X123.232 Y132.291 E16.87879
G1 X122.611 Y132.623 E16.90221
G1 X121.957 Y132.883 E16.92562
G1 X121.277 Y133.067 E16.94905
G1 X120.581 Y133.173 E16.97246
G1 X120 Y133.2 E16.99181
G1 X115 Y133.2 E17.15811
G1 X114.297 Y133.16 E17.18153
G1 X113.603 Y133.041 E17.20495
G1 X113.034 Y132.874 E17.22467
G1 X112.396 Y133.047 E17.24666
G1 X111.7 Y133.153 E17.27007
G1 X111.119 Y133.18 E17.28942
G1 X106.119 Y133.18 E17.45572
G1 X105.416 Y133.14 E17.47914
G1 X104.722 Y133.021 E17.50256
G1 X104.047 Y132.823 E17.52595
G1 X103.398 Y132.551 E17.54936
G1 X102.784 Y132.206 E17.57278
G1 X102.213 Y131.795 E17.59618
G1 X101.692 Y131.321 E17.61961
G1 X101.228 Y130.791 E17.64304
G1 X100.828 Y130.212 E17.66645
G1 X100.496 Y129.591 E17.68987
G1 X100.236 Y128.937 E17.71327
G1 X100.052 Y128.257 E17.7367
G1 X99.946 Y127.561 E17.76012
G1 X99.919 Y126.98 E17.77947
G1 X99.919 Y124.99 E17.84565
G1 X99.959 Y124.287 E17.86907
G1 X100.078 Y123.593 E17.89249
G1 X100.276 Y122.918 E17.91589
G1 X100.548 Y122.269 E17.93929
G1 X100.893 Y121.655 E17.96272
G1 X101.304 Y121.084 E17.98612
G1 X101.778 Y120.563 E18.00954
G1 X102.308 Y120.099 E18.03297
G1 X102.887 Y119.699 E18.05638
G1 X103.266 Y119.496 E18.07068
G1 X103.266 Y115.898 E18.19035
G1 X102.776 Y115.621 E18.20907
G1 X102.206 Y115.209 E18.23246
G1 X101.686 Y114.734 E18.25589
G1 X101.223 Y114.204 E18.2793
G1 X100.823 Y113.624 E18.30273
G1 X100.492 Y113.003 E18.32613
G1 X100.233 Y112.348 E18.34956
G1 X100.05 Y111.668 E18.37298
G1 X99.945 Y110.972 E18.39639
G1 X99.919 Y110.4 E18.41544
G1 X99.919 Y107.98 E18.49593
G1 X99.959 Y107.277 E18.51935
G1 X100.078 Y106.583 E18.54277
G1 X100.276 Y105.908 E18.56616
G1 X100.548 Y105.259 E18.58957
G1 X100.893 Y104.645 E18.61299
G1 X101.304 Y104.074 E18.63639
G1 X101.778 Y103.553 E18.65982
G0 F6000 X102.172 Y103.731
G1 F1200 X102.697 Y103.297 E18.68247
G1 X103.269 Y102.928 E18.70511
G1 X103.881 Y102.629 E18.72777
G1 X104.523 Y102.404 E18.7504
G1 X105.188 Y102.255 E18.77306
G1 X106.119 Y102.18 E18.80413
G1 X111.119 Y102.18 E18.97043
G1 X111.799 Y102.22 E18.99308
G1 X112.469 Y102.339 E19.01572
G1 X113.101 Y102.53 E19.03768
