;FLAVOR:Marlin
;TIME:606
;Filament used: 0.279775m
;Layer height: 0.2
;MINX:86.124
;MINY:100.104
;MINZ:0.2
;MAXX:131.892
;MAXY:135.888
;MAXZ:5
;Generated with Cura_SteamEngine 4.1.0
M140 S60
M105
M190 S60
M104 S228
M105
M109 S228
M82 ;absolute extrusion mode
; Ender 3 Custom Start G-code
G28 ; Home all axes
G92 E0 ; Reset Extruder
G1 Z2.0 F3000 ; Move Z Axis up little to prevent scratching of Heat Bed
G1 X0.1 Y20 Z0.3 F5000.0 ; Move to start position
G1 X0.1 Y200.0 Z0.3 F1500.0 E15 ; Draw the first line
G1 X0.4 Y200.0 Z0.3 F5000.0 ; Move to side a little
G1 X0.4 Y20 Z0.3 F1500.0 E30 ; Draw the second line
G92 E0 ; Reset Extruder
G1 Z2.0 F3000 ; Move Z Axis up little to prevent scratching of Heat Bed
; End of custom start GCode
G92 E0
G92 E0
G1 F2400 E-5
;LAYER_COUNT:25
;LAYER:0
M107
M204 S500
M205 X10 Y10
G0 F3600 X88.601 Y101.465 Z0.2
;TYPE:SKIRT
G1 F2400 E0
G1 F1200 X89.189 Y101.058 E0.02378
G1 X89.818 Y100.719 E0.04755
G1 X90.482 Y100.452 E0.07135
G1 X91.171 Y100.261 E0.09513
G1 X91.877 Y100.148 E0.11891
G1 X92.355 Y100.117 E0.13485
G1 X92.676 Y100.108 E0.14553
G1 X92.854 Y100.105 E0.15145
G1 X98.861 Y100.104 E0.35124
G1 X98.969 Y100.105 E0.35483
G1 X100.58 Y100.132 E0.40842
G1 X100.664 Y100.134 E0.41122
G1 X101.54 Y100.16 E0.44037
G1 X104.197 Y100.165 E0.52874
G1 X105.832 Y100.131 E0.58313
G1 X106.642 Y100.108 E0.61008
G1 X106.826 Y100.105 E0.6162
G1 X112.831 Y100.104 E0.81593
G1 X112.937 Y100.105 E0.81946
G1 X114.465 Y100.13 E0.87028
G1 X117.175 Y100.136 E0.96042
G1 X118.653 Y100.106 E1.00959
G1 X118.781 Y100.105 E1.01385
G1 X124.861 Y100.104 E1.21607
G1 X124.967 Y100.105 E1.21959
G1 X125.576 Y100.115 E1.23985
G1 X126.289 Y100.167 E1.26363
G1 X126.993 Y100.298 E1.28745
G1 X127.677 Y100.506 E1.31122
G1 X128.333 Y100.79 E1.335
G1 X128.954 Y101.145 E1.35879
G1 X129.532 Y101.567 E1.38259
G1 X130.058 Y102.051 E1.40637
G1 X130.528 Y102.591 E1.43018
G1 X130.934 Y103.18 E1.45397
G1 X131.272 Y103.81 E1.47775
G1 X131.537 Y104.474 E1.50153
G1 X131.727 Y105.164 E1.52533
G1 X131.839 Y105.87 E1.54911
G1 X131.87 Y106.38 E1.5661
G1 X131.891 Y107.385 E1.59954
G1 X131.892 Y107.519 E1.60399
G1 X131.892 Y112.78 E1.77898
G1 X131.891 Y112.872 E1.78204
G1 X131.881 Y113.57 E1.80525
G1 X131.831 Y114.283 E1.82903
G1 X131.702 Y114.987 E1.85283
G1 X131.494 Y115.671 E1.87661
G1 X131.212 Y116.328 E1.90039
G1 X130.858 Y116.95 E1.92419
G1 X130.314 Y117.675 E1.95434
G1 X129.964 Y118.078 E1.97209
G1 X129.877 Y118.175 E1.97643
G1 X128.846 Y119.314 E2.02753
G1 X127.091 Y121.367 E2.11736
G1 X125.436 Y123.416 E2.20496
G1 X123.841 Y125.51 E2.29251
G1 X122.285 Y127.678 E2.38127
G1 X120.821 Y129.843 E2.4682
G1 X119.338 Y132.179 E2.56023
G1 X118.935 Y132.834 E2.5858
G1 X118.526 Y133.421 E2.6096
G1 X118.055 Y133.959 E2.63338
G1 X117.526 Y134.441 E2.65718
G1 X116.947 Y134.861 E2.68098
G1 X116.325 Y135.213 E2.70475
G1 X115.667 Y135.494 E2.72854
G1 X114.982 Y135.7 E2.75233
G1 X114.279 Y135.829 E2.77611
G1 X113.662 Y135.876 E2.79669
G1 X113.337 Y135.885 E2.8075
G1 X113.161 Y135.887 E2.81336
G1 X107.154 Y135.888 E3.01315
G1 X107.05 Y135.887 E3.01661
G1 X106.428 Y135.877 E3.0373
G1 X105.715 Y135.826 E3.06107
G1 X105.011 Y135.695 E3.08489
G1 X104.327 Y135.487 E3.10867
G1 X103.671 Y135.203 E3.13245
G1 X103.05 Y134.848 E3.15624
G1 X102.472 Y134.426 E3.18004
G1 X101.945 Y133.942 E3.20384
G1 X101.326 Y133.202 E3.23593
G1 X100.85 Y132.536 E3.26315
G1 X99.256 Y130.374 E3.35249
G1 X97.612 Y128.27 E3.4413
G1 X95.942 Y126.253 E3.5284
G1 X94.187 Y124.254 E3.61687
G1 X92.37 Y122.295 E3.70574
G1 X90.544 Y120.436 E3.79241
G1 X88.619 Y118.582 E3.8813
G1 X88.172 Y118.164 E3.90166
G1 X87.678 Y117.647 E3.92544
G1 X87.245 Y117.078 E3.94922
G1 X86.878 Y116.464 E3.97301
G1 X86.582 Y115.813 E3.9968
G1 X86.36 Y115.133 E4.02059
G1 X86.216 Y114.433 E4.04436
G1 X86.147 Y113.621 E4.07146
G1 X86.126 Y112.583 E4.106
G1 X86.125 Y112.455 E4.11025
G1 X86.124 Y107.21 E4.2847
G1 X86.125 Y107.117 E4.2878
G1 X86.135 Y106.422 E4.31091
G1 X86.185 Y105.708 E4.33472
G1 X86.314 Y105.005 E4.35849
G1 X86.522 Y104.32 E4.3823
G1 X86.804 Y103.663 E4.40608
G1 X87.158 Y103.042 E4.42986
G1 X87.579 Y102.463 E4.45367
G1 X88.062 Y101.936 E4.47744
G1 X88.601 Y101.465 E4.50125
G0 F3600 X88.987 Y101.675
G1 F1200 X89.568 Y101.298 E4.52429
G1 X90.189 Y100.991 E4.54733
G1 X90.841 Y100.758 E4.57036
G1 X91.516 Y100.601 E4.59341
G1 X92.366 Y100.516 E4.62182
G1 X92.687 Y100.507 E4.6325
G1 X92.854 Y100.505 E4.63805
G1 X98.861 Y100.504 E4.83785
G1 X98.963 Y100.505 E4.84124
G1 X100.574 Y100.532 E4.89483
G1 X100.652 Y100.534 E4.89742
G1 X101.528 Y100.56 E4.92657
G1 X104.204 Y100.565 E5.01558
G1 X105.84 Y100.531 E5.07
G1 X105.84 Y100.532 E5.07004
G1 X106.653 Y100.508 E5.09709
G1 X106.826 Y100.505 E5.10284
G1 X112.831 Y100.504 E5.30257
G1 X112.93 Y100.505 E5.30586
G1 X114.458 Y100.53 E5.35669
G1 X117.183 Y100.536 E5.44733
G1 X118.661 Y100.506 E5.49649
G1 X118.781 Y100.505 E5.50049
G1 X124.861 Y100.504 E5.70271
G1 X124.961 Y100.505 E5.70603
G1 X125.57 Y100.515 E5.72629
G1 X126.26 Y100.566 E5.7493
G1 X126.94 Y100.697 E5.77234
G1 X127.601 Y100.905 E5.79538
G1 X128.233 Y101.188 E5.81842
G1 X128.828 Y101.541 E5.84143
G1 X129.379 Y101.961 E5.86447
G1 X129.878 Y102.442 E5.88752
G1 X130.317 Y102.977 E5.91054
G1 X130.693 Y103.559 E5.93359
G1 X130.998 Y104.18 E5.9566
G1 X131.231 Y104.833 E5.97966
G1 X131.386 Y105.508 E6.00269
G1 X131.47 Y106.389 E6.03213
G1 X131.491 Y107.394 E6.06556
G1 X131.492 Y107.519 E6.06972
G1 X131.492 Y112.78 E6.2447
G1 X131.491 Y112.866 E6.24756
G1 X131.481 Y113.564 E6.27078
G1 X131.432 Y114.255 E6.29382
G1 X131.302 Y114.935 E6.31685
G1 X131.096 Y115.596 E6.33987
G1 X130.814 Y116.229 E6.36292
G1 X130.462 Y116.825 E6.38594
G1 X130.012 Y117.412 E6.41054
G1 X129.662 Y117.815 E6.4283
G1 X129.581 Y117.907 E6.43237
G1 X128.529 Y119.07 E6.48453
G1 X126.792 Y121.102 E6.57345
G1 X125.122 Y123.168 E6.6618
G1 X123.513 Y125.281 E6.75014
G1 X121.962 Y127.443 E6.83864
G1 X120.469 Y129.651 E6.92729
G1 X119.017 Y131.937 E7.01736
G1 X118.594 Y132.624 E7.04419
G1 X118.198 Y133.192 E7.06722
G1 X117.738 Y133.71 E7.09027
G1 X117.222 Y134.172 E7.1133
G1 X116.657 Y134.571 E7.13631
G1 X116.049 Y134.903 E7.15935
G1 X115.406 Y135.162 E7.1824
G1 X114.739 Y135.346 E7.20542
G1 X114.054 Y135.451 E7.22847
G1 X113.651 Y135.476 E7.2419
G1 X113.326 Y135.485 E7.25271
G1 X113.161 Y135.487 E7.2582
G1 X107.154 Y135.488 E7.45799
G1 X107.057 Y135.487 E7.46122
G1 X106.435 Y135.477 E7.48191
G1 X105.744 Y135.426 E7.50495
G1 X105.064 Y135.296 E7.52798
G1 X104.403 Y135.088 E7.55103
G1 X103.771 Y134.805 E7.57406
G1 X103.175 Y134.452 E7.5971
G1 X102.625 Y134.032 E7.62012
G1 X102.126 Y133.552 E7.64314
G1 X101.651 Y132.969 E7.66816
G1 X101.148 Y132.266 E7.69691
G1 X99.591 Y130.153 E7.7842
G1 X97.919 Y128.014 E7.8745
G1 X96.234 Y125.98 E7.96235
G1 X94.498 Y124.001 E8.04991
G1 X92.665 Y122.026 E8.13953
G1 X90.824 Y120.151 E8.22693
G1 X88.853 Y118.253 E8.31794
G1 X88.446 Y117.872 E8.33648
G1 X87.968 Y117.371 E8.35951
G1 X87.552 Y116.817 E8.38256
G1 X87.202 Y116.22 E8.40557
G1 X86.923 Y115.586 E8.42861
G1 X86.719 Y114.924 E8.45165
G1 X86.593 Y114.243 E8.47469
G1 X86.547 Y113.613 E8.49569
G1 X86.526 Y112.575 E8.53023
G1 X86.525 Y112.455 E8.53422
G1 X86.524 Y107.21 E8.70867
G1 X86.525 Y107.123 E8.71156
G1 X86.535 Y106.428 E8.73468
G1 X86.585 Y105.737 E8.75772
G1 X86.714 Y105.057 E8.78074
G1 X86.92 Y104.396 E8.80377
G1 X87.202 Y103.763 E8.82682
G1 X87.554 Y103.167 E8.84984
G1 X87.973 Y102.615 E8.87289
G1 X88.453 Y102.116 E8.89592
G1 X88.987 Y101.675 E8.91895
G0 F3600 X88.843 Y102.303
G1 F1200 X89.372 Y101.892 E8.94123
G1 X89.945 Y101.548 E8.96346
G1 X90.556 Y101.275 E8.98572
G1 X91.195 Y101.076 E9.00798
G1 X91.853 Y100.956 E9.03023
G1 X92.377 Y100.916 E9.04771
G1 X92.698 Y100.907 E9.05839
G1 X92.854 Y100.905 E9.06358
G1 X98.861 Y100.904 E9.26337
G1 X98.956 Y100.905 E9.26653
G1 X100.567 Y100.932 E9.32012
G1 X100.64 Y100.933 E9.32255
G1 X101.551 Y100.96 E9.35286
G1 X104.211 Y100.965 E9.44133
G1 X105.808 Y100.932 E9.49446
G1 X106.665 Y100.907 E9.52298
G1 X106.826 Y100.905 E9.52833
G1 X112.831 Y100.904 E9.72806
G1 X112.924 Y100.905 E9.73115
G1 X114.451 Y100.93 E9.78195
G1 X117.19 Y100.936 E9.87305
G1 X118.669 Y100.906 E9.92225
G1 X118.781 Y100.905 E9.92597
G1 X124.861 Y100.904 E10.1282
G1 X124.954 Y100.905 E10.13129
G1 X125.563 Y100.915 E10.15155
G1 X126.23 Y100.966 E10.1738
G1 X126.886 Y101.096 E10.19604
G1 X127.522 Y101.303 E10.21829
G1 X128.129 Y101.585 E10.24055
G1 X128.698 Y101.937 E10.2628
G1 X129.221 Y102.355 E10.28507
G1 X129.69 Y102.832 E10.30732
G1 X130.099 Y103.361 E10.32956
G1 X130.442 Y103.935 E10.3518
G1 X130.714 Y104.547 E10.37407
G1 X130.911 Y105.186 E10.39631
G1 X131.031 Y105.844 E10.41856
G1 X131.07 Y106.397 E10.437
G1 X131.091 Y107.402 E10.47043
G1 X131.092 Y107.519 E10.47432
G1 X131.092 Y112.78 E10.64931
G1 X131.091 Y112.86 E10.65197
G1 X131.081 Y113.558 E10.67518
G1 X131.032 Y114.225 E10.69743
G1 X130.903 Y114.882 E10.7197
G1 X130.697 Y115.518 E10.74193
G1 X130.416 Y116.126 E10.76421
G1 X130.066 Y116.695 E10.78643
G1 X129.71 Y117.15 E10.80564
G1 X129.36 Y117.553 E10.8234
G1 X129.284 Y117.639 E10.82721
G1 X128.229 Y118.805 E10.87951
G1 X126.475 Y120.857 E10.9693
G1 X124.812 Y122.915 E11.0573
G1 X123.198 Y125.034 E11.1459
G1 X121.621 Y127.232 E11.23587
G1 X120.159 Y129.394 E11.32268
G1 X118.636 Y131.793 E11.41719
G1 X118.254 Y132.414 E11.44144
G1 X117.869 Y132.962 E11.46372
G1 X117.423 Y133.46 E11.48595
G1 X116.92 Y133.901 E11.5082
G1 X116.368 Y134.279 E11.53045
G1 X115.775 Y134.589 E11.55271
G1 X115.149 Y134.825 E11.57496
G1 X114.499 Y134.985 E11.59722
G1 X113.64 Y135.076 E11.62595
G1 X113.315 Y135.085 E11.63677
G1 X113.161 Y135.087 E11.64189
G1 X107.154 Y135.088 E11.84168
G1 X107.063 Y135.087 E11.84471
G1 X106.441 Y135.077 E11.8654
G1 X105.774 Y135.027 E11.88765
G1 X105.118 Y134.897 E11.90989
G1 X104.481 Y134.689 E11.93218
G1 X103.875 Y134.408 E11.9544
G1 X103.306 Y134.056 E11.97665
G1 X102.783 Y133.639 E11.9989
G1 X102.313 Y133.162 E12.02117
G1 X101.977 Y132.737 E12.03919
G1 X101.474 Y132.034 E12.06794
G1 X99.883 Y129.875 E12.15714
G1 X98.258 Y127.796 E12.2449
G1 X96.544 Y125.727 E12.33427
G1 X94.791 Y123.729 E12.42267
G1 X92.944 Y121.738 E12.513
G1 X91.122 Y119.883 E12.59948
G1 X89.13 Y117.965 E12.69145
G1 X88.719 Y117.58 E12.71018
G1 X88.259 Y117.095 E12.73242
G1 X87.86 Y116.558 E12.75467
G1 X87.528 Y115.977 E12.77692
G1 X87.267 Y115.361 E12.79918
G1 X87.082 Y114.718 E12.82143
G1 X86.975 Y114.058 E12.84367
G1 X86.947 Y113.605 E12.85876
G1 X86.926 Y112.567 E12.89329
G1 X86.925 Y112.455 E12.89702
G1 X86.924 Y107.21 E13.07147
G1 X86.925 Y107.128 E13.0742
G1 X86.935 Y106.433 E13.09731
G1 X86.984 Y105.766 E13.11956
G1 X87.113 Y105.11 E13.1418
G1 X87.319 Y104.473 E13.16406
G1 X87.6 Y103.866 E13.18631
G1 X87.951 Y103.296 E13.20857
G1 X88.367 Y102.773 E13.2308
G1 X88.843 Y102.303 E13.25305
G0 F3600 X89.232 Y102.497
G1 F1200 X89.754 Y102.119 E13.27449
G1 X90.32 Y101.809 E13.29595
G1 X90.919 Y101.571 E13.31739
G1 X91.543 Y101.409 E13.33883
G1 X92.388 Y101.316 E13.3671
G1 X92.709 Y101.307 E13.37779
G1 X92.854 Y101.305 E13.38261
G1 X98.861 Y101.304 E13.5824
G1 X98.949 Y101.305 E13.58533
G1 X100.56 Y101.332 E13.63892
G1 X100.628 Y101.333 E13.64118
G1 X101.538 Y101.36 E13.67146
G1 X104.219 Y101.365 E13.76063
G1 X105.826 Y101.332 E13.81409
G1 X106.676 Y101.307 E13.84237
G1 X106.826 Y101.305 E13.84736
G1 X112.831 Y101.304 E14.04709
G1 X112.917 Y101.305 E14.04995
G1 X114.443 Y101.33 E14.10071
G1 X117.197 Y101.336 E14.19231
G1 X118.677 Y101.306 E14.24155
G1 X118.781 Y101.305 E14.24501
G1 X124.861 Y101.304 E14.44723
G1 X124.947 Y101.305 E14.45009
G1 X125.556 Y101.315 E14.47035
G1 X126.199 Y101.365 E14.4918
G1 X126.831 Y101.495 E14.51326
G1 X127.441 Y101.702 E14.53468
G1 X128.021 Y101.982 E14.5561
G1 X128.563 Y102.333 E14.57758
G1 X129.056 Y102.748 E14.59901
G1 X129.495 Y103.22 E14.62045
G1 X129.871 Y103.743 E14.64188
G1 X130.18 Y104.309 E14.66333
G1 X130.417 Y104.909 E14.68478
G1 X130.578 Y105.533 E14.70622
G1 X130.67 Y106.405 E14.73538
G1 X130.691 Y107.41 E14.76881
G1 X130.692 Y107.519 E14.77244
G1 X130.692 Y112.78 E14.94742
G1 X130.691 Y112.854 E14.94988
G1 X130.681 Y113.552 E14.9731
G1 X130.632 Y114.195 E14.99455
G1 X130.504 Y114.827 E15.016
G1 X130.298 Y115.438 E15.03744
G1 X130.019 Y116.019 E15.05888
G1 X129.67 Y116.561 E15.08032
G1 X129.408 Y116.888 E15.09426
G1 X129.058 Y117.291 E15.11201
G1 X128.988 Y117.37 E15.11552
G1 X127.928 Y118.542 E15.16808
G1 X126.161 Y120.608 E15.2585
G1 X124.494 Y122.672 E15.34674
G1 X122.887 Y124.781 E15.43493
G1 X121.297 Y126.997 E15.52564
G1 X119.807 Y129.201 E15.61413
G1 X118.298 Y131.578 E15.70777
G1 X117.913 Y132.204 E15.73222
G1 X117.542 Y132.731 E15.75365
G1 X117.108 Y133.208 E15.7751
G1 X116.618 Y133.628 E15.79657
G1 X116.081 Y133.984 E15.818
G1 X115.503 Y134.27 E15.83945
G1 X114.895 Y134.483 E15.86087
G1 X114.265 Y134.619 E15.88231
G1 X113.629 Y134.676 E15.90355
G1 X113.304 Y134.685 E15.91436
G1 X113.161 Y134.687 E15.91912
G1 X107.154 Y134.688 E16.11891
G1 X107.069 Y134.687 E16.12174
G1 X106.447 Y134.677 E16.14243
G1 X105.805 Y134.627 E16.16385
G1 X105.173 Y134.498 E16.1853
G1 X104.562 Y134.291 E16.20676
G1 X103.982 Y134.01 E16.22819
G1 X103.441 Y133.66 E16.24962
G1 X102.947 Y133.246 E16.27106
G1 X102.508 Y132.773 E16.29253
G1 X102.302 Y132.504 E16.3038
G1 X101.799 Y131.801 E16.33255
G1 X100.204 Y129.638 E16.42193
G1 X98.565 Y127.541 E16.51045
G1 X96.837 Y125.454 E16.60057
G1 X95.069 Y123.438 E16.68976
G1 X93.274 Y121.505 E16.7775
G1 X91.384 Y119.58 E16.86722
G1 X89.408 Y117.677 E16.95847
G1 X88.992 Y117.288 E16.97741
G1 X88.55 Y116.819 E16.99884
G1 X88.169 Y116.299 E17.02029
G1 X87.855 Y115.736 E17.04173
G1 X87.614 Y115.139 E17.06314
G1 X87.448 Y114.516 E17.08458
G1 X87.347 Y113.597 E17.11533
G1 X87.326 Y112.559 E17.14986
G1 X87.325 Y112.455 E17.15332
G1 X87.324 Y107.21 E17.32777
G1 X87.325 Y107.134 E17.3303
G1 X87.335 Y106.439 E17.35342
G1 X87.384 Y105.796 E17.37487
G1 X87.512 Y105.165 E17.39628
G1 X87.718 Y104.554 E17.41773
G1 X87.997 Y103.973 E17.43916
G1 X88.347 Y103.431 E17.46062
G1 X88.76 Y102.936 E17.48207
G1 X89.232 Y102.497 E17.5035
G1 F2400 E12.5035
;MESH:Fu??.stl(2)
G0 F3600 X92.938 Y105.839
G0 X92.938 Y106.918
G0 X93.125 Y112.888
;TYPE:WALL-INNER
G1 F2400 E17.5035
G1 F1200 X93.124 Y107.304 E17.68923
G1 X93.124 Y107.104 E17.69588
G1 X93.324 Y107.104 E17.70019
G1 X98.892 Y107.104 E17.88538
G1 X98.893 Y112.887 E18.07772
G1 X93.125 Y112.888 E18.26957
G0 F3600 X99.023 Y113.017
G0 X99.193 Y113.287
;TYPE:WALL-OUTER
G1 F1200 X92.725 Y113.288 E18.4847
G1 X92.724 Y106.904 E18.69703
G1 X92.724 Y106.704 E18.70368
G1 X92.924 Y106.704 E18.70799
G1 X99.092 Y106.704 E18.91314
G1 X99.292 Y106.705 E18.91979
G1 X99.293 Y112.986 E19.1287
G1 X99.293 Y113.085 E19.13199
G1 X99.292 Y113.287 E19.13871
G1 X99.193 Y113.287 E19.142
G0 F3600 X98.993 Y113.287
G0 X98.503 Y112.497
;TYPE:SKIN
G1 F1200 X93.515 Y112.498 E19.3079
G1 X93.514 Y107.494 E19.47433
G1 X98.502 Y107.494 E19.64024
G1 X98.503 Y112.497 E19.80664
G0 F3600 X98.783 Y112.497
G0 X94.214 Y112.778
G0 X94.214 Y112.316
G1 F1200 X93.694 Y111.796 E19.8311
G0 F3600 X93.694 Y111.23
G1 F1200 X94.78 Y112.316 E19.88218
G0 F3600 X95.346 Y112.316
G1 F1200 X93.694 Y110.665 E19.95986
G0 F3600 X93.694 Y110.099
G1 F1200 X95.911 Y112.316 E20.06414
G0 F3600 X96.476 Y112.316
G1 F1200 X93.693 Y109.532 E20.19507
G0 F3600 X93.693 Y108.967
G1 F1200 X97.042 Y112.316 E20.35259
G0 F3600 X97.608 Y112.316
G1 F1200 X93.693 Y108.401 E20.53674
G0 F3600 X93.693 Y107.835
G1 F1200 X98.173 Y112.316 E20.74749
G0 F3600 X98.322 Y111.898
G1 F1200 X94.096 Y107.673 E20.94625
G0 F3600 X94.662 Y107.673
G1 F1200 X98.322 Y111.333 E21.1184
G0 F3600 X98.322 Y110.767
G1 F1200 X95.228 Y107.673 E21.26393
G0 F3600 X95.793 Y107.673
G1 F1200 X98.322 Y110.201 E21.38287
G0 F3600 X98.322 Y109.636
G1 F1200 X96.359 Y107.673 E21.4752
G0 F3600 X96.925 Y107.673
G1 F1200 X98.322 Y109.07 E21.54091
G0 F3600 X98.322 Y108.504
G1 F1200 X97.49 Y107.673 E21.58002
G0 F3600 X98.056 Y107.673
G1 F1200 X98.322 Y107.939 E21.59253
G0 F3600 X98.692 Y107.938
G1 F2400 E16.59253
;MESH:Fu??.stl
G0 F3600 X98.783 Y107.939
