;FLAVOR:Marlin
;TIME:10951
;Filament used: 9.87614m
;Layer height: 0.2
;MINX:45.21
;MINY:52.71
;MINZ:0.2
;MAXX:189.792
;MAXY:182.29
;MAXZ:10
;Generated with Cura_SteamEngine 4.1.0
M140 S50
M105
M190 S50
M104 S210
M105
M109 S210
M82 ;absolute extrusion mode
; Ender 3 Custom Start G-code
G28 ; Home all axes
M420 S1
G92 E0 ; Reset Extruder
G1 Z2.0 F3000 ; Move Z Axis up little to prevent scratching of Heat Bed
G1 X0.1 Y20 Z0.3 F5000.0 ; Move to start position
G1 X0.1 Y200.0 Z0.3 F1500.0 E15 ; Draw the first line
G1 X0.4 Y200.0 Z0.3 F5000.0 ; Move to side a little
G1 X0.4 Y20 Z0.3 F1500.0 E30 ; Draw the second line
G92 E0 ; Reset Extruder
G1 Z2.0 F3000 ; Move Z Axis up little to prevent scratching of Heat Bed
G92 E0
G92 E0
G1 F3600 E-6
;LAYER_COUNT:50
;LAYER:0
M107
M204 S500
M205 X10 Y10
G0 F3600 X52.292 Y57.347 Z0.2
;TYPE:SKIRT
G1 F3600 E0
G1 F1800 X53.094 Y56.708 E0.03411
G1 X54.386 Y55.812 E0.0864
G1 X55.262 Y55.287 E0.12037
G1 X56.663 Y54.566 E0.17277
G1 X57.611 Y54.154 E0.20715
G1 X59.094 Y53.625 E0.25952
G1 X60.069 Y53.348 E0.29323
G1 X61.611 Y53.015 E0.3457
G1 X62.633 Y52.864 E0.38007
G1 X64.204 Y52.738 E0.43248
G1 X64.824 Y52.713 E0.45312
G1 X71.485 Y52.71 E0.67467
G1 X71.489 Y52.71 E0.6748
G1 X163.51 Y52.711 E3.73543
G1 X170 Y52.711 E3.95129
G1 X170.446 Y52.724 E3.96613
G1 X171.844 Y52.804 E4.0127
G1 X172.815 Y52.921 E4.04523
G1 X174.368 Y53.208 E4.09776
G1 X175.358 Y53.459 E4.13173
G1 X176.853 Y53.944 E4.18401
G1 X177.813 Y54.327 E4.21838
G1 X179.236 Y55.008 E4.27085
G1 X180.122 Y55.506 E4.30466
G1 X181.444 Y56.366 E4.35711
G1 X182.269 Y56.983 E4.39138
G1 X183.463 Y58.007 E4.44369
G1 X184.192 Y58.72 E4.47761
G1 X185.244 Y59.893 E4.53002
G1 X185.881 Y60.706 E4.56437
G1 X186.769 Y62.008 E4.61679
G1 X187.286 Y62.883 E4.65059
G1 X187.997 Y64.289 E4.70299
G1 X188.401 Y65.24 E4.73736
G1 X188.92 Y66.728 E4.78977
G1 X189.192 Y67.71 E4.82366
G1 X189.513 Y69.255 E4.87615
G1 X189.655 Y70.267 E4.91014
G1 X189.771 Y71.837 E4.9625
G1 X189.792 Y72.415 E4.98173
G1 X189.79 Y76.953 E5.13267
G1 X189.789 Y155.824 E7.75593
G1 X189.789 Y162.5 E7.97797
G1 X189.775 Y162.962 E7.99335
G1 X189.687 Y164.446 E8.04279
G1 X189.561 Y165.456 E8.07665
G1 X189.263 Y167.007 E8.12918
G1 X189.007 Y167.99 E8.16296
G1 X188.512 Y169.483 E8.21528
G1 X188.117 Y170.451 E8.25005
G1 X187.425 Y171.868 E8.3025
G1 X186.923 Y172.745 E8.33611
G1 X186.054 Y174.06 E8.38853
G1 X185.431 Y174.881 E8.42281
G1 X184.397 Y176.069 E8.47519
G1 X183.676 Y176.794 E8.5092
G1 X182.495 Y177.837 E8.56161
G1 X181.685 Y178.463 E8.59566
G1 X180.375 Y179.344 E8.64816
G1 X179.49 Y179.858 E8.6822
G1 X178.078 Y180.559 E8.73464
G1 X177.123 Y180.957 E8.76905
G1 X175.633 Y181.464 E8.8214
G1 X174.647 Y181.729 E8.85535
G1 X173.099 Y182.038 E8.90786
G1 X172.086 Y182.172 E8.94184
G1 X170.859 Y182.253 E8.98274
G1 X170.407 Y182.27 E8.99779
G1 X167.899 Y182.29 E9.0812
G1 X167.837 Y182.29 E9.08327
G1 X71.49 Y182.289 E12.28778
G1 X65 Y182.289 E12.50364
G1 X64.505 Y182.273 E12.52011
G1 X62.933 Y182.173 E12.5725
G1 X61.905 Y182.039 E12.60698
G1 X60.358 Y181.731 E12.65945
G1 X59.368 Y181.465 E12.69354
G1 X57.878 Y180.958 E12.74589
G1 X56.923 Y180.56 E12.7803
G1 X55.511 Y179.859 E12.83273
G1 X54.651 Y179.362 E12.86577
G1 X53.627 Y178.679 E12.90671
G1 X53.515 Y178.603 E12.91121
G1 X53.229 Y178.405 E12.92278
G1 X52.506 Y177.838 E12.95334
G1 X51.325 Y176.795 E13.00575
G1 X50.623 Y176.091 E13.03881
G1 X49.813 Y175.167 E13.07968
G1 X49.73 Y175.071 E13.0839
G1 X49.506 Y174.807 E13.09542
G1 X48.967 Y174.092 E13.1252
G1 X48.284 Y173.069 E13.16611
G1 X48.192 Y172.929 E13.17168
G1 X48.006 Y172.637 E13.1832
G1 X47.59 Y171.896 E13.21146
G1 X47.046 Y170.793 E13.25237
G1 X46.985 Y170.669 E13.25696
G1 X46.837 Y170.355 E13.26851
G1 X46.503 Y169.524 E13.2983
G1 X46.11 Y168.36 E13.33916
G1 X46.05 Y168.175 E13.34563
G1 X45.948 Y167.846 E13.35708
G1 X45.748 Y167.056 E13.38419
G1 X45.508 Y165.848 E13.42515
G1 X45.468 Y165.632 E13.43246
G1 X45.41 Y165.29 E13.444
G1 X45.317 Y164.494 E13.47065
G1 X45.237 Y163.268 E13.51151
G1 X45.22 Y162.791 E13.52739
G1 X45.21 Y160.306 E13.61004
G1 X45.21 Y160.275 E13.61107
G1 X45.211 Y79.176 E16.30844
G1 X45.211 Y72.5 E16.53048
G1 X45.224 Y72.049 E16.54549
G1 X45.3 Y70.736 E16.58923
G1 X45.407 Y69.825 E16.61974
G1 X45.682 Y68.274 E16.67213
G1 X45.924 Y67.287 E16.70593
G1 X46.398 Y65.786 E16.75828
G1 X46.774 Y64.822 E16.7927
G1 X47.443 Y63.396 E16.84509
G1 X47.94 Y62.497 E16.87926
G1 X48.792 Y61.169 E16.93173
G1 X49.397 Y60.349 E16.96563
G1 X50.411 Y59.148 E17.01791
G1 X51.124 Y58.409 E17.05206
G1 X52.292 Y57.347 E17.10456
G0 F3600 X52.561 Y57.643
G1 F1800 X53.322 Y57.037 E17.13692
G1 X54.614 Y56.141 E17.18921
G1 X55.445 Y55.642 E17.22145
G1 X56.846 Y54.921 E17.27386
G1 X57.746 Y54.531 E17.30648
G1 X59.229 Y54.002 E17.35885
G1 X60.153 Y53.739 E17.39081
G1 X61.695 Y53.406 E17.44328
G1 X62.665 Y53.263 E17.47589
G1 X64.236 Y53.137 E17.52831
G1 X64.825 Y53.113 E17.54791
G1 X71.486 Y53.11 E17.76946
G1 X71.489 Y53.11 E17.76956
G1 X163.51 Y53.111 E20.83019
G1 X170 Y53.111 E21.04605
G1 X170.423 Y53.123 E21.06012
G1 X171.821 Y53.203 E21.1067
G1 X172.743 Y53.314 E21.13758
G1 X174.296 Y53.601 E21.19011
G1 X175.235 Y53.839 E21.22233
G1 X176.73 Y54.324 E21.2746
G1 X177.64 Y54.688 E21.3072
G1 X179.063 Y55.369 E21.35967
G1 X179.904 Y55.841 E21.39175
G1 X181.226 Y56.701 E21.4442
G1 X182.008 Y57.287 E21.47671
G1 X183.202 Y58.311 E21.52902
G1 X183.894 Y58.987 E21.5612
G1 X184.946 Y60.16 E21.6136
G1 X185.55 Y60.931 E21.64618
G1 X186.438 Y62.233 E21.6986
G1 X186.929 Y63.064 E21.7307
G1 X187.64 Y64.47 E21.7831
G1 X188.023 Y65.372 E21.8157
G1 X188.542 Y66.86 E21.86811
G1 X188.8 Y67.792 E21.90028
G1 X189.121 Y69.337 E21.95276
G1 X189.256 Y70.297 E21.985
G1 X189.372 Y71.867 E22.03736
G1 X189.392 Y72.415 E22.0556
G1 X189.39 Y76.953 E22.20654
G1 X189.389 Y155.824 E24.8298
G1 X189.389 Y162.5 E25.05184
G1 X189.376 Y162.938 E25.06642
G1 X189.288 Y164.422 E25.11586
G1 X189.168 Y165.38 E25.14797
G1 X188.87 Y166.931 E25.2005
G1 X188.627 Y167.864 E25.23257
G1 X188.132 Y169.357 E25.28489
G1 X187.757 Y170.275 E25.31787
G1 X187.065 Y171.692 E25.37032
G1 X186.59 Y172.525 E25.40221
G1 X185.721 Y173.84 E25.45464
G1 X185.129 Y174.618 E25.48715
G1 X184.095 Y175.806 E25.53953
G1 X183.411 Y176.495 E25.57183
G1 X182.23 Y177.538 E25.62423
G1 X181.462 Y178.132 E25.65652
G1 X180.152 Y179.013 E25.70903
G1 X179.313 Y179.5 E25.7413
G1 X177.901 Y180.201 E25.79373
G1 X176.994 Y180.579 E25.82641
G1 X175.504 Y181.086 E25.87876
G1 X174.569 Y181.337 E25.91096
G1 X173.021 Y181.646 E25.96346
G1 X172.059 Y181.773 E25.99573
G1 X170.832 Y181.854 E26.03663
G1 X170.404 Y181.87 E26.05088
G1 X167.896 Y181.89 E26.1343
G1 X167.837 Y181.89 E26.13626
G1 X71.49 Y181.889 E29.34077
G1 X65 Y181.889 E29.55663
G1 X64.53 Y181.874 E29.57227
G1 X62.958 Y181.774 E29.62466
G1 X61.983 Y181.647 E29.65737
G1 X60.436 Y181.339 E29.70983
G1 X59.497 Y181.087 E29.74217
G1 X58.007 Y180.58 E29.79451
G1 X57.1 Y180.202 E29.8272
G1 X55.688 Y179.501 E29.87963
G1 X54.873 Y179.029 E29.91095
G1 X53.849 Y178.346 E29.95189
G1 X53.743 Y178.274 E29.95615
G1 X53.457 Y178.076 E29.96772
G1 X52.771 Y177.539 E29.9967
G1 X51.59 Y176.496 E30.04911
G1 X50.923 Y175.827 E30.08053
G1 X50.113 Y174.903 E30.1214
G1 X50.035 Y174.813 E30.12536
G1 X49.811 Y174.549 E30.13687
G1 X49.3 Y173.87 E30.16514
G1 X48.617 Y172.847 E30.20605
G1 X48.53 Y172.714 E30.21133
G1 X48.344 Y172.422 E30.22285
G1 X47.948 Y171.719 E30.24969
G1 X47.404 Y170.616 E30.29059
G1 X47.347 Y170.498 E30.29495
G1 X47.199 Y170.184 E30.30649
G1 X46.882 Y169.396 E30.33474
G1 X46.489 Y168.232 E30.37561
G1 X46.432 Y168.056 E30.38176
G1 X46.33 Y167.727 E30.39322
G1 X46.14 Y166.978 E30.41892
G1 X45.9 Y165.77 E30.45988
G1 X45.862 Y165.565 E30.46682
G1 X45.804 Y165.223 E30.47835
G1 X45.716 Y164.468 E30.50363
G1 X45.636 Y163.242 E30.5445
G1 X45.62 Y162.79 E30.55954
G1 X45.61 Y160.305 E30.64219
G1 X45.61 Y160.275 E30.64319
G1 X45.611 Y79.176 E33.34055
G1 X45.611 Y72.5 E33.5626
G1 X45.623 Y72.072 E33.57684
G1 X45.699 Y70.759 E33.62058
G1 X45.801 Y69.895 E33.64952
G1 X46.076 Y68.344 E33.70191
G1 X46.305 Y67.408 E33.73396
G1 X46.779 Y65.907 E33.78631
G1 X47.137 Y64.992 E33.81899
G1 X47.806 Y63.566 E33.87138
G1 X48.277 Y62.713 E33.90379
G1 X49.129 Y61.385 E33.95627
G1 X49.703 Y60.607 E33.98843
G1 X50.717 Y59.406 E34.04071
G1 X51.393 Y58.705 E34.0731
G1 X52.561 Y57.643 E34.1256
G0 F3600 X52.83 Y57.939
G1 F1800 X53.55 Y57.366 E34.15621
G1 X54.842 Y56.47 E34.2085
G1 X55.628 Y55.998 E34.23899
G1 X57.029 Y55.277 E34.2914
G1 X57.88 Y54.908 E34.32225
G1 X59.363 Y54.379 E34.37462
G1 X60.237 Y54.13 E34.40485
G1 X61.779 Y53.797 E34.45732
G1 X62.697 Y53.661 E34.48818
G1 X64.268 Y53.535 E34.5406
G1 X64.825 Y53.513 E34.55914
G1 X71.486 Y53.51 E34.78069
G1 X71.489 Y53.51 E34.78079
G1 X163.51 Y53.511 E37.84142
G1 X170 Y53.511 E38.05728
G1 X170.4 Y53.522 E38.07059
G1 X171.798 Y53.602 E38.11716
G1 X172.67 Y53.708 E38.14638
G1 X174.223 Y53.995 E38.1989
G1 X175.111 Y54.22 E38.22937
G1 X176.606 Y54.705 E38.28165
G1 X177.468 Y55.049 E38.31252
G1 X178.891 Y55.73 E38.36498
G1 X179.686 Y56.176 E38.3953
G1 X181.008 Y57.036 E38.44776
G1 X181.748 Y57.59 E38.4785
G1 X182.942 Y58.614 E38.53082
G1 X183.596 Y59.254 E38.56126
G1 X184.648 Y60.427 E38.61366
G1 X185.22 Y61.157 E38.64451
G1 X186.108 Y62.459 E38.69693
G1 X186.572 Y63.244 E38.72725
G1 X187.283 Y64.65 E38.77966
G1 X187.645 Y65.504 E38.81051
G1 X188.164 Y66.992 E38.86292
G1 X188.409 Y67.873 E38.89334
G1 X188.73 Y69.418 E38.94582
G1 X188.857 Y70.326 E38.97632
G1 X188.973 Y71.896 E39.02868
G1 X188.992 Y72.415 E39.04595
G1 X188.99 Y76.953 E39.19688
G1 X188.989 Y155.824 E41.82014
G1 X188.989 Y162.5 E42.04219
G1 X188.977 Y162.914 E42.05596
G1 X188.889 Y164.398 E42.10541
G1 X188.775 Y165.305 E42.13581
G1 X188.477 Y166.856 E42.18834
G1 X188.247 Y167.738 E42.21866
G1 X187.752 Y169.231 E42.27098
G1 X187.398 Y170.1 E42.30218
G1 X186.706 Y171.517 E42.35463
G1 X186.256 Y172.304 E42.38479
G1 X185.387 Y173.619 E42.43721
G1 X184.827 Y174.356 E42.468
G1 X183.793 Y175.544 E42.52038
G1 X183.147 Y176.195 E42.55088
G1 X181.966 Y177.238 E42.60329
G1 X181.238 Y177.8 E42.63388
G1 X179.928 Y178.681 E42.68639
G1 X179.135 Y179.142 E42.71689
G1 X177.723 Y179.843 E42.76933
G1 X176.865 Y180.2 E42.80024
G1 X175.375 Y180.707 E42.85258
G1 X174.49 Y180.945 E42.88307
G1 X172.942 Y181.254 E42.93557
G1 X172.033 Y181.374 E42.96606
G1 X170.806 Y181.455 E43.00696
G1 X170.401 Y181.47 E43.02044
G1 X167.893 Y181.49 E43.10386
G1 X167.837 Y181.49 E43.10572
G1 X71.49 Y181.489 E46.31024
G1 X65 Y181.489 E46.5261
G1 X64.556 Y181.475 E46.54087
G1 X62.984 Y181.375 E46.59326
G1 X62.061 Y181.254 E46.62422
G1 X60.514 Y180.946 E46.67669
G1 X59.626 Y180.708 E46.70726
G1 X58.136 Y180.201 E46.75961
G1 X57.278 Y179.844 E46.79052
G1 X55.866 Y179.143 E46.84295
G1 X55.095 Y178.696 E46.8726
G1 X54.071 Y178.013 E46.91353
G1 X53.971 Y177.945 E46.91756
G1 X53.685 Y177.747 E46.92913
G1 X53.035 Y177.239 E46.95656
G1 X51.854 Y176.196 E47.00897
G1 X51.224 Y175.563 E47.03867
G1 X50.414 Y174.639 E47.07954
G1 X50.34 Y174.554 E47.08329
G1 X50.116 Y174.29 E47.09481
G1 X49.632 Y173.648 E47.12155
G1 X48.949 Y172.625 E47.16246
G1 X48.867 Y172.499 E47.16746
G1 X48.681 Y172.207 E47.17897
G1 X48.307 Y171.542 E47.20435
G1 X47.763 Y170.439 E47.24526
G1 X47.709 Y170.327 E47.24939
G1 X47.561 Y170.013 E47.26094
G1 X47.261 Y169.268 E47.28765
G1 X46.868 Y168.104 E47.32851
G1 X46.814 Y167.938 E47.33432
G1 X46.712 Y167.609 E47.34577
G1 X46.532 Y166.9 E47.3701
G1 X46.292 Y165.692 E47.41107
G1 X46.257 Y165.498 E47.41762
G1 X46.199 Y165.156 E47.42916
G1 X46.115 Y164.442 E47.45307
G1 X46.035 Y163.216 E47.49394
G1 X46.02 Y162.788 E47.50818
G1 X46.01 Y160.303 E47.59083
G1 X46.01 Y160.275 E47.59176
G1 X46.011 Y79.176 E50.28913
G1 X46.011 Y72.5 E50.51117
G1 X46.023 Y72.095 E50.52465
G1 X46.099 Y70.782 E50.56839
G1 X46.195 Y69.965 E50.59575
G1 X46.47 Y68.414 E50.64814
G1 X46.687 Y67.528 E50.67848
G1 X47.161 Y66.027 E50.73084
G1 X47.499 Y65.162 E50.76172
G1 X48.168 Y63.736 E50.81411
G1 X48.613 Y62.929 E50.84476
G1 X49.465 Y61.601 E50.89724
G1 X50.008 Y60.865 E50.92766
G1 X51.022 Y59.664 E50.97994
G1 X51.662 Y59.001 E51.01059
G1 X52.83 Y57.939 E51.0631
G0 F3600 X53.099 Y58.235
G1 F1800 X53.778 Y57.695 E51.09195
G1 X55.07 Y56.799 E51.14425
G1 X55.811 Y56.354 E51.173
G1 X57.212 Y55.633 E51.2254
G1 X58.015 Y55.285 E51.25451
G1 X59.498 Y54.756 E51.30688
G1 X60.322 Y54.521 E51.33538
G1 X61.864 Y54.188 E51.38785
G1 X62.729 Y54.06 E51.41693
G1 X64.3 Y53.934 E51.46935
G1 X64.825 Y53.913 E51.48682
G1 X71.486 Y53.91 E51.70837
G1 X71.489 Y53.91 E51.70847
G1 X163.51 Y53.911 E54.7691
G1 X170 Y53.911 E54.98496
G1 X170.377 Y53.922 E54.9975
G1 X171.775 Y54.002 E55.04408
G1 X172.597 Y54.101 E55.07162
G1 X174.15 Y54.388 E55.12414
G1 X174.988 Y54.6 E55.15289
G1 X176.483 Y55.085 E55.20517
G1 X177.295 Y55.41 E55.23426
G1 X178.718 Y56.091 E55.28673
G1 X179.468 Y56.512 E55.31533
G1 X180.79 Y57.372 E55.36779
G1 X181.488 Y57.894 E55.39678
G1 X182.682 Y58.918 E55.4491
G1 X183.298 Y59.521 E55.47777
G1 X184.35 Y60.694 E55.53017
G1 X184.89 Y61.382 E55.55926
G1 X185.778 Y62.684 E55.61168
G1 X186.215 Y63.425 E55.64029
G1 X186.926 Y64.831 E55.6927
G1 X187.268 Y65.635 E55.72176
G1 X187.787 Y67.123 E55.77417
G1 X188.017 Y67.954 E55.80285
G1 X188.338 Y69.499 E55.85533
G1 X188.458 Y70.356 E55.88411
G1 X188.574 Y71.926 E55.93648
G1 X188.592 Y72.415 E55.95275
G1 X188.59 Y76.953 E56.10369
G1 X188.589 Y155.824 E58.72695
G1 X188.589 Y162.5 E58.94899
G1 X188.577 Y162.891 E58.962
G1 X188.489 Y164.375 E59.01145
G1 X188.382 Y165.229 E59.04007
G1 X188.084 Y166.78 E59.0926
G1 X187.868 Y167.612 E59.12119
G1 X187.373 Y169.105 E59.17351
G1 X187.039 Y169.924 E59.20293
G1 X186.347 Y171.341 E59.25537
G1 X185.922 Y172.084 E59.28384
G1 X185.053 Y173.399 E59.33627
G1 X184.525 Y174.093 E59.36527
G1 X183.491 Y175.281 E59.41766
G1 X182.882 Y175.895 E59.44642
G1 X181.701 Y176.938 E59.49882
G1 X181.015 Y177.468 E59.52766
G1 X179.705 Y178.349 E59.58016
G1 X178.957 Y178.784 E59.60894
G1 X177.545 Y179.485 E59.66138
G1 X176.736 Y179.821 E59.69051
G1 X175.246 Y180.328 E59.74286
G1 X174.412 Y180.552 E59.77158
G1 X172.864 Y180.861 E59.82409
G1 X172.007 Y180.975 E59.85284
G1 X170.78 Y181.056 E59.89374
G1 X170.398 Y181.07 E59.90645
G1 X167.89 Y181.09 E59.98987
G1 X167.837 Y181.09 E59.99163
G1 X71.49 Y181.089 E63.19615
G1 X65 Y181.089 E63.41201
G1 X64.581 Y181.076 E63.42595
G1 X63.009 Y180.976 E63.47834
G1 X62.139 Y180.862 E63.50752
G1 X60.592 Y180.554 E63.55999
G1 X59.755 Y180.329 E63.58881
G1 X58.265 Y179.822 E63.64116
G1 X57.456 Y179.486 E63.6703
G1 X56.044 Y178.785 E63.72273
G1 X55.317 Y178.364 E63.75067
G1 X54.293 Y177.681 E63.79161
G1 X54.198 Y177.616 E63.79544
G1 X53.912 Y177.418 E63.80701
G1 X53.3 Y176.939 E63.83286
G1 X52.119 Y175.896 E63.88526
G1 X51.525 Y175.3 E63.91325
G1 X50.715 Y174.376 E63.95412
G1 X50.645 Y174.295 E63.95768
G1 X50.421 Y174.031 E63.9692
G1 X49.965 Y173.426 E63.99439
G1 X49.282 Y172.403 E64.03531
G1 X49.204 Y172.284 E64.04004
G1 X49.018 Y171.992 E64.05155
G1 X48.666 Y171.365 E64.07547
G1 X48.122 Y170.262 E64.11637
G1 X48.071 Y170.157 E64.12026
G1 X47.923 Y169.843 E64.1318
G1 X47.64 Y169.14 E64.15701
G1 X47.247 Y167.976 E64.19787
G1 X47.196 Y167.819 E64.20336
G1 X47.094 Y167.49 E64.21482
G1 X46.925 Y166.822 E64.23773
G1 X46.685 Y165.614 E64.2787
G1 X46.651 Y165.432 E64.28486
G1 X46.593 Y165.09 E64.29639
G1 X46.514 Y164.416 E64.31896
G1 X46.434 Y163.19 E64.35983
G1 X46.42 Y162.787 E64.37324
G1 X46.41 Y160.302 E64.45589
G1 X46.41 Y160.275 E64.45679
G1 X46.411 Y79.176 E67.15415
G1 X46.411 Y72.5 E67.3762
G1 X46.422 Y72.119 E67.38888
G1 X46.498 Y70.806 E67.43262
G1 X46.588 Y70.035 E67.45844
G1 X46.863 Y68.484 E67.51083
G1 X47.068 Y67.649 E67.53943
G1 X47.542 Y66.148 E67.59178
G1 X47.861 Y65.332 E67.62092
G1 X48.53 Y63.906 E67.67331
G1 X48.95 Y63.145 E67.70222
G1 X49.802 Y61.817 E67.7547
G1 X50.314 Y61.123 E67.78338
G1 X51.328 Y59.922 E67.83566
G1 X51.931 Y59.297 E67.86454
G1 X53.099 Y58.235 E67.91705
G0 F3600 X53.368 Y58.531
G1 F1800 X54.006 Y58.023 E67.94418
G1 X55.298 Y57.127 E67.99647
G1 X55.994 Y56.709 E68.02347
