;FLAVOR:Marlin
;TIME:6274
;Filament used: 4.00938m
;Layer height: 0.2
;MINX:63.677
;MINY:98.209
;MINZ:0.2
;MAXX:171.44
;MAXY:136.727
;MAXZ:21.6
;Generated with Cura_SteamEngine 4.1.0
M140 S50
M105
M190 S50
M104 S200
M105
M109 S200
M82 ;absolute extrusion mode
; Ender 3 Custom Start G-code
G28 ; Home all axes
M420 S1
G92 E0 ; Reset Extruder
G1 Z2.0 F3000 ; Move Z Axis up little to prevent scratching of Heat Bed
G1 X0.1 Y20 Z0.3 F5000.0 ; Move to start position
G1 X0.1 Y200.0 Z0.3 F1500.0 E15 ; Draw the first line
G1 X0.4 Y200.0 Z0.3 F5000.0 ; Move to side a little
G1 X0.4 Y20 Z0.3 F1500.0 E30 ; Draw the second line
G92 E0 ; Reset Extruder
G1 Z2.0 F3000 ; Move Z Axis up little to prevent scratching of Heat Bed
G92 E0
G92 E0
G1 F3600 E-8
;LAYER_COUNT:108
;LAYER:0
M107
M204 S500
M205 X10 Y10
G0 F3600 X81.551 Y100.404 Z0.2
;TYPE:SKIRT
G1 F3600 E0
G1 F1800 X82.046 Y100.036 E0.01846
G1 X82.449 Y99.761 E0.03307
G1 X83.123 Y99.35 E0.0567
G1 X83.836 Y99.008 E0.08037
G1 X84.352 Y98.813 E0.09688
G1 X84.681 Y98.702 E0.10728
G1 X85.442 Y98.488 E0.13094
G1 X86.219 Y98.352 E0.15455
G1 X87.172 Y98.293 E0.18313
G1 X131.891 Y98.273 E1.52176
G1 X131.894 Y98.273 E1.52185
G1 X147.537 Y98.274 E1.99011
G1 X148.326 Y98.314 E2.01376
G1 X149.089 Y98.43 E2.03686
G1 X149.493 Y98.512 E2.0492
G1 X150.257 Y98.708 E2.07281
G1 X150.999 Y98.98 E2.09646
G1 X151.6 Y99.267 E2.1164
G1 X151.969 Y99.463 E2.12891
G1 X152.448 Y99.75 E2.14562
G1 X152.841 Y99.492 E2.1597
G1 X153.541 Y99.127 E2.18333
G1 X154.275 Y98.835 E2.20697
G1 X155.034 Y98.618 E2.2306
G1 X155.811 Y98.48 E2.25423
G1 X156.791 Y98.418 E2.28362
G1 X159.009 Y98.418 E2.35001
G1 X159.676 Y98.288 E2.37036
G1 X160.839 Y98.209 E2.40525
G1 X161.512 Y98.214 E2.4254
G1 X162.3 Y98.26 E2.44902
G1 X163.08 Y98.385 E2.47267
G1 X163.975 Y98.632 E2.50046
G1 X164.385 Y98.772 E2.51343
G1 X165.118 Y99.065 E2.53706
G1 X165.818 Y99.43 E2.56069
G1 X166.658 Y100.001 E2.5911
G1 X167.242 Y100.456 E2.61326
G1 X167.839 Y100.972 E2.63688
G1 X168.382 Y101.546 E2.66053
G1 X168.863 Y102.172 E2.68416
G1 X169.279 Y102.844 E2.70782
G1 X169.625 Y103.554 E2.73146
G1 X169.897 Y104.295 E2.75509
G1 X170.093 Y105.06 E2.77873
G1 X170.21 Y105.841 E2.80237
G1 X170.248 Y106.63 E2.82602
G1 X170.206 Y107.41 E2.8494
G1 X170.388 Y107.767 E2.86139
G1 X170.586 Y108.198 E2.87559
G1 X170.879 Y108.931 E2.89922
G1 X171.061 Y109.544 E2.91836
G1 X171.162 Y109.944 E2.93071
G1 X171.316 Y110.719 E2.95436
G1 X171.374 Y111.229 E2.96973
G1 X171.415 Y111.739 E2.98505
G1 X171.44 Y112.364 E3.00377
G1 X171.44 Y122.959 E3.32092
G1 X171.414 Y123.596 E3.34
G1 X171.378 Y124.035 E3.35319
G1 X171.274 Y124.818 E3.37683
G1 X171.153 Y125.362 E3.39352
G1 X171.026 Y125.85 E3.40861
G1 X170.788 Y126.604 E3.43228
G1 X170.516 Y127.247 E3.45318
G1 X170.314 Y127.67 E3.46721
G1 X169.938 Y128.365 E3.49086
G1 X169.613 Y128.856 E3.50849
G1 X169.349 Y129.224 E3.52205
G1 X168.857 Y129.841 E3.54567
G1 X168.51 Y130.209 E3.56081
G1 X168.182 Y130.535 E3.57465
G1 X167.594 Y131.063 E3.59831
G1 X167.263 Y131.317 E3.6108
G1 X166.848 Y131.618 E3.62614
G1 X166.186 Y132.049 E3.64979
G1 X165.511 Y132.398 E3.67254
G1 X165.102 Y132.585 E3.686
G1 X164.368 Y132.876 E3.70963
G1 X163.813 Y133.042 E3.72697
G1 X163.411 Y133.146 E3.7394
G1 X162.637 Y133.305 E3.76306
G1 X162.155 Y133.364 E3.77759
G1 X161.654 Y133.409 E3.79265
G1 X160.956 Y133.44 E3.81357
G1 X156.89 Y133.44 E3.93528
G1 X156.101 Y133.4 E3.95893
G1 X155.321 Y133.281 E3.98254
G1 X154.736 Y133.13 E4.00063
G1 X154.47 Y133.487 E4.01396
G1 X153.937 Y134.07 E4.0376
G1 X153.348 Y134.596 E4.06124
G1 X152.853 Y134.964 E4.0797
G1 X152.45 Y135.239 E4.09431
G1 X151.776 Y135.65 E4.11794
G1 X151.063 Y135.992 E4.14161
G1 X150.547 Y136.187 E4.15812
G1 X150.218 Y136.298 E4.16852
G1 X149.457 Y136.512 E4.19218
G1 X148.68 Y136.648 E4.21579
G1 X147.728 Y136.707 E4.24434
G1 X103.204 Y136.727 E5.57713
G1 X103.2 Y136.727 E5.57725
G1 X87.546 Y136.726 E6.04584
G1 X86.861 Y136.696 E6.06636
G1 X86.407 Y136.656 E6.08001
G1 X85.625 Y136.547 E6.10364
G1 X84.858 Y136.359 E6.12728
G1 X83.954 Y136.027 E6.15611
G1 X83.517 Y135.835 E6.1704
G1 X82.811 Y135.481 E6.19404
G1 X82.145 Y135.058 E6.21766
G1 X81.786 Y134.788 E6.2311
G1 X81.572 Y134.617 E6.2393
G1 X80.981 Y134.093 E6.26295
G1 X80.445 Y133.512 E6.28661
G1 X79.98 Y132.893 E6.30978
G1 X79.677 Y132.445 E6.32597
G1 X79.268 Y131.769 E6.34962
G1 X78.969 Y131.139 E6.3705
G1 X78.79 Y131.322 E6.37816
G1 X78.183 Y131.828 E6.40182
G1 X77.341 Y132.378 E6.43192
G1 X77.249 Y132.43 E6.43508
G1 X76.543 Y132.784 E6.45873
G1 X75.804 Y133.064 E6.48238
G1 X75.042 Y133.268 E6.50599
G1 X74.262 Y133.393 E6.52964
G1 X73.411 Y133.44 E6.55515
G1 X71.59 Y133.44 E6.60966
G1 X70.801 Y133.4 E6.63331
G1 X70.021 Y133.281 E6.65693
G1 X69.256 Y133.083 E6.68059
G1 X68.516 Y132.809 E6.70421
G1 X67.807 Y132.461 E6.72785
G1 X67.136 Y132.043 E6.75151
G1 X66.512 Y131.56 E6.77513
G1 X65.939 Y131.017 E6.79876
G1 X65.424 Y130.418 E6.82241
G1 X64.814 Y129.503 E6.85533
G1 X64.7 Y129.303 E6.86222
G1 X64.344 Y128.598 E6.88586
G1 X64.061 Y127.86 E6.90952
G1 X63.854 Y127.098 E6.93316
G1 X63.726 Y126.319 E6.95679
G1 X63.677 Y125.531 E6.98042
G1 X63.707 Y124.742 E7.00406
G1 X63.818 Y123.96 E7.0277
G1 X64.007 Y123.193 E7.05135
G1 X64.272 Y122.449 E7.07499
G1 X64.726 Y121.531 E7.10565
G1 X71.263 Y110.243 E7.49611
G1 X71.693 Y109.581 E7.51974
G1 X72.188 Y108.965 E7.5434
G1 X72.742 Y108.403 E7.56702
G1 X73.35 Y107.899 E7.59066
G1 X74.006 Y107.46 E7.61429
G1 X74.704 Y107.089 E7.63795
G1 X75.435 Y106.79 E7.66159
G1 X76.192 Y106.567 E7.68521
G1 X76.968 Y106.422 E7.70885
G1 X77.755 Y106.356 E7.73249
G1 X78.303 Y106.366 E7.74889
G1 X78.369 Y105.938 E7.76186
G1 X78.484 Y105.381 E7.77888
G1 X78.683 Y104.617 E7.80251
G1 X78.958 Y103.876 E7.82617
G1 X79.306 Y103.168 E7.84979
G1 X79.637 Y102.625 E7.86882
G1 X79.957 Y102.146 E7.88607
G1 X80.429 Y101.513 E7.9097
G1 X80.962 Y100.93 E7.93335
G1 X81.551 Y100.404 E7.95699
G0 F3600 X81.848 Y100.678
G1 F1800 X82.272 Y100.367 E7.97273
G1 X82.675 Y100.092 E7.98733
G1 X83.332 Y99.692 E8.01036
G1 X84.027 Y99.362 E8.03339
G1 X84.48 Y99.192 E8.04787
G1 X84.809 Y99.081 E8.05827
G1 X85.55 Y98.874 E8.0813
G1 X86.308 Y98.744 E8.10432
G1 X87.172 Y98.693 E8.13023
G1 X131.891 Y98.673 E9.46885
G1 X131.894 Y98.673 E9.46894
G1 X147.537 Y98.674 E9.9372
G1 X148.306 Y98.714 E9.96025
G1 X149.009 Y98.822 E9.98154
G1 X149.413 Y98.904 E9.99388
G1 X150.158 Y99.096 E10.01691
G1 X150.879 Y99.364 E10.03993
G1 X151.412 Y99.621 E10.05765
G1 X151.781 Y99.817 E10.07015
G1 X152.441 Y100.212 E10.09318
G1 X152.46 Y100.226 E10.09389
G1 X152.58 Y100.133 E10.09843
G1 X153.235 Y99.729 E10.12147
G1 X153.927 Y99.395 E10.14447
G1 X154.651 Y99.134 E10.1675
G1 X155.398 Y98.95 E10.19053
G1 X156.16 Y98.845 E10.21356
G1 X156.791 Y98.818 E10.23247
G1 X159.039 Y98.818 E10.29976
G1 X159.056 Y98.813 E10.30029
G1 X159.812 Y98.673 E10.3233
G1 X160.836 Y98.609 E10.35401
G1 X161.509 Y98.614 E10.37416
G1 X162.277 Y98.66 E10.39719
G1 X163.036 Y98.785 E10.42022
G1 X163.845 Y99.011 E10.44536
G1 X164.255 Y99.151 E10.45833
G1 X164.969 Y99.437 E10.48135
G1 X165.65 Y99.796 E10.5044
G1 X166.412 Y100.317 E10.53203
G1 X166.996 Y100.772 E10.55419
G1 X167.577 Y101.275 E10.5772
G1 X168.103 Y101.836 E10.60022
G1 X168.568 Y102.449 E10.62325
G1 X168.967 Y103.107 E10.64628
G1 X169.295 Y103.803 E10.66931
G1 X169.549 Y104.528 E10.69231
G1 X169.727 Y105.277 E10.71535
G1 X169.826 Y106.04 E10.73839
G1 X169.845 Y106.808 E10.76138
G1 X169.793 Y107.475 E10.78141
G1 X170.024 Y107.934 E10.79679
G1 X170.222 Y108.365 E10.81099
G1 X170.507 Y109.08 E10.83403
G1 X170.673 Y109.642 E10.85157
G1 X170.774 Y110.042 E10.86392
G1 X170.923 Y110.797 E10.88696
G1 X170.975 Y111.261 E10.90093
G1 X171.016 Y111.771 E10.91625
G1 X171.04 Y112.364 E10.93401
G1 X171.04 Y122.959 E11.25117
G1 X171.015 Y123.564 E11.26929
G1 X170.979 Y124.003 E11.28248
G1 X170.877 Y124.765 E11.30549
G1 X170.765 Y125.262 E11.32074
G1 X170.638 Y125.75 E11.33583
G1 X170.406 Y126.483 E11.35885
G1 X170.155 Y127.075 E11.3781
G1 X169.953 Y127.498 E11.39213
G1 X169.586 Y128.174 E11.41515
G1 X169.288 Y128.623 E11.43128
G1 X169.024 Y128.991 E11.44484
G1 X168.544 Y129.591 E11.46784
G1 X168.228 Y129.926 E11.48163
G1 X167.9 Y130.252 E11.49547
G1 X167.028 Y130.993 E11.52973
G1 X166.613 Y131.294 E11.54507
G1 X165.967 Y131.713 E11.56812
G1 X165.345 Y132.034 E11.58907
G1 X164.936 Y132.221 E11.60253
G1 X164.221 Y132.504 E11.62555
G1 X163.712 Y132.655 E11.64145
G1 X163.31 Y132.759 E11.65388
G1 X162.557 Y132.913 E11.67688
G1 X162.119 Y132.965 E11.69009
G1 X161.618 Y133.01 E11.70514
G1 X160.956 Y133.04 E11.72498
G1 X156.89 Y133.04 E11.84669
G1 X156.122 Y133 E11.86971
G1 X155.362 Y132.881 E11.89274
G1 X154.619 Y132.683 E11.91576
G1 X154.582 Y132.669 E11.91694
G1 X154.149 Y133.248 E11.93858
G1 X153.628 Y133.814 E11.96161
G1 X153.051 Y134.322 E11.98462
G1 X152.627 Y134.633 E12.00036
G1 X152.224 Y134.908 E12.01497
G1 X151.567 Y135.308 E12.03799
G1 X150.872 Y135.638 E12.06102
G1 X150.419 Y135.808 E12.07551
G1 X150.09 Y135.919 E12.0859
G1 X149.349 Y136.126 E12.10893
G1 X148.591 Y136.256 E12.13195
G1 X147.727 Y136.307 E12.15786
G1 X103.203 Y136.327 E13.49065
G1 X103.2 Y136.327 E13.49074
G1 X87.546 Y136.326 E13.95933
G1 X86.897 Y136.297 E13.97877
G1 X86.443 Y136.257 E13.99242
G1 X85.681 Y136.15 E14.01545
G1 X84.934 Y135.964 E14.03849
G1 X84.115 Y135.661 E14.06463
G1 X83.678 Y135.469 E14.07892
G1 X82.991 Y135.123 E14.10195
G1 X82.344 Y134.708 E14.12496
G1 X82.036 Y134.475 E14.13652
G1 X81.822 Y134.304 E14.14472
G1 X81.246 Y133.793 E14.16777
G1 X80.727 Y133.226 E14.19077
G1 X80.311 Y132.669 E14.21158
G1 X80.008 Y132.221 E14.22777
G1 X79.611 Y131.562 E14.2508
G1 X79.284 Y130.866 E14.27382
G1 X79.124 Y130.39 E14.28886
G1 X79.017 Y130.523 E14.29396
G1 X78.475 Y131.069 E14.31699
G1 X77.879 Y131.555 E14.34001
G1 X77.144 Y132.03 E14.36621
G1 X77.052 Y132.082 E14.36937
G1 X76.364 Y132.425 E14.39239
G1 X75.644 Y132.695 E14.4154
G1 X74.899 Y132.889 E14.43845
G1 X74.139 Y133.004 E14.46146
G1 X73.411 Y133.04 E14.48328
G1 X71.59 Y133.04 E14.53779
G1 X70.822 Y133 E14.56081
G1 X70.062 Y132.881 E14.58383
G1 X69.319 Y132.683 E14.60685
G1 X68.6 Y132.409 E14.62988
G1 X67.914 Y132.062 E14.6529
G1 X67.267 Y131.646 E14.67592
G1 X66.667 Y131.165 E14.69894
G1 X66.12 Y130.624 E14.72197
G1 X65.632 Y130.029 E14.74501
G1 X65.161 Y129.305 E14.77086
G1 X65.047 Y129.105 E14.77775
G1 X64.701 Y128.417 E14.8008
G1 X64.429 Y127.698 E14.82382
G1 X64.233 Y126.954 E14.84685
G1 X64.115 Y126.194 E14.86987
G1 X64.076 Y125.426 E14.89289
G1 X64.117 Y124.658 E14.91591
G1 X64.238 Y123.899 E14.93892
G1 X64.437 Y123.156 E14.96194
G1 X64.713 Y122.437 E14.985
G1 X65.072 Y121.732 E15.00868
G1 X71.609 Y110.444 E15.39914
G1 X72.029 Y109.799 E15.42218
G1 X72.513 Y109.201 E15.44521
G1 X73.057 Y108.657 E15.46824
G1 X73.654 Y108.172 E15.49127
G1 X74.298 Y107.752 E15.51428
G1 X74.982 Y107.401 E15.5373
G1 X75.699 Y107.123 E15.56032
G1 X76.442 Y106.921 E15.58336
G1 X77.201 Y106.797 E15.60639
G1 X77.969 Y106.752 E15.62941
G1 X78.645 Y106.783 E15.64967
G1 X78.647 Y106.753 E15.65057
G1 X78.761 Y106.019 E15.67281
G1 X78.876 Y105.462 E15.68983
G1 X79.07 Y104.718 E15.71285
G1 X79.341 Y103.998 E15.73588
G1 X79.685 Y103.31 E15.7589
G1 X79.97 Y102.847 E15.77518
G1 X80.29 Y102.368 E15.79242
G1 X80.75 Y101.752 E15.81543
G1 X81.271 Y101.186 E15.83846
G1 X81.848 Y100.678 E15.86147
G0 F3600 X82.145 Y100.954
G1 F1800 X82.497 Y100.697 E15.87452
G1 X82.9 Y100.422 E15.88912
G1 X83.54 Y100.034 E15.91153
G1 X84.217 Y99.716 E15.93392
G1 X84.608 Y99.571 E15.9464
G1 X84.937 Y99.46 E15.95679
G1 X85.658 Y99.259 E15.9792
G1 X86.396 Y99.137 E16.00159
G1 X87.172 Y99.093 E16.02486
G1 X131.891 Y99.073 E17.36348
G1 X131.894 Y99.073 E17.36357
G1 X147.537 Y99.074 E17.83183
G1 X148.284 Y99.114 E17.85422
G1 X148.929 Y99.214 E17.87376
G1 X149.333 Y99.296 E17.8861
G1 X150.058 Y99.484 E17.90852
G1 X150.757 Y99.748 E17.93089
G1 X151.225 Y99.974 E17.94644
G1 X151.594 Y100.17 E17.95895
G1 X152.235 Y100.556 E17.98135
G1 X152.459 Y100.726 E17.98977
G1 X152.978 Y100.348 E18.00899
G1 X153.626 Y99.974 E18.03138
G1 X154.311 Y99.672 E18.05379
G1 X155.023 Y99.445 E18.07616
G1 X155.756 Y99.295 E18.09856
G1 X156.791 Y99.218 E18.12963
G1 X159.104 Y99.218 E18.19886
G1 X159.209 Y99.188 E18.20213
G1 X159.946 Y99.059 E18.22453
G1 X160.833 Y99.009 E18.25112
G1 X161.506 Y99.014 E18.27127
G1 X162.253 Y99.06 E18.29367
G1 X162.99 Y99.185 E18.31605
G1 X163.716 Y99.39 E18.33863
G1 X164.126 Y99.53 E18.3516
G1 X164.82 Y99.809 E18.37399
G1 X165.48 Y100.16 E18.39637
G1 X166.166 Y100.632 E18.42129
G1 X166.75 Y101.087 E18.44345
G1 X167.315 Y101.578 E18.46586
G1 X167.824 Y102.126 E18.48825
G1 X168.272 Y102.725 E18.51064
G1 X168.653 Y103.369 E18.53304
G1 X168.963 Y104.049 E18.55541
G1 X169.199 Y104.759 E18.57781
G1 X169.358 Y105.49 E18.6002
G1 X169.438 Y106.234 E18.6226
G1 X169.438 Y106.982 E18.64499
G1 X169.376 Y107.557 E18.6623
G1 X169.434 Y107.65 E18.66558
G1 X169.661 Y108.101 E18.6807
G1 X169.859 Y108.532 E18.69489
G1 X170.134 Y109.227 E18.71727
G1 X170.285 Y109.74 E18.73328
G1 X170.386 Y110.14 E18.74562
G1 X170.53 Y110.874 E18.76801
G1 X170.576 Y111.293 E18.78063
G1 X170.617 Y111.803 E18.79595
G1 X170.64 Y112.364 E18.81276
G1 X170.64 Y122.959 E19.12991
G1 X170.617 Y123.531 E19.14704
G1 X170.581 Y123.97 E19.16023
G1 X170.48 Y124.711 E19.18262
G1 X170.378 Y125.161 E19.19643
G1 X170.251 Y125.649 E19.21152
G1 X170.025 Y126.362 E19.23391
G1 X169.794 Y126.902 E19.25149
G1 X169.592 Y127.325 E19.26552
G1 X169.234 Y127.982 E19.28792
G1 X168.963 Y128.389 E19.30256
G1 X168.699 Y128.757 E19.31612
G1 X168.231 Y129.341 E19.33852
G1 X167.946 Y129.642 E19.35093
G1 X167.618 Y129.968 E19.36477
G1 X166.793 Y130.669 E19.39718
G1 X166.378 Y130.97 E19.41252
G1 X165.75 Y131.377 E19.43492
G1 X165.179 Y131.67 E19.45413
G1 X164.77 Y131.857 E19.4676
G1 X164.074 Y132.131 E19.48999
G1 X163.612 Y132.268 E19.50441
G1 X163.21 Y132.372 E19.51684
G1 X162.477 Y132.52 E19.53923
G1 X162.083 Y132.567 E19.5511
G1 X161.582 Y132.612 E19.56616
G1 X160.956 Y132.64 E19.58492
G1 X156.89 Y132.64 E19.70663
G1 X156.143 Y132.6 E19.72902
G1 X155.405 Y132.481 E19.7514
G1 X154.683 Y132.283 E19.77381
G1 X154.429 Y132.183 E19.78198
G1 X154.277 Y132.41 E19.79016
G1 X153.828 Y133.008 E19.81254
G1 X153.319 Y133.556 E19.83493
G1 X152.754 Y134.046 E19.85732
G1 X152.402 Y134.303 E19.87037
G1 X151.999 Y134.578 E19.88497
G1 X151.359 Y134.966 E19.90737
G1 X150.682 Y135.284 E19.92976
G1 X150.291 Y135.429 E19.94225
G1 X149.962 Y135.54 E19.95264
G1 X149.241 Y135.741 E19.97505
G1 X148.503 Y135.863 E19.99744
G1 X147.727 Y135.907 E20.0207
G1 X103.203 Y135.927 E21.35349
G1 X103.2 Y135.927 E21.35358
G1 X87.546 Y135.926 E21.82217
G1 X86.932 Y135.899 E21.84057
G1 X86.478 Y135.859 E21.85421
G1 X85.737 Y135.754 E21.87661
G1 X85.012 Y135.57 E21.899
G1 X84.276 Y135.295 E21.92252
G1 X83.839 Y135.103 E21.93681
G1 X83.171 Y134.766 E21.95921
G1 X82.285 Y134.163 E21.99129
G1 X82.071 Y133.992 E21.99949
G1 X81.513 Y133.494 E22.02188
G1 X81.01 Y132.94 E22.04427
G1 X80.643 Y132.445 E22.06272
G1 X80.34 Y131.997 E22.07891
G1 X79.954 Y131.355 E22.10133
G1 X79.64 Y130.677 E22.1237
G1 X79.378 Y129.893 E22.14844
G1 X79.279 Y129.527 E22.15979
G1 X79.163 Y129.706 E22.16618
G1 X78.691 Y130.287 E22.18859
G1 X78.16 Y130.814 E22.21098
G1 X77.576 Y131.281 E22.23336
G1 X76.947 Y131.682 E22.25569
G1 X76.855 Y131.734 E22.25886
G1 X76.185 Y132.067 E22.28125
G1 X75.484 Y132.326 E22.30362
G1 X74.758 Y132.509 E22.32604
G1 X74.018 Y132.614 E22.34841
G1 X73.411 Y132.64 E22.3666
G1 X71.59 Y132.64 E22.42111
G1 X70.843 Y132.6 E22.4435
G1 X70.105 Y132.481 E22.46587
G1 X69.383 Y132.283 E22.48829
G1 X68.687 Y132.01 E22.51066
G1 X68.024 Y131.663 E22.53306
G1 X67.401 Y131.248 E22.55547
G1 X66.827 Y130.769 E22.57785
G1 X66.306 Y130.232 E22.60025
G1 X65.847 Y129.642 E22.62262
G1 X65.509 Y129.106 E22.64159
G1 X65.395 Y128.906 E22.64848
G1 X65.059 Y128.238 E22.67087
G1 X64.797 Y127.537 E22.69327
G1 X64.612 Y126.812 E22.71567
G1 X64.505 Y126.072 E22.73805
G1 X64.477 Y125.324 E22.76045
G1 X64.529 Y124.578 E22.78284
G1 X64.661 Y123.842 E22.80522
G1 X64.87 Y123.124 E22.82761
G1 X65.155 Y122.432 E22.85001
