;FLAVOR:Marlin
;TIME:10325
;Filament used: 7.94719m
;Layer height: 0.15
;Generated with Cura_SteamEngine 4.0.0
M140 S70
M105
M190 S70
M104 S230
M105
M109 S230
M82 ;absolute extrusion mode
; Ender 3 Custom Start G-code
G28 ; Home all axes
G92 E0 ; Reset Extruder
G1 Z2.0 F3000 ; Move Z Axis up little to prevent scratching of Heat Bed
G1 X0.1 Y20 Z0.3 F5000.0 ; Move to start position
G1 X0.1 Y200.0 Z0.3 F1500.0 E15 ; Draw the first line
G1 X0.4 Y200.0 Z0.3 F5000.0 ; Move to side a little
G1 X0.4 Y20 Z0.3 F1500.0 E30 ; Draw the second line
G92 E0 ; Reset Extruder
G1 Z2.0 F3000 ; Move Z Axis up little to prevent scratching of Heat Bed
; End of custom start GCode
G92 E0
G1 F3600 E-6
;LAYER_COUNT:61
;LAYER:0
M107
M204 S5000
M205 X30 Y30
G0 F2400 X34.51 Y62.353 Z0.2
M204 S500
M205 X20 Y20
;TYPE:SKIRT
G1 F3600 E0
G1 F1200 X35.145 Y62.023 E0.0238
G1 X35.812 Y61.766 E0.04758
G1 X36.504 Y61.585 E0.07137
G1 X37.272 Y61.478 E0.09716
G1 X38.173 Y61.407 E0.12722
G1 X38.677 Y61.387 E0.14399
G1 X182.129 Y61.416 E4.91523
G1 X182.843 Y61.456 E4.93901
G1 X183.549 Y61.576 E4.96283
G1 X184.236 Y61.773 E4.9866
G1 X184.897 Y62.046 E5.01039
G1 X185.433 Y62.335 E5.03064
G1 X185.637 Y62.458 E5.03856
G1 X186.228 Y62.861 E5.06236
G1 X186.77 Y63.328 E5.08615
G1 X187.257 Y63.852 E5.10994
G1 X187.706 Y64.463 E5.13516
G1 X187.836 Y64.664 E5.14312
G1 X188.19 Y65.286 E5.16693
G1 X188.473 Y65.943 E5.19072
G1 X188.681 Y66.627 E5.2145
G1 X188.811 Y67.33 E5.23828
G1 X188.856 Y67.856 E5.25584
G1 X189.063 Y72.508 E5.41072
G1 X189.069 Y72.791 E5.42013
G1 X189.086 Y151.264 E8.03015
G1 X189.02 Y152.178 E8.06063
G1 X188.759 Y153.988 E8.12146
G1 X188.618 Y154.69 E8.14527
G1 X188.399 Y155.371 E8.16906
G1 X188.106 Y156.023 E8.19284
G1 X187.741 Y156.638 E8.21662
G1 X187.31 Y157.209 E8.24042
G1 X186.819 Y157.729 E8.26421
G1 X186.272 Y158.19 E8.288
G1 X185.731 Y158.555 E8.3097
G1 X185.305 Y158.812 E8.32625
G1 X184.673 Y159.147 E8.35004
G1 X184.007 Y159.409 E8.37385
G1 X183.317 Y159.595 E8.39762
G1 X182.61 Y159.703 E8.4214
G1 X181.999 Y159.732 E8.44175
G1 X38.701 Y159.742 E13.20786
G1 X38.194 Y159.722 E13.22473
G1 X37.251 Y159.647 E13.2562
G1 X36.542 Y159.55 E13.28
G1 X35.848 Y159.375 E13.3038
G1 X35.179 Y159.124 E13.32757
G1 X34.541 Y158.8 E13.35137
G1 X33.944 Y158.406 E13.37516
G1 X33.394 Y157.949 E13.39894
G1 X33.068 Y157.622 E13.4143
G1 X32.873 Y157.412 E13.42383
G1 X32.416 Y156.861 E13.44764
G1 X32.024 Y156.263 E13.47142
G1 X31.701 Y155.625 E13.49521
G1 X31.451 Y154.955 E13.51899
G1 X31.277 Y154.261 E13.54279
G1 X31.213 Y153.855 E13.55646
G1 X30.952 Y151.779 E13.62605
G1 X30.902 Y150.979 E13.65271
G1 X30.932 Y72.609 E16.25931
G1 X30.938 Y72.345 E16.26809
G1 X31.119 Y67.992 E16.413
G1 X31.188 Y67.28 E16.43679
G1 X31.408 Y66.336 E16.46903
G1 X31.476 Y66.12 E16.47656
G1 X31.729 Y65.451 E16.50035
G1 X32.055 Y64.814 E16.52415
G1 X32.449 Y64.218 E16.54791
G1 X32.908 Y63.669 E16.57172
G1 X33.177 Y63.398 E16.58442
G1 X33.371 Y63.214 E16.59331
G1 X33.916 Y62.752 E16.61707
G1 X34.51 Y62.353 E16.64087
M204 S5000
M205 X30 Y30
G0 F2400 X34.752 Y62.675
M204 S500
M205 X20 Y20
G1 F1200 X35.37 Y62.361 E16.66393
G1 X36.019 Y62.121 E16.68694
G1 X36.692 Y61.957 E16.70998
G1 X37.304 Y61.877 E16.73051
G1 X38.205 Y61.806 E16.76057
G1 X38.677 Y61.787 E16.77628
G1 X182.129 Y61.816 E21.54751
G1 X182.821 Y61.856 E21.57057
G1 X183.503 Y61.976 E21.5936
G1 X184.167 Y62.173 E21.61664
G1 X184.803 Y62.445 E21.63964
G1 X185.226 Y62.678 E21.65571
G1 X185.43 Y62.801 E21.66363
G1 X186.002 Y63.192 E21.68667
G1 X186.524 Y63.646 E21.70968
G1 X186.991 Y64.158 E21.73273
G1 X187.37 Y64.681 E21.75421
G1 X187.5 Y64.882 E21.76218
G1 X187.842 Y65.484 E21.7852
G1 X188.112 Y66.121 E21.80822
G1 X188.307 Y66.786 E21.83126
G1 X188.424 Y67.468 E21.85428
G1 X188.456 Y67.873 E21.86779
G1 X188.663 Y72.525 E22.02267
G1 X188.669 Y72.791 E22.03152
G1 X188.686 Y151.264 E24.64154
G1 X188.625 Y152.121 E24.67012
G1 X188.364 Y153.931 E24.73094
G1 X188.225 Y154.61 E24.75399
G1 X188.01 Y155.268 E24.77702
G1 X187.72 Y155.897 E24.80006
G1 X187.359 Y156.488 E24.82309
G1 X186.933 Y157.034 E24.84612
G1 X186.447 Y157.527 E24.86915
G1 X185.907 Y157.961 E24.89219
G1 X185.524 Y158.212 E24.90742
G1 X185.098 Y158.469 E24.92397
G1 X184.486 Y158.792 E24.94698
G1 X183.84 Y159.043 E24.97004
G1 X183.17 Y159.217 E24.99306
G1 X182.484 Y159.312 E25.01609
G1 X181.999 Y159.332 E25.03224
G1 X38.701 Y159.342 E29.79835
G1 X38.225 Y159.323 E29.81419
G1 X37.282 Y159.248 E29.84566
G1 X36.596 Y159.153 E29.86869
G1 X35.926 Y158.98 E29.89171
G1 X35.28 Y158.731 E29.91473
G1 X34.666 Y158.409 E29.93779
G1 X34.095 Y158.019 E29.96079
G1 X33.361 Y157.35 E29.99382
G1 X33.166 Y157.14 E30.00335
G1 X32.725 Y156.606 E30.02639
G1 X32.348 Y156.025 E30.04942
G1 X32.041 Y155.404 E30.07247
G1 X31.807 Y154.752 E30.09551
G1 X31.61 Y153.805 E30.12768
G1 X31.349 Y151.729 E30.19727
G1 X31.302 Y150.979 E30.22226
G1 X31.332 Y72.609 E32.82886
G1 X31.337 Y72.362 E32.83708
G1 X31.518 Y68.009 E32.98198
G1 X31.587 Y67.32 E33.00501
G1 X31.79 Y66.456 E33.03453
G1 X31.858 Y66.24 E33.04207
G1 X32.104 Y65.593 E33.06509
G1 X32.422 Y64.978 E33.08811
G1 X32.81 Y64.404 E33.11116
G1 X33.452 Y63.689 E33.14312
G1 X33.646 Y63.505 E33.15201
G1 X34.175 Y63.058 E33.17505
G1 X34.752 Y62.675 E33.19808
M204 S5000
M205 X30 Y30
G0 F2400 X34.993 Y62.998
M204 S500
M205 X20 Y20
G1 F1200 X35.593 Y62.701 E33.22035
G1 X36.223 Y62.477 E33.24259
G1 X36.876 Y62.331 E33.26484
G1 X37.335 Y62.275 E33.28022
G1 X38.236 Y62.204 E33.31028
G1 X38.677 Y62.187 E33.32496
G1 X182.129 Y62.216 E38.09619
G1 X182.797 Y62.256 E38.11845
G1 X183.455 Y62.376 E38.1407
G1 X184.095 Y62.573 E38.16297
G1 X184.706 Y62.845 E38.18521
G1 X185.02 Y63.02 E38.19717
G1 X185.224 Y63.143 E38.20509
G1 X185.775 Y63.522 E38.22734
G1 X186.277 Y63.964 E38.24958
G1 X186.723 Y64.463 E38.27184
G1 X187.034 Y64.898 E38.28963
G1 X187.164 Y65.099 E38.29759
G1 X187.493 Y65.681 E38.31983
G1 X187.751 Y66.299 E38.3421
G1 X187.932 Y66.943 E38.36435
G1 X188.056 Y67.891 E38.39615
G1 X188.263 Y72.543 E38.55103
G1 X188.269 Y72.791 E38.55928
G1 X188.286 Y151.264 E41.1693
G1 X188.229 Y152.064 E41.19598
G1 X187.968 Y153.874 E41.2568
G1 X187.833 Y154.53 E41.27908
G1 X187.621 Y155.164 E41.30131
G1 X187.335 Y155.769 E41.32357
G1 X186.978 Y156.335 E41.34583
G1 X186.557 Y156.855 E41.36808
G1 X186.077 Y157.321 E41.39033
G1 X185.318 Y157.87 E41.42149
G1 X184.892 Y158.127 E41.43803
G1 X184.299 Y158.438 E41.4603
G1 X183.674 Y158.676 E41.48255
G1 X183.025 Y158.837 E41.50479
G1 X182.361 Y158.92 E41.52705
G1 X181.999 Y158.932 E41.53909
G1 X38.701 Y158.942 E46.3052
G1 X38.257 Y158.924 E46.31998
G1 X37.314 Y158.849 E46.35145
G1 X36.651 Y158.757 E46.37371
G1 X36.005 Y158.585 E46.39594
G1 X35.383 Y158.338 E46.4182
G1 X34.795 Y158.019 E46.44045
G1 X34.25 Y157.632 E46.46268
G1 X33.654 Y157.078 E46.48975
G1 X33.459 Y156.868 E46.49928
G1 X33.034 Y156.351 E46.52154
G1 X32.674 Y155.787 E46.54379
G1 X32.383 Y155.185 E46.56603
G1 X32.166 Y154.552 E46.58829
G1 X32.007 Y153.756 E46.61529
G1 X31.746 Y151.68 E46.68488
G1 X31.702 Y150.979 E46.70824
G1 X31.732 Y72.609 E49.31484
G1 X31.737 Y72.378 E49.32252
G1 X31.918 Y68.025 E49.46743
G1 X31.986 Y67.36 E49.48966
G1 X32.171 Y66.576 E49.51645
G1 X32.239 Y66.36 E49.52399
G1 X32.478 Y65.735 E49.54624
G1 X32.79 Y65.143 E49.5685
G1 X33.169 Y64.593 E49.59071
G1 X33.727 Y63.979 E49.61831
G1 X33.921 Y63.795 E49.6272
G1 X34.433 Y63.364 E49.64946
G1 X34.993 Y62.998 E49.67171
M204 S5000
M205 X30 Y30
G0 F2400 X35.233 Y63.322
M204 S500
M205 X20 Y20
G1 F1200 X35.813 Y63.042 E49.69313
G1 X36.424 Y62.836 E49.71458
G1 X37.366 Y62.674 E49.74637
G1 X38.267 Y62.603 E49.77643
G1 X38.677 Y62.587 E49.79008
G1 X182.129 Y62.616 E54.56131
G1 X182.772 Y62.656 E54.58274
G1 X183.406 Y62.775 E54.60419
G1 X184.02 Y62.972 E54.62564
G1 X184.813 Y63.363 E54.65505
G1 X185.017 Y63.486 E54.66297
G1 X185.547 Y63.852 E54.68439
G1 X186.028 Y64.282 E54.70585
G1 X186.453 Y64.767 E54.7273
G1 X186.698 Y65.115 E54.74146
G1 X186.828 Y65.316 E54.74942
G1 X187.144 Y65.878 E54.77086
G1 X187.388 Y66.475 E54.79231
G1 X187.556 Y67.097 E54.81374
G1 X187.657 Y67.909 E54.84096
G1 X187.864 Y72.561 E54.99584
G1 X187.869 Y72.791 E55.00349
G1 X187.886 Y151.264 E57.61351
G1 X187.833 Y152.007 E57.63829
G1 X187.572 Y153.817 E57.69911
G1 X187.44 Y154.448 E57.72055
G1 X187.232 Y155.058 E57.74199
G1 X186.95 Y155.638 E57.76344
G1 X186.598 Y156.178 E57.78488
G1 X186.182 Y156.671 E57.80633
G1 X185.708 Y157.108 E57.82777
G1 X185.111 Y157.527 E57.85203
G1 X184.685 Y157.784 E57.86858
G1 X184.114 Y158.083 E57.89002
G1 X183.509 Y158.308 E57.91149
G1 X182.882 Y158.456 E57.93291
G1 X181.999 Y158.532 E57.96239
G1 X38.701 Y158.542 E62.7285
G1 X38.289 Y158.526 E62.74222
G1 X37.346 Y158.451 E62.77368
G1 X36.707 Y158.36 E62.79515
G1 X36.085 Y158.191 E62.81659
G1 X35.489 Y157.946 E62.83802
G1 X34.928 Y157.629 E62.85945
G1 X34.41 Y157.245 E62.8809
G1 X33.947 Y156.805 E62.90214
G1 X33.752 Y156.595 E62.91167
G1 X33.344 Y156.097 E62.93308
G1 X33 Y155.551 E62.95455
G1 X32.727 Y154.967 E62.97599
G1 X32.527 Y154.354 E62.99744
G1 X32.404 Y153.706 E63.01937
G1 X32.143 Y151.63 E63.08896
G1 X32.102 Y150.979 E63.11066
G1 X32.132 Y72.609 E65.71726
G1 X32.136 Y72.395 E65.72438
G1 X32.317 Y68.042 E65.86928
G1 X32.384 Y67.401 E65.89072
G1 X32.553 Y66.697 E65.9148
G1 X32.621 Y66.481 E65.92233
G1 X32.852 Y65.879 E65.94378
G1 X33.156 Y65.31 E65.96523
G1 X33.528 Y64.784 E65.98666
G1 X34.003 Y64.269 E66.00996
G1 X34.197 Y64.085 E66.01886
G1 X34.691 Y63.671 E66.04029
G1 X35.233 Y63.322 E66.06173
M204 S5000
M205 X30 Y30
G1 F3600 E60.06173
G0 F2400 X36.839 Y69.985
G0 X37.34 Y70.49
G0 X38.403 Y70.495
G0 X38.814 Y70.087
G0 X39.15 Y69.514
M204 S500
M205 X20 Y20
;TYPE:SUPPORT
G1 F3600 E66.06173
G1 F1200 X180.85 Y69.514 E70.7747
G1 X180.85 Y70.088 E70.79379
G1 X181.499 Y70.737 E70.82431
G1 X181.55 Y70.736 E70.82601
G1 X181.55 Y73.404 E70.91475
G1 X181.786 Y73.64 E70.92585
G1 X182.468 Y73.633 E70.94853
G1 X182.5 Y73.601 E70.95004
G1 X182.499 Y150.762 E73.51642
G1 X182.466 Y150.729 E73.51798
G1 X181.786 Y150.728 E73.54059
G1 X181.55 Y150.962 E73.55165
G1 X181.55 Y151.555 E73.57137
G1 X181.502 Y151.555 E73.57297
G1 X181.366 Y151.688 E73.57929
G1 X38.635 Y151.688 E78.32655
G1 X38.501 Y151.555 E78.33283
G1 X38.45 Y151.555 E78.33452
G1 X38.45 Y150.962 E78.35425
G1 X38.214 Y150.728 E78.3653
G1 X37.532 Y150.73 E78.38798
G1 X37.5 Y150.762 E78.38949
G1 X37.5 Y73.604 E80.95577
G1 X37.532 Y73.636 E80.95728
G1 X38.214 Y73.638 E80.97996
G1 X38.45 Y73.404 E80.99102
G1 X38.45 Y70.733 E81.07985
G1 X38.501 Y70.733 E81.08155
G1 X39.15 Y70.09 E81.11194
G1 X39.15 Y69.514 E81.13109
M204 S5000
M205 X30 Y30
G0 F2400 X49.15 Y76.122
M204 S500
M205 X20 Y20
G1 F1200 X49.15 Y121.102 E82.62713
G1 X49.549 Y121.501 E82.6459
G1 X170.192 Y121.502 E86.6585
G1 X170.634 Y121.319 E86.67442
G1 X170.85 Y121.103 E86.68458
G1 X170.85 Y76.122 E88.18065
G1 X170.451 Y75.723 E88.19942
G1 X49.549 Y75.723 E92.22063
G1 X49.15 Y76.122 E92.2394
M204 S5000
M205 X30 Y30
G0 F2400 X48.989 Y77.343
M204 S500
M205 X20 Y20
G1 F1200 X37.659 Y77.343 E92.61624
M204 S5000
M205 X30 Y30
G0 F2400 X37.659 Y74.676
M204 S500
M205 X20 Y20
G1 F1200 X182.339 Y74.676 E97.42832
M204 S5000
M205 X30 Y30
G0 F2400 X182.339 Y77.343
M204 S500
M205 X20 Y20
G1 F1200 X171.01 Y77.343 E97.80512
M204 S5000
M205 X30 Y30
G0 F2400 X170.688 Y75.733
M204 S500
M205 X20 Y20
G1 F1200 X170.688 Y69.674 E98.00664
M204 S5000
M205 X30 Y30
G0 F2400 X168.021 Y69.674
M204 S500
M205 X20 Y20
G1 F1200 X168.021 Y75.563 E98.20251
M204 S5000
M205 X30 Y30
G0 F2400 X165.354 Y75.563
M204 S500
M205 X20 Y20
G1 F1200 X165.354 Y69.674 E98.39838
M204 S5000
M205 X30 Y30
G0 F2400 X162.687 Y69.674
M204 S500
M205 X20 Y20
G1 F1200 X162.687 Y75.563 E98.59425
M204 S5000
M205 X30 Y30
G0 F2400 X160.02 Y75.563
M204 S500
M205 X20 Y20
G1 F1200 X160.02 Y69.674 E98.79012
M204 S5000
M205 X30 Y30
G0 F2400 X157.353 Y69.674
M204 S500
M205 X20 Y20
G1 F1200 X157.353 Y75.563 E98.98599
M204 S5000
M205 X30 Y30
G0 F2400 X154.686 Y75.563
M204 S500
M205 X20 Y20
G1 F1200 X154.686 Y69.674 E99.18186
M204 S5000
M205 X30 Y30
G0 F2400 X152.019 Y69.674
M204 S500
M205 X20 Y20
G1 F1200 X152.019 Y75.563 E99.37773
M204 S5000
M205 X30 Y30
G0 F2400 X149.352 Y75.563
M204 S500
M205 X20 Y20
G1 F1200 X149.352 Y69.674 E99.57359
M204 S5000
M205 X30 Y30
G0 F2400 X146.685 Y69.674
M204 S500
M205 X20 Y20
G1 F1200 X146.685 Y75.563 E99.76946
M204 S5000
M205 X30 Y30
G0 F2400 X144.018 Y75.563
M204 S500
M205 X20 Y20
G1 F1200 X144.018 Y69.674 E99.96533
M204 S5000
M205 X30 Y30
G0 F2400 X141.351 Y69.674
M204 S500
M205 X20 Y20
G1 F1200 X141.351 Y75.563 E100.1612
M204 S5000
M205 X30 Y30
G0 F2400 X138.684 Y75.563
M204 S500
M205 X20 Y20
G1 F1200 X138.684 Y69.674 E100.35707
M204 S5000
M205 X30 Y30
G0 F2400 X136.017 Y69.674
M204 S500
M205 X20 Y20
G1 F1200 X136.017 Y75.563 E100.55294
M204 S5000
M205 X30 Y30
G0 F2400 X133.35 Y75.563
M204 S500
M205 X20 Y20
G1 F1200 X133.35 Y69.674 E100.74881
M204 S5000
M205 X30 Y30
G0 F2400 X130.683 Y69.674
M204 S500
M205 X20 Y20
G1 F1200 X130.683 Y75.563 E100.94468
M204 S5000
M205 X30 Y30
G0 F2400 X128.016 Y75.563
M204 S500
M205 X20 Y20
G1 F1200 X128.016 Y69.674 E101.14055
M204 S5000
M205 X30 Y30
G0 F2400 X125.349 Y69.674
M204 S500
M205 X20 Y20
G1 F1200 X125.349 Y75.563 E101.33642
M204 S5000
M205 X30 Y30
G0 F2400 X122.682 Y75.563
M204 S500
M205 X20 Y20
G1 F1200 X122.682 Y69.674 E101.53228
M204 S5000
M205 X30 Y30
G0 F2400 X120.015 Y69.674
M204 S500
M205 X20 Y20
G1 F1200 X120.015 Y75.563 E101.72815
M204 S5000
M205 X30 Y30
G0 F2400 X117.348 Y75.563
M204 S500
M205 X20 Y20
G1 F1200 X117.348 Y69.674 E101.92402
M204 S5000
M205 X30 Y30
G0 F2400 X114.681 Y69.674
M204 S500
M205 X20 Y20
G1 F1200 X114.681 Y75.563 E102.11989
M204 S5000
M205 X30 Y30
G0 F2400 X112.014 Y75.563
M204 S500
M205 X20 Y20
G1 F1200 X112.014 Y69.674 E102.31576
M204 S5000
M205 X30 Y30
G0 F2400 X109.347 Y69.674
M204 S500
M205 X20 Y20
G1 F1200 X109.347 Y75.563 E102.51163
M204 S5000
M205 X30 Y30
G0 F2400 X106.68 Y75.563
M204 S500
M205 X20 Y20
G1 F1200 X106.68 Y69.674 E102.7075
M204 S5000
M205 X30 Y30
G0 F2400 X104.013 Y69.674
M204 S500
M205 X20 Y20
G1 F1200 X104.013 Y75.563 E102.90337
M204 S5000
M205 X30 Y30
G0 F2400 X101.346 Y75.563
M204 S500
M205 X20 Y20
G1 F1200 X101.346 Y69.674 E103.09924
M204 S5000
M205 X30 Y30
G0 F2400 X98.679 Y69.674
M204 S500
M205 X20 Y20
G1 F1200 X98.679 Y75.563 E103.2951
M204 S5000
M205 X30 Y30
G0 F2400 X96.012 Y75.563
M204 S500
M205 X20 Y20
G1 F1200 X96.012 Y69.674 E103.49097
M204 S5000
M205 X30 Y30
G0 F2400 X93.345 Y69.674
M204 S500
M205 X20 Y20
G1 F1200 X93.345 Y75.563 E103.68684
M204 S5000
M205 X30 Y30
G0 F2400 X90.678 Y75.563
M204 S500
M205 X20 Y20
G1 F1200 X90.678 Y69.674 E103.88271
M204 S5000
M205 X30 Y30
G0 F2400 X88.011 Y69.674
M204 S500
M205 X20 Y20
G1 F1200 X88.011 Y75.563 E104.07858
M204 S5000
M205 X30 Y30
G0 F2400 X85.344 Y75.563
M204 S500
M205 X20 Y20
G1 F1200 X85.344 Y69.674 E104.27445
M204 S5000
M205 X30 Y30
G0 F2400 X82.677 Y69.674
M204 S500
M205 X20 Y20
G1 F1200 X82.677 Y75.563 E104.47032
M204 S5000
M205 X30 Y30
G0 F2400 X80.01 Y75.563
M204 S500
M205 X20 Y20
G1 F1200 X80.01 Y69.674 E104.66619
M204 S5000
M205 X30 Y30
G0 F2400 X77.343 Y69.674
M204 S500
M205 X20 Y20
G1 F1200 X77.343 Y75.563 E104.86206
M204 S5000
M205 X30 Y30
G0 F2400 X74.676 Y75.563
M204 S500
M205 X20 Y20
G1 F1200 X74.676 Y69.674 E105.05793
M204 S5000
M205 X30 Y30
G0 F2400 X72.009 Y69.674
M204 S500
M205 X20 Y20
G1 F1200 X72.009 Y75.563 E105.25379
M204 S5000
M205 X30 Y30
G0 F2400 X69.342 Y75.563
M204 S500
M205 X20 Y20
G1 F1200 X69.342 Y69.674 E105.44966
M204 S5000
M205 X30 Y30
G0 F2400 X66.675 Y69.674
M204 S500
M205 X20 Y20
G1 F1200 X66.675 Y75.563 E105.64553
M204 S5000
M205 X30 Y30
G0 F2400 X64.008 Y75.563
M204 S500
M205 X20 Y20
G1 F1200 X64.008 Y69.674 E105.8414
M204 S5000
M205 X30 Y30
G0 F2400 X61.341 Y69.674
M204 S500
M205 X20 Y20
G1 F1200 X61.341 Y75.563 E106.03727
M204 S5000
M205 X30 Y30
G0 F2400 X58.674 Y75.563
M204 S500
M205 X20 Y20
G1 F1200 X58.674 Y69.674 E106.23314
M204 S5000
M205 X30 Y30
G0 F2400 X56.007 Y69.674
M204 S500
M205 X20 Y20
G1 F1200 X56.007 Y75.563 E106.42901
M204 S5000
M205 X30 Y30
