;FLAVOR:Marlin
;TIME:11185
;Filament used: 8.44136m
;Layer height: 0.2
;MINX:9.941
;MINY:92.045
;MINZ:0.2
;MAXX:225.059
;MAXY:142.286
;MAXZ:22.6
;Generated with Cura_SteamEngine 4.1.0
M140 S50
M105
M190 S50
M104 S200
M105
M109 S200
M82 ;absolute extrusion mode
; Ender 3 Custom Start G-code
G28 ; Home all axes
M420 S1
G92 E0 ; Reset Extruder
G1 Z2.0 F3000 ; Move Z Axis up little to prevent scratching of Heat Bed
G1 X0.1 Y20 Z0.3 F5000.0 ; Move to start position
G1 X0.1 Y200.0 Z0.3 F1500.0 E15 ; Draw the first line
G1 X0.4 Y200.0 Z0.3 F5000.0 ; Move to side a little
G1 X0.4 Y20 Z0.3 F1500.0 E30 ; Draw the second line
G92 E0 ; Reset Extruder
G1 Z2.0 F3000 ; Move Z Axis up little to prevent scratching of Heat Bed
G92 E0
G92 E0
G1 F3600 E-8
;LAYER_COUNT:113
;LAYER:0
M107
M204 S500
M205 X10 Y10
G0 F3600 X15.524 Y96.404 Z0.2
;TYPE:SKIRT
G1 F3600 E0
G1 F1800 X16.234 Y96.312 E0.02381
G1 X16.592 Y96.296 E0.03573
G1 X17.168 Y96.286 E0.05489
G1 X19.892 Y96.2 E0.14554
G1 X22.495 Y96.043 E0.23227
G1 X25.135 Y95.809 E0.32042
G1 X27.763 Y95.501 E0.40843
G1 X28.806 Y95.342 E0.44352
G1 X28.946 Y95.322 E0.44822
G1 X30.276 Y95.149 E0.49283
G1 X30.957 Y95.098 E0.51554
G1 X32.058 Y95.073 E0.55217
G1 X32.19 Y95.071 E0.55656
G1 X36.59 Y95.062 E0.70291
G1 X36.617 Y95.062 E0.70381
G1 X41.83 Y95.073 E0.87719
G1 X89.581 Y95.073 E2.4654
G1 X111.593 Y95.074 E3.19752
G1 X114.255 Y95.036 E3.28607
G1 X116.903 Y94.924 E3.37422
G1 X119.526 Y94.739 E3.46168
G1 X122.202 Y94.473 E3.55112
G1 X124.79 Y94.142 E3.6379
G1 X127.433 Y93.727 E3.72688
G1 X130.015 Y93.247 E3.81423
G1 X132.596 Y92.692 E3.90204
G1 X133.554 Y92.456 E3.93485
G1 X133.642 Y92.436 E3.93785
G1 X134.563 Y92.223 E3.9693
G1 X135.268 Y92.101 E3.99309
G1 X135.764 Y92.063 E4.00964
G1 X136.109 Y92.05 E4.02112
G1 X136.35 Y92.045 E4.02914
G1 X191.513 Y92.045 E5.86387
G1 X191.605 Y92.046 E5.86693
G1 X192.303 Y92.056 E5.89015
G1 X193.016 Y92.106 E5.91392
G1 X193.878 Y92.276 E5.94314
G1 X194.282 Y92.385 E5.95706
G1 X194.405 Y92.419 E5.9613
G1 X196.27 Y92.962 E6.02591
G1 X198.788 Y93.618 E6.11245
G1 X201.395 Y94.22 E6.20144
G1 X203.976 Y94.737 E6.28899
G1 X206.604 Y95.188 E6.37768
G1 X209.206 Y95.559 E6.4651
G1 X211.834 Y95.858 E6.55307
G1 X214.474 Y96.084 E6.6412
G1 X217.211 Y96.24 E6.73238
G1 X218.549 Y96.296 E6.77692
G1 X219.261 Y96.365 E6.80071
G1 X219.961 Y96.514 E6.82451
G1 X220.639 Y96.74 E6.84828
G1 X221.289 Y97.04 E6.87209
G1 X221.9 Y97.411 E6.89587
G1 X222.467 Y97.848 E6.91968
G1 X222.981 Y98.345 E6.94346
G1 X223.436 Y98.896 E6.96723
G1 X223.812 Y99.469 E6.99002
G1 X223.964 Y99.73 E7.00007
G1 X224.289 Y100.367 E7.02385
G1 X224.604 Y101.252 E7.0551
G1 X224.819 Y102.033 E7.08204
G1 X224.97 Y102.732 E7.10582
G1 X225.048 Y103.625 E7.13564
G1 X225.057 Y104.162 E7.1535
G1 X225.058 Y104.269 E7.15706
G1 X225.059 Y134.645 E8.16737
G1 X225.058 Y134.731 E8.17023
G1 X225.046 Y135.624 E8.19994
G1 X225.037 Y135.899 E8.20909
G1 X225.019 Y136.218 E8.21971
G1 X224.939 Y136.928 E8.24348
G1 X224.78 Y137.626 E8.26729
G1 X224.544 Y138.301 E8.29107
G1 X224.234 Y138.946 E8.31487
G1 X223.855 Y139.552 E8.33865
G1 X223.41 Y140.112 E8.36244
G1 X222.905 Y140.619 E8.38624
G1 X222.347 Y141.066 E8.41002
G1 X221.743 Y141.449 E8.4338
G1 X221.099 Y141.761 E8.45761
G1 X220.425 Y142 E8.48139
G1 X219.728 Y142.162 E8.50519
G1 X218.91 Y142.251 E8.53256
G1 X218.25 Y142.28 E8.55453
G1 X217.969 Y142.286 E8.56388
G1 X17.07 Y142.286 E15.24581
G1 X16.977 Y142.285 E15.2489
G1 X16.287 Y142.275 E15.27185
G1 X15.574 Y142.225 E15.29562
G1 X14.87 Y142.095 E15.31944
G1 X14.186 Y141.888 E15.3432
G1 X13.529 Y141.606 E15.36698
G1 X12.907 Y141.252 E15.39079
G1 X12.329 Y140.831 E15.41457
G1 X11.801 Y140.348 E15.43837
G1 X11.331 Y139.809 E15.46216
G1 X10.924 Y139.221 E15.48594
G1 X10.584 Y138.591 E15.50975
G1 X10.318 Y137.928 E15.53351
G1 X10.127 Y137.238 E15.55733
G1 X10.014 Y136.532 E15.58111
G1 X9.982 Y136.027 E15.59794
G1 X9.96 Y135.097 E15.62888
G1 X9.958 Y134.981 E15.63274
G1 X9.941 Y131.863 E15.73644
G1 X9.941 Y104.76 E16.63789
G1 X9.942 Y104.654 E16.64142
G1 X9.96 Y103.564 E16.67768
G1 X10.012 Y102.851 E16.70145
G1 X10.151 Y102.115 E16.72637
G1 X10.263 Y101.668 E16.74169
G1 X10.307 Y101.502 E16.7474
G1 X10.362 Y101.305 E16.75421
G1 X10.592 Y100.628 E16.77799
G1 X10.882 Y100.008 E16.80075
G1 X11.059 Y99.677 E16.81324
G1 X11.431 Y99.066 E16.83703
G1 X11.869 Y98.501 E16.86081
G1 X12.367 Y97.987 E16.88461
G1 X12.92 Y97.533 E16.90841
G1 X13.519 Y97.143 E16.93218
G1 X14.159 Y96.822 E16.956
G1 X14.83 Y96.575 E16.97978
G1 X15.524 Y96.404 E17.00355
G0 F3600 X15.772 Y96.768
G1 F1800 X16.599 Y96.696 E17.03116
G1 X17.186 Y96.686 E17.05069
G1 X19.894 Y96.601 E17.1408
G1 X22.521 Y96.442 E17.22833
G1 X25.216 Y96.203 E17.31832
G1 X27.809 Y95.899 E17.40516
G1 X28.866 Y95.738 E17.44072
G1 X28.998 Y95.719 E17.44515
G1 X30.328 Y95.546 E17.48976
G1 X30.966 Y95.498 E17.51104
G1 X32.067 Y95.473 E17.54767
G1 X32.191 Y95.471 E17.5518
G1 X36.591 Y95.462 E17.69814
G1 X36.616 Y95.462 E17.69897
G1 X41.829 Y95.473 E17.87236
G1 X89.581 Y95.473 E19.4606
G1 X111.598 Y95.474 E20.19288
G1 X114.242 Y95.437 E20.28083
G1 X116.948 Y95.322 E20.37092
G1 X119.558 Y95.138 E20.45794
G1 X122.26 Y94.869 E20.54825
G1 X124.831 Y94.54 E20.63446
G1 X127.496 Y94.122 E20.72418
G1 X130.1 Y93.638 E20.81228
G1 X132.711 Y93.076 E20.90111
G1 X133.65 Y92.845 E20.93327
G1 X133.732 Y92.825 E20.93608
G1 X134.653 Y92.612 E20.96752
G1 X135.336 Y92.495 E20.99057
G1 X135.779 Y92.462 E21.00534
G1 X136.124 Y92.449 E21.01682
G1 X136.35 Y92.445 E21.02434
G1 X191.513 Y92.445 E22.85907
G1 X191.599 Y92.446 E22.86193
G1 X192.297 Y92.456 E22.88515
G1 X192.988 Y92.505 E22.90819
G1 X193.774 Y92.662 E22.93485
G1 X194.178 Y92.771 E22.94877
G1 X194.293 Y92.803 E22.95274
G1 X196.153 Y93.345 E23.01717
G1 X198.711 Y94.011 E23.10509
G1 X201.331 Y94.616 E23.19452
G1 X203.901 Y95.13 E23.2817
G1 X206.512 Y95.579 E23.36981
G1 X209.176 Y95.959 E23.45931
G1 X211.791 Y96.256 E23.54685
G1 X214.451 Y96.484 E23.63564
G1 X217.11 Y96.636 E23.72423
G1 X218.533 Y96.695 E23.7716
G1 X219.222 Y96.764 E23.79463
G1 X219.898 Y96.912 E23.81765
G1 X220.553 Y97.137 E23.84068
G1 X221.178 Y97.435 E23.86371
G1 X221.764 Y97.804 E23.88674
G1 X222.304 Y98.238 E23.90978
G1 X222.79 Y98.731 E23.93281
G1 X223.217 Y99.277 E23.95586
G1 X223.467 Y99.67 E23.97136
G1 X223.619 Y99.931 E23.9814
G1 X223.932 Y100.549 E24.00444
G1 X224.219 Y101.359 E24.03302
G1 X224.434 Y102.14 E24.05997
G1 X224.579 Y102.817 E24.08299
G1 X224.648 Y103.631 E24.11016
G1 X224.657 Y104.168 E24.12803
G1 X224.658 Y104.269 E24.13139
G1 X224.659 Y134.645 E25.1417
G1 X224.658 Y134.726 E25.14439
G1 X224.646 Y135.619 E25.1741
G1 X224.637 Y135.876 E25.18265
G1 X224.619 Y136.195 E25.19328
G1 X224.541 Y136.883 E25.21631
G1 X224.383 Y137.557 E25.23933
G1 X224.149 Y138.209 E25.26237
G1 X223.841 Y138.829 E25.2854
G1 X223.464 Y139.41 E25.30843
G1 X223.022 Y139.944 E25.33149
G1 X222.522 Y140.423 E25.35452
G1 X221.97 Y140.841 E25.37755
G1 X221.373 Y141.193 E25.4006
G1 X220.74 Y141.473 E25.42362
G1 X220.079 Y141.679 E25.44665
G1 X219.398 Y141.807 E25.46969
G1 X218.892 Y141.851 E25.48659
G1 X218.232 Y141.88 E25.50856
G1 X217.969 Y141.886 E25.51731
G1 X17.07 Y141.886 E32.19924
G1 X16.983 Y141.885 E32.20213
G1 X16.293 Y141.875 E32.22508
G1 X15.602 Y141.825 E32.24813
G1 X14.922 Y141.696 E32.27115
G1 X14.261 Y141.489 E32.29418
G1 X13.628 Y141.208 E32.31722
G1 X13.032 Y140.855 E32.34026
G1 X12.481 Y140.436 E32.36328
G1 X11.981 Y139.957 E32.38631
G1 X11.54 Y139.423 E32.40935
G1 X11.164 Y138.841 E32.43239
G1 X10.857 Y138.22 E32.45543
G1 X10.624 Y137.568 E32.47846
G1 X10.467 Y136.894 E32.50148
G1 X10.382 Y136.018 E32.53075
G1 X10.36 Y135.088 E32.56169
G1 X10.358 Y134.979 E32.56532
G1 X10.341 Y131.861 E32.66902
G1 X10.341 Y104.76 E33.57041
G1 X10.342 Y104.661 E33.5737
G1 X10.36 Y103.571 E33.60996
G1 X10.411 Y102.88 E33.633
G1 X10.539 Y102.212 E33.65563
G1 X10.651 Y101.765 E33.67095
G1 X10.692 Y101.61 E33.67629
G1 X10.747 Y101.413 E33.68309
G1 X10.971 Y100.757 E33.70614
G1 X11.235 Y100.197 E33.72674
G1 X11.412 Y99.866 E33.73922
G1 X11.773 Y99.275 E33.76225
G1 X12.2 Y98.73 E33.78528
G1 X12.687 Y98.237 E33.80833
G1 X13.228 Y97.804 E33.83138
G1 X13.814 Y97.436 E33.85439
G1 X14.439 Y97.138 E33.87742
G1 X15.095 Y96.915 E33.90047
G1 X15.772 Y96.768 E33.92351
G0 F3600 X15.356 Y97.259
G1 F1800 X16.014 Y97.138 E33.94576
G1 X16.606 Y97.096 E33.9655
G1 X17.207 Y97.086 E33.98549
G1 X19.895 Y97.001 E34.07494
G1 X22.579 Y96.839 E34.16437
G1 X25.226 Y96.604 E34.25276
G1 X27.863 Y96.295 E34.34107
G1 X28.927 Y96.133 E34.37686
G1 X29.05 Y96.116 E34.38099
G1 X30.38 Y95.943 E34.4256
G1 X30.975 Y95.897 E34.44545
G1 X32.076 Y95.872 E34.48208
G1 X32.192 Y95.871 E34.48594
G1 X36.592 Y95.862 E34.63228
G1 X36.615 Y95.862 E34.63305
G1 X41.828 Y95.873 E34.80643
G1 X89.581 Y95.873 E36.3947
G1 X111.604 Y95.874 E37.12719
G1 X114.265 Y95.836 E37.21571
G1 X116.957 Y95.722 E37.30532
G1 X119.592 Y95.536 E37.39318
G1 X122.275 Y95.269 E37.48286
G1 X124.947 Y94.927 E37.57245
G1 X127.526 Y94.523 E37.65928
G1 X130.186 Y94.029 E37.74926
G1 X132.793 Y93.468 E37.83796
G1 X133.746 Y93.233 E37.8706
G1 X133.822 Y93.215 E37.8732
G1 X134.743 Y93.002 E37.90464
G1 X135.403 Y92.89 E37.92691
G1 X135.794 Y92.862 E37.93995
G1 X136.139 Y92.849 E37.95143
G1 X136.35 Y92.845 E37.95845
G1 X191.513 Y92.845 E39.79318
G1 X191.593 Y92.846 E39.79584
G1 X192.291 Y92.856 E39.81906
G1 X192.958 Y92.905 E39.8413
G1 X193.67 Y93.048 E39.86545
G1 X194.074 Y93.157 E39.87937
G1 X194.181 Y93.187 E39.88307
G1 X196.046 Y93.73 E39.94767
G1 X198.626 Y94.402 E40.03635
G1 X201.228 Y95.003 E40.12517
G1 X203.833 Y95.524 E40.21353
G1 X206.458 Y95.975 E40.30211
G1 X209.11 Y96.353 E40.39121
G1 X211.744 Y96.653 E40.47939
G1 X214.43 Y96.883 E40.56905
G1 X217.137 Y97.037 E40.65923
G1 X218.516 Y97.095 E40.70514
G1 X219.182 Y97.163 E40.7274
G1 X219.834 Y97.309 E40.74963
G1 X220.465 Y97.533 E40.7719
G1 X221.064 Y97.83 E40.79413
G1 X221.624 Y98.197 E40.8164
G1 X222.136 Y98.627 E40.83864
G1 X222.593 Y99.116 E40.8609
G1 X223.121 Y99.872 E40.89157
G1 X223.273 Y100.133 E40.90162
G1 X223.575 Y100.73 E40.92387
G1 X223.833 Y101.465 E40.94978
G1 X224.048 Y102.246 E40.97672
G1 X224.187 Y102.9 E40.99896
G1 X224.248 Y103.638 E41.02359
G1 X224.257 Y104.175 E41.04145
G1 X224.258 Y104.269 E41.04458
G1 X224.259 Y134.645 E42.05489
G1 X224.258 Y134.72 E42.05738
G1 X224.246 Y135.613 E42.08709
G1 X224.238 Y135.853 E42.09507
G1 X224.22 Y136.172 E42.1057
G1 X224.143 Y136.837 E42.12797
G1 X223.986 Y137.488 E42.15024
G1 X223.754 Y138.115 E42.17248
G1 X223.448 Y138.71 E42.19473
G1 X223.073 Y139.264 E42.21698
G1 X222.635 Y139.77 E42.23924
G1 X222.14 Y140.22 E42.26149
G1 X221.595 Y140.607 E42.28372
G1 X221.007 Y140.927 E42.30599
G1 X220.385 Y141.174 E42.32824
G1 X219.739 Y141.346 E42.35048
G1 X218.875 Y141.452 E42.37943
G1 X218.215 Y141.481 E42.4014
G1 X217.969 Y141.486 E42.40959
G1 X17.07 Y141.486 E49.09152
G1 X16.989 Y141.485 E49.09421
G1 X16.299 Y141.475 E49.11716
G1 X15.632 Y141.426 E49.13941
G1 X14.975 Y141.297 E49.16168
G1 X14.339 Y141.091 E49.18391
G1 X13.731 Y140.81 E49.20619
G1 X13.162 Y140.459 E49.22842
G1 X12.638 Y140.042 E49.2507
G1 X12.168 Y139.567 E49.27292
G1 X11.758 Y139.038 E49.29518
G1 X11.414 Y138.464 E49.31744
G1 X11.141 Y137.853 E49.3397
G1 X10.942 Y137.215 E49.36193
G1 X10.821 Y136.556 E49.38421
G1 X10.782 Y136.008 E49.40249
G1 X10.76 Y135.078 E49.43343
G1 X10.758 Y134.977 E49.43679
G1 X10.741 Y131.859 E49.54049
G1 X10.741 Y104.76 E50.44181
G1 X10.742 Y104.668 E50.44487
G1 X10.76 Y103.578 E50.48113
G1 X10.811 Y102.91 E50.50341
G1 X10.927 Y102.309 E50.52377
G1 X11.039 Y101.862 E50.53909
G1 X11.077 Y101.717 E50.54408
G1 X11.132 Y101.52 E50.55088
G1 X11.35 Y100.888 E50.57312
G1 X11.588 Y100.385 E50.59163
G1 X11.765 Y100.054 E50.60411
G1 X12.115 Y99.484 E50.62636
G1 X12.531 Y98.96 E50.64861
G1 X13.006 Y98.489 E50.67086
G1 X13.534 Y98.078 E50.69311
G1 X14.107 Y97.733 E50.71536
G1 X14.717 Y97.459 E50.7376
G1 X15.356 Y97.259 E50.75987
G0 F3600 X15.612 Y97.611
G1 F1800 X16.25 Y97.515 E50.78133
G1 X16.613 Y97.496 E50.79342
G1 X17.225 Y97.485 E50.81378
G1 X19.898 Y97.401 E50.90273
G1 X22.602 Y97.238 E50.99283
G1 X25.275 Y97.001 E51.08208
G1 X27.938 Y96.689 E51.17126
G1 X28.987 Y96.529 E51.20655
G1 X29.101 Y96.512 E51.21038
G1 X30.431 Y96.339 E51.25499
G1 X30.984 Y96.297 E51.27344
G1 X32.085 Y96.272 E51.31007
G1 X32.192 Y96.271 E51.31363
G1 X36.592 Y96.262 E51.45997
G1 X36.614 Y96.262 E51.4607
G1 X41.827 Y96.273 E51.63409
G1 X89.581 Y96.273 E53.22239
G1 X111.609 Y96.274 E53.95505
G1 X114.288 Y96.236 E54.04416
G1 X116.966 Y96.122 E54.13331
G1 X119.658 Y95.932 E54.22307
G1 X122.297 Y95.67 E54.31128
G1 X124.988 Y95.326 E54.40151
G1 X127.63 Y94.912 E54.49045
G1 X130.231 Y94.428 E54.57845
G1 X132.9 Y93.854 E54.66925
G1 X133.841 Y93.622 E54.70148
G1 X133.912 Y93.605 E54.70391
G1 X134.833 Y93.392 E54.73535
G1 X135.469 Y93.286 E54.7568
G1 X135.809 Y93.262 E54.76813
G1 X136.154 Y93.249 E54.77962
G1 X136.35 Y93.245 E54.78614
G1 X191.513 Y93.245 E56.62087
G1 X191.587 Y93.246 E56.62333
G1 X192.285 Y93.256 E56.64655
G1 X192.928 Y93.305 E56.66799
G1 X193.566 Y93.435 E56.68965
G1 X193.97 Y93.544 E56.70357
G1 X194.069 Y93.571 E56.70698
G1 X195.938 Y94.115 E56.77172
G1 X198.507 Y94.785 E56.86003
G1 X201.164 Y95.398 E56.95072
G1 X203.758 Y95.917 E57.03871
G1 X206.4 Y96.371 E57.12787
G1 X209.045 Y96.748 E57.21673
G1 X211.737 Y97.055 E57.30685
G1 X214.374 Y97.28 E57.39487
G1 X217.143 Y97.438 E57.48712
G1 X218.499 Y97.495 E57.53226
G1 X219.14 Y97.561 E57.55369
G1 X219.768 Y97.707 E57.57514
G1 X220.374 Y97.929 E57.5966
G1 X220.947 Y98.225 E57.61805
G1 X221.479 Y98.589 E57.63949
G1 X221.962 Y99.016 E57.66094
G1 X222.388 Y99.499 E57.68236
G1 X222.776 Y100.073 E57.7054
G1 X222.928 Y100.334 E57.71545
G1 X223.217 Y100.91 E57.73688
G1 X223.447 Y101.571 E57.76016
G1 X223.662 Y102.352 E57.7871
G1 X223.795 Y102.983 E57.80855
G1 X223.848 Y103.645 E57.83064
G1 X223.857 Y104.182 E57.8485
G1 X223.858 Y104.269 E57.85139
G1 X223.859 Y134.645 E58.8617
G1 X223.859 Y134.715 E58.86403
G1 X223.847 Y135.608 E58.89374
G1 X223.839 Y135.831 E58.90116
G1 X223.821 Y136.15 E58.91178
G1 X223.745 Y136.79 E58.93322
G1 X223.59 Y137.416 E58.95467
G1 X223.359 Y138.018 E58.97612
G1 X223.055 Y138.586 E58.99754
G1 X222.683 Y139.113 E59.019
G1 X222.249 Y139.59 E59.04045
G1 X221.76 Y140.009 E59.06187
G1 X221.222 Y140.365 E59.08332
G1 X220.644 Y140.651 E59.10477
G1 X220.035 Y140.863 E59.12622
G1 X219.405 Y140.999 E59.14766
G1 X218.857 Y141.052 E59.16597
G1 X218.197 Y141.081 E59.18794
G1 X217.969 Y141.086 E59.19553
G1 X17.07 Y141.086 E65.87745
G1 X16.995 Y141.085 E65.87995
G1 X16.305 Y141.075 E65.9029
G1 X15.662 Y141.026 E65.92435
G1 X15.03 Y140.898 E65.9458
G1 X14.419 Y140.692 E65.96724
G1 X13.838 Y140.412 E65.98869
G1 X13.296 Y140.063 E66.01013
G1 X12.802 Y139.649 E66.03157
G1 X12.363 Y139.178 E66.05299
G1 X11.985 Y138.655 E66.07445
G1 X11.675 Y138.09 E66.09588
G1 X11.437 Y137.491 E66.11732
G1 X11.275 Y136.867 E66.13876
G1 X11.181 Y135.999 E66.1678
G1 X11.159 Y135.069 E66.19874
G1 X11.158 Y134.974 E66.2019
G1 X11.141 Y131.856 E66.30561
G1 X11.141 Y104.76 E67.20683
G1 X11.142 Y104.674 E67.20969
G1 X11.16 Y103.584 E67.24594
G1 X11.21 Y102.941 E67.2674
G1 X11.315 Y102.406 E67.28553
G1 X11.427 Y101.959 E67.30086
G1 X11.463 Y101.825 E67.30547
G1 X11.518 Y101.628 E67.31227
G1 X11.729 Y101.019 E67.33371
G1 X11.94 Y100.574 E67.35009
G1 X12.117 Y100.243 E67.36257
G1 X12.456 Y99.694 E67.38404
G1 X12.86 Y99.192 E67.40547
G1 X13.323 Y98.743 E67.42692
G1 X13.838 Y98.355 E67.44836
G1 X14.397 Y98.034 E67.4698
G1 X14.991 Y97.785 E67.49123
G1 X15.612 Y97.611 E67.51268
G0 F3600 X136.22 Y98.645
;TYPE:SUPPORT
G1 F1800 X192.02 Y98.645 E69.36859
G1 X192.02 Y99.622 E69.40109
G1 X191.52 Y100.141 E69.42506
G1 X191.52 Y100.883 E69.44974
G1 X190.588 Y100.884 E69.48073
G1 X190.12 Y101.352 E69.50275
G1 X190.12 Y125.006 E70.28948
G1 X190.093 Y125.211 E70.29636
G1 X190.016 Y125.418 E70.30371
G1 X189.899 Y125.582 E70.31041
G1 X189.743 Y125.711 E70.31714
G1 X189.546 Y125.802 E70.32436
G1 X189.352 Y125.835 E70.3309
G1 X189.146 Y125.816 E70.33778
G1 X188.945 Y125.741 E70.34492
