;FLAVOR:Marlin
;TIME:10292
;Filament used: 7.88184m
;Layer height: 0.2
;MINX:9.941
;MINY:73.013
;MINZ:0.2
;MAXX:225.059
;MAXY:166.341
;MAXZ:10.6
;Generated with Cura_SteamEngine 4.1.0
M140 S50
M105
M190 S50
M104 S200
M105
M109 S200
M82 ;absolute extrusion mode
; Ender 3 Custom Start G-code
G28 ; Home all axes
M420 S1
G92 E0 ; Reset Extruder
G1 Z2.0 F3000 ; Move Z Axis up little to prevent scratching of Heat Bed
G1 X0.1 Y20 Z0.3 F5000.0 ; Move to start position
G1 X0.1 Y200.0 Z0.3 F1500.0 E15 ; Draw the first line
G1 X0.4 Y200.0 Z0.3 F5000.0 ; Move to side a little
G1 X0.4 Y20 Z0.3 F1500.0 E30 ; Draw the second line
G92 E0 ; Reset Extruder
G1 Z2.0 F3000 ; Move Z Axis up little to prevent scratching of Heat Bed
G92 E0
G92 E0
G1 F3600 E-8
;LAYER_COUNT:53
;LAYER:0
M107
M204 S500
M205 X10 Y10
G0 F3600 X15.692 Y74.363 Z0.2
;TYPE:SKIRT
G1 F3600 E0
G1 F1800 X16.392 Y74.291 E0.0234
G1 X17.751 Y74.227 E0.06866
G1 X17.762 Y74.227 E0.06902
G1 X20.499 Y74.103 E0.16015
G1 X23.11 Y73.909 E0.24723
G1 X25.771 Y73.637 E0.3362
G1 X28.419 Y73.291 E0.42502
G1 X28.555 Y73.269 E0.4296
G1 X28.657 Y73.253 E0.43303
G1 X29.652 Y73.111 E0.46646
G1 X30.416 Y73.049 E0.49196
G1 X31.556 Y73.024 E0.52988
G1 X31.687 Y73.022 E0.53424
G1 X37.09 Y73.014 E0.71394
G1 X37.115 Y73.014 E0.71478
G1 X41.919 Y73.026 E0.87456
G1 X143.998 Y73.026 E4.26972
G1 X193.081 Y73.027 E5.90223
G1 X197.883 Y73.013 E6.06194
G1 X197.913 Y73.013 E6.06294
G1 X203.812 Y73.023 E6.25914
G1 X203.897 Y73.024 E6.26197
G1 X204.563 Y73.034 E6.28412
G1 X205.381 Y73.099 E6.31142
G1 X208.129 Y73.495 E6.40376
G1 X210.78 Y73.801 E6.49252
G1 X213.423 Y74.031 E6.58076
G1 X216.03 Y74.182 E6.66761
G1 X217.049 Y74.209 E6.70151
G1 X217.137 Y74.212 E6.70444
G1 X218.538 Y74.268 E6.75108
G1 X219.25 Y74.337 E6.77487
G1 X219.949 Y74.484 E6.79863
G1 X220.629 Y74.709 E6.82245
G1 X221.278 Y75.008 E6.84622
G1 X221.891 Y75.377 E6.87001
G1 X222.458 Y75.813 E6.8938
G1 X222.973 Y76.309 E6.91758
G1 X223.43 Y76.86 E6.94139
G1 X223.689 Y77.239 E6.95666
G1 X223.872 Y77.528 E6.96804
G1 X224.22 Y78.153 E6.99183
G1 X224.478 Y78.761 E7.0138
G1 X224.65 Y79.233 E7.03051
G1 X224.857 Y79.917 E7.05428
G1 X224.986 Y80.621 E7.07808
G1 X225.035 Y81.283 E7.10016
G1 X225.05 Y81.965 E7.12285
G1 X225.052 Y82.092 E7.12707
G1 X225.059 Y85.322 E7.2345
G1 X225.059 Y158.7 E9.67507
G1 X225.058 Y158.786 E9.67793
G1 X225.046 Y159.674 E9.70746
G1 X225.036 Y159.961 E9.71702
G1 X225.016 Y160.304 E9.72844
G1 X224.935 Y161.014 E9.75221
G1 X224.774 Y161.711 E9.776
G1 X224.537 Y162.386 E9.7998
G1 X224.227 Y163.03 E9.82357
G1 X223.846 Y163.636 E9.84738
G1 X223.4 Y164.195 E9.87116
G1 X222.894 Y164.701 E9.89496
G1 X222.335 Y165.147 E9.91875
G1 X221.73 Y165.528 E9.94253
G1 X221.086 Y165.84 E9.96633
G1 X220.411 Y166.077 E9.99012
G1 X219.714 Y166.238 E10.01392
G1 X218.718 Y166.33 E10.04719
G1 X218.015 Y166.34 E10.07057
G1 X217.924 Y166.341 E10.0736
G1 X17.07 Y166.341 E16.75403
G1 X16.977 Y166.34 E16.75712
G1 X16.288 Y166.33 E16.78004
G1 X15.575 Y166.28 E16.80381
G1 X14.871 Y166.15 E16.82762
G1 X14.187 Y165.943 E16.85139
G1 X13.53 Y165.661 E16.87517
G1 X12.908 Y165.307 E16.89898
G1 X12.33 Y164.886 E16.92276
G1 X11.802 Y164.403 E16.94656
G1 X11.332 Y163.864 E16.97035
G1 X10.925 Y163.276 E16.99413
G1 X10.585 Y162.646 E17.01794
G1 X10.319 Y161.982 E17.04173
G1 X10.128 Y161.293 E17.06551
G1 X10.015 Y160.587 E17.08929
G1 X9.983 Y160.082 E17.10612
G1 X9.96 Y159.105 E17.13863
G1 X9.958 Y158.99 E17.14245
G1 X9.941 Y156.001 E17.24187
G1 X9.941 Y82.528 E19.68559
G1 X9.942 Y82.442 E19.68845
G1 X9.954 Y81.547 E19.71822
G1 X9.959 Y81.368 E19.72418
G1 X9.97 Y81.103 E19.733
G1 X10.039 Y80.391 E19.75679
G1 X10.188 Y79.691 E19.7806
G1 X10.423 Y78.988 E19.80525
G1 X10.568 Y78.626 E19.81822
G1 X10.952 Y77.831 E19.84758
G1 X11.136 Y77.509 E19.85992
G1 X11.525 Y76.908 E19.88373
G1 X11.979 Y76.355 E19.90753
G1 X12.491 Y75.856 E19.93131
G1 X13.056 Y75.418 E19.95508
G1 X13.667 Y75.045 E19.97889
G1 X14.315 Y74.742 E20.00269
G1 X14.993 Y74.514 E20.02648
G1 X15.692 Y74.363 E20.05026
G0 F3600 X15.929 Y74.733
G1 F1800 X16.411 Y74.691 E20.06635
G1 X17.77 Y74.627 E20.1116
G1 X17.781 Y74.626 E20.11197
G1 X20.509 Y74.502 E20.2028
G1 X23.179 Y74.304 E20.29185
G1 X25.831 Y74.033 E20.38051
G1 X28.463 Y73.689 E20.4688
G1 X28.618 Y73.664 E20.47402
G1 X28.713 Y73.649 E20.47722
G1 X29.708 Y73.507 E20.51065
G1 X30.424 Y73.448 E20.53454
G1 X31.564 Y73.423 E20.57247
G1 X31.687 Y73.422 E20.57656
G1 X37.09 Y73.414 E20.75626
G1 X37.114 Y73.414 E20.75706
G1 X41.918 Y73.426 E20.91684
G1 X143.998 Y73.426 E24.31204
G1 X193.083 Y73.427 E25.94461
G1 X197.885 Y73.413 E26.10433
G1 X197.912 Y73.413 E26.10523
G1 X203.811 Y73.423 E26.30143
G1 X203.891 Y73.424 E26.30409
G1 X204.557 Y73.434 E26.32624
G1 X205.324 Y73.494 E26.35183
G1 X208.097 Y73.894 E26.44502
G1 X210.768 Y74.202 E26.53444
G1 X213.367 Y74.428 E26.62121
G1 X216.028 Y74.583 E26.70987
G1 X217.038 Y74.609 E26.74347
G1 X217.121 Y74.612 E26.74623
G1 X218.522 Y74.668 E26.79287
G1 X219.211 Y74.735 E26.81589
G1 X219.888 Y74.882 E26.83894
G1 X220.543 Y75.105 E26.86195
G1 X221.169 Y75.403 E26.88501
G1 X221.755 Y75.771 E26.90802
G1 X222.296 Y76.203 E26.93105
G1 X222.783 Y76.696 E26.9541
G1 X223.351 Y77.453 E26.98558
G1 X223.534 Y77.742 E26.99695
G1 X223.87 Y78.348 E27.02
G1 X224.102 Y78.898 E27.03985
G1 X224.274 Y79.37 E27.05656
G1 X224.474 Y80.033 E27.07959
G1 X224.595 Y80.715 E27.10263
G1 X224.636 Y81.292 E27.12187
G1 X224.651 Y81.974 E27.14456
G1 X224.652 Y82.093 E27.14852
G1 X224.659 Y85.323 E27.25595
G1 X224.659 Y158.7 E29.69648
G1 X224.658 Y158.781 E29.69917
G1 X224.646 Y159.669 E29.72871
G1 X224.637 Y159.937 E29.73763
G1 X224.617 Y160.28 E29.74906
G1 X224.537 Y160.968 E29.77209
G1 X224.378 Y161.642 E29.79513
G1 X224.142 Y162.293 E29.81816
G1 X223.833 Y162.913 E29.8412
G1 X223.455 Y163.493 E29.86422
G1 X223.012 Y164.026 E29.88728
G1 X222.511 Y164.504 E29.91031
G1 X221.959 Y164.921 E29.93332
G1 X221.361 Y165.272 E29.95638
G1 X220.728 Y165.551 E29.97939
G1 X220.066 Y165.756 E30.00244
G1 X219.385 Y165.883 E30.02548
G1 X218.712 Y165.93 E30.04792
G1 X218.009 Y165.94 E30.0713
G1 X217.924 Y165.941 E30.07413
G1 X17.07 Y165.941 E36.75456
G1 X16.983 Y165.94 E36.75745
G1 X16.294 Y165.93 E36.78037
G1 X15.603 Y165.88 E36.80341
G1 X14.923 Y165.751 E36.82643
G1 X14.262 Y165.544 E36.84947
G1 X13.629 Y165.263 E36.87251
G1 X13.033 Y164.91 E36.89555
G1 X12.482 Y164.491 E36.91857
G1 X11.982 Y164.012 E36.9416
G1 X11.541 Y163.477 E36.96466
G1 X11.165 Y162.896 E36.98768
G1 X10.858 Y162.275 E37.01072
G1 X10.625 Y161.623 E37.03375
G1 X10.468 Y160.949 E37.05676
G1 X10.383 Y160.072 E37.08607
G1 X10.36 Y159.095 E37.11857
G1 X10.358 Y158.988 E37.12213
G1 X10.341 Y155.999 E37.22155
G1 X10.341 Y82.528 E39.6652
G1 X10.342 Y82.448 E39.66787
G1 X10.354 Y81.553 E39.69764
G1 X10.358 Y81.384 E39.70326
G1 X10.369 Y81.119 E39.71208
G1 X10.438 Y80.43 E39.73511
G1 X10.585 Y79.753 E39.75815
G1 X10.794 Y79.137 E39.77979
G1 X10.939 Y78.775 E39.79276
G1 X11.3 Y78.029 E39.82032
G1 X11.484 Y77.707 E39.83266
G1 X11.861 Y77.127 E39.85567
G1 X12.303 Y76.594 E39.8787
G1 X12.804 Y76.115 E39.90175
G1 X13.356 Y75.697 E39.92478
G1 X13.953 Y75.346 E39.94781
G1 X14.586 Y75.066 E39.97083
G1 X15.248 Y74.861 E39.99388
G1 X15.929 Y74.733 E40.01693
G0 F3600 X15.499 Y75.213
G1 F1800 X16.43 Y75.09 E40.04817
G1 X17.789 Y75.026 E40.09342
G1 X17.799 Y75.026 E40.09375
G1 X20.523 Y74.903 E40.18444
G1 X23.213 Y74.703 E40.27416
G1 X25.853 Y74.433 E40.36242
G1 X28.541 Y74.081 E40.45259
G1 X28.681 Y74.059 E40.4573
G1 X28.77 Y74.045 E40.4603
G1 X29.765 Y73.903 E40.49373
G1 X30.433 Y73.848 E40.51602
G1 X31.573 Y73.823 E40.55395
G1 X31.688 Y73.822 E40.55777
G1 X37.091 Y73.814 E40.73748
G1 X37.113 Y73.814 E40.73821
G1 X41.917 Y73.826 E40.89799
G1 X143.998 Y73.826 E44.29322
G1 X193.084 Y73.827 E45.92583
G1 X197.886 Y73.813 E46.08554
G1 X197.911 Y73.813 E46.08637
G1 X203.81 Y73.823 E46.28258
G1 X203.885 Y73.824 E46.28507
G1 X204.551 Y73.834 E46.30722
G1 X205.267 Y73.89 E46.33111
G1 X208.065 Y74.294 E46.42514
G1 X210.688 Y74.596 E46.51296
G1 X213.342 Y74.827 E46.60156
G1 X216.026 Y74.983 E46.69098
G1 X217.028 Y75.009 E46.72432
G1 X217.105 Y75.011 E46.72688
G1 X218.506 Y75.067 E46.77352
G1 X219.171 Y75.134 E46.79575
G1 X219.824 Y75.28 E46.818
G1 X220.455 Y75.502 E46.84025
G1 X221.055 Y75.798 E46.8625
G1 X221.616 Y76.163 E46.88476
G1 X222.129 Y76.593 E46.90703
G1 X222.586 Y77.081 E46.92926
G1 X223.013 Y77.667 E46.95338
G1 X223.196 Y77.956 E46.96476
G1 X223.52 Y78.542 E46.98703
G1 X223.727 Y79.035 E47.00481
G1 X223.899 Y79.507 E47.02152
G1 X224.09 Y80.148 E47.04377
G1 X224.203 Y80.807 E47.06601
G1 X224.236 Y81.301 E47.08247
G1 X224.251 Y81.983 E47.10516
G1 X224.252 Y82.094 E47.10885
G1 X224.259 Y85.324 E47.21628
G1 X224.259 Y158.7 E49.65678
G1 X224.258 Y158.776 E49.65931
G1 X224.246 Y159.664 E49.68884
G1 X224.238 Y159.914 E49.69716
G1 X224.218 Y160.257 E49.70859
G1 X224.139 Y160.921 E49.73083
G1 X223.981 Y161.572 E49.75311
G1 X223.747 Y162.198 E49.77534
G1 X223.44 Y162.793 E49.79761
G1 X223.065 Y163.346 E49.81983
G1 X222.626 Y163.851 E49.84209
G1 X222.13 Y164.3 E49.86434
G1 X221.584 Y164.687 E49.8866
G1 X220.995 Y165.005 E49.90886
G1 X220.373 Y165.252 E49.93112
G1 X219.726 Y165.422 E49.95337
G1 X219.064 Y165.514 E49.9756
G1 X218.707 Y165.53 E49.98749
G1 X218.004 Y165.54 E50.01087
G1 X217.924 Y165.541 E50.01353
G1 X17.07 Y165.541 E56.69396
G1 X16.989 Y165.54 E56.69666
G1 X16.3 Y165.53 E56.71958
G1 X15.633 Y165.481 E56.74182
G1 X14.976 Y165.352 E56.76409
G1 X14.34 Y165.146 E56.78633
G1 X13.732 Y164.865 E56.8086
G1 X13.163 Y164.514 E56.83084
G1 X12.639 Y164.097 E56.85311
G1 X12.169 Y163.621 E56.87536
G1 X11.759 Y163.093 E56.8976
G1 X11.415 Y162.519 E56.91985
G1 X11.142 Y161.908 E56.94211
G1 X10.943 Y161.269 E56.96437
G1 X10.822 Y160.611 E56.98662
G1 X10.783 Y160.063 E57.0049
G1 X10.76 Y159.086 E57.0374
G1 X10.758 Y158.986 E57.04073
G1 X10.741 Y155.997 E57.14014
G1 X10.741 Y82.528 E59.58373
G1 X10.742 Y82.453 E59.58623
G1 X10.754 Y81.558 E59.616
G1 X10.758 Y81.401 E59.62122
G1 X10.769 Y81.136 E59.63004
G1 X10.836 Y80.47 E59.65231
G1 X10.983 Y79.817 E59.67457
G1 X11.166 Y79.286 E59.69325
G1 X11.311 Y78.924 E59.70622
G1 X11.647 Y78.228 E59.73192
G1 X11.831 Y77.906 E59.74426
G1 X12.197 Y77.346 E59.76651
G1 X12.627 Y76.833 E59.78877
G1 X13.115 Y76.376 E59.81101
G1 X13.655 Y75.98 E59.83328
G1 X14.237 Y75.651 E59.85552
G1 X14.855 Y75.394 E59.87778
G1 X15.499 Y75.213 E59.90003
G0 F3600 X15.745 Y75.571
G1 F1800 X16.448 Y75.49 E59.92357
G1 X17.807 Y75.426 E59.96882
G1 X17.817 Y75.425 E59.96915
G1 X20.572 Y75.3 E60.06088
G1 X23.248 Y75.102 E60.15012
G1 X25.909 Y74.83 E60.23909
G1 X28.584 Y74.479 E60.32882
G1 X28.744 Y74.454 E60.33421
G1 X28.826 Y74.441 E60.33697
G1 X29.821 Y74.299 E60.3704
G1 X30.442 Y74.248 E60.39113
G1 X31.582 Y74.223 E60.42905
G1 X31.688 Y74.222 E60.43258
G1 X37.091 Y74.214 E60.61228
G1 X37.112 Y74.214 E60.61298
G1 X41.916 Y74.226 E60.77276
G1 X143.998 Y74.226 E64.16802
G1 X193.085 Y74.227 E65.80066
G1 X197.887 Y74.213 E65.96038
G1 X197.911 Y74.213 E65.96118
G1 X203.81 Y74.223 E66.15738
G1 X203.879 Y74.224 E66.15967
G1 X204.545 Y74.234 E66.18183
G1 X205.209 Y74.286 E66.20398
G1 X207.99 Y74.687 E66.29743
G1 X210.683 Y74.998 E66.3876
G1 X213.318 Y75.227 E66.47557
G1 X215.993 Y75.382 E66.56469
G1 X217.017 Y75.409 E66.59876
G1 X217.089 Y75.411 E66.60116
G1 X218.49 Y75.467 E66.64779
G1 X219.131 Y75.533 E66.66922
G1 X219.759 Y75.677 E66.69065
G1 X220.365 Y75.898 E66.71211
G1 X220.938 Y76.193 E66.73354
G1 X221.471 Y76.556 E66.75499
G1 X221.955 Y76.982 E66.77644
G1 X222.382 Y77.465 E66.79788
G1 X222.675 Y77.881 E66.8148
G1 X222.858 Y78.17 E66.82618
G1 X223.169 Y78.735 E66.84763
G1 X223.351 Y79.172 E66.86337
G1 X223.523 Y79.644 E66.88008
G1 X223.705 Y80.262 E66.90151
G1 X223.81 Y80.898 E66.92295
G1 X223.836 Y81.31 E66.93668
G1 X223.851 Y81.992 E66.95937
G1 X223.852 Y82.095 E66.9628
G1 X223.859 Y85.325 E67.07023
G1 X223.859 Y158.77 E69.51302
G1 X223.847 Y159.658 E69.54255
G1 X223.838 Y159.891 E69.55031
G1 X223.818 Y160.234 E69.56174
G1 X223.741 Y160.874 E69.58318
G1 X223.585 Y161.499 E69.6046
G1 X223.353 Y162.101 E69.62606
G1 X223.048 Y162.669 E69.6475
G1 X222.675 Y163.195 E69.66895
G1 X222.24 Y163.671 E69.6904
G1 X221.75 Y164.089 E69.71182
G1 X221.211 Y164.443 E69.73327
G1 X220.633 Y164.728 E69.7547
G1 X220.024 Y164.94 E69.77615
G1 X219.394 Y165.074 E69.79757
G1 X218.701 Y165.13 E69.8207
G1 X217.998 Y165.14 E69.84408
G1 X217.924 Y165.141 E69.84654
G1 X17.07 Y165.141 E76.52697
G1 X16.995 Y165.14 E76.52947
G1 X16.306 Y165.13 E76.55239
G1 X15.663 Y165.081 E76.57383
G1 X15.031 Y164.953 E76.59528
G1 X14.42 Y164.747 E76.61673
G1 X13.839 Y164.467 E76.63818
G1 X13.297 Y164.118 E76.65962
G1 X12.803 Y163.704 E76.68106
G1 X12.364 Y163.233 E76.70247
G1 X11.986 Y162.71 E76.72394
G1 X11.676 Y162.145 E76.74537
G1 X11.438 Y161.546 E76.76681
G1 X11.276 Y160.922 E76.78825
G1 X11.182 Y160.053 E76.81732
G1 X11.159 Y159.076 E76.84983
G1 X11.158 Y158.984 E76.85289
G1 X11.141 Y155.995 E76.9523
G1 X11.141 Y82.458 E79.39815
G1 X11.153 Y81.563 E79.42792
G1 X11.157 Y81.417 E79.43278
G1 X11.168 Y81.152 E79.4416
G1 X11.235 Y80.511 E79.46304
G1 X11.381 Y79.883 E79.48448
G1 X11.537 Y79.434 E79.50029
G1 X11.682 Y79.072 E79.51326
G1 X11.994 Y78.426 E79.53712
G1 X12.178 Y78.104 E79.54946
G1 X12.532 Y77.565 E79.57091
G1 X12.95 Y77.074 E79.59235
G1 X13.425 Y76.639 E79.61378
G1 X13.951 Y76.266 E79.63522
G1 X14.519 Y75.96 E79.65668
G1 X15.12 Y75.728 E79.67811
G1 X15.745 Y75.571 E79.69954
G1 F3600 E71.69954
G0 F3600 X22.758 Y80.025
G0 X28.046 Y83.384
G0 X29.484 Y84.298
;TYPE:SUPPORT
G1 F3600 E79.69954
G1 F1800 X40.453 Y84.299 E80.06437
G1 X205.516 Y84.298 E85.55439
G1 X205.515 Y88.253 E85.68593
G1 X205.516 Y154.14 E87.87734
G1 X194.547 Y154.139 E88.24217
G1 X29.484 Y154.14 E93.73219
G1 X29.485 Y150.185 E93.86374
G1 X29.484 Y84.298 E96.05515
G0 F3600 X32.11 Y87.323
G1 F1800 X32.11 Y151.115 E98.17688
G1 X32.509 Y151.514 E98.19565
G1 X202.491 Y151.514 E103.84927
G1 X202.89 Y151.115 E103.86804
G1 X202.89 Y87.323 E105.98977
G1 X202.491 Y86.924 E106.00854
G1 X32.509 Y86.924 E111.66216
G1 X32.11 Y87.323 E111.68093
G0 F3600 X32.004 Y87.202
G1 F1800 X32.004 Y84.459 E111.77216
G0 F3600 X29.643 Y85.344
G1 F1800 X205.355 Y85.344 E117.61636
G0 F3600 X205.355 Y88.011
G1 F1800 X203.05 Y88.011 E117.69303
G0 F3600 X202.692 Y86.898
G1 F1800 X202.692 Y84.458 E117.77418
G0 F3600 X200.025 Y84.458
G1 F1800 X200.025 Y86.764 E117.85088
G0 F3600 X197.358 Y86.764
G1 F1800 X197.358 Y84.458 E117.92758
G0 F3600 X194.691 Y84.458
G1 F1800 X194.691 Y86.764 E118.00428
G0 F3600 X192.024 Y86.764
G1 F1800 X192.024 Y84.458 E118.08098
G0 F3600 X189.357 Y84.458
G1 F1800 X189.357 Y86.764 E118.15767
G0 F3600 X186.69 Y86.764
G1 F1800 X186.69 Y84.458 E118.23437
G0 F3600 X184.023 Y84.458
G1 F1800 X184.023 Y86.764 E118.31107
G0 F3600 X181.356 Y86.764
G1 F1800 X181.356 Y84.458 E118.38777
G0 F3600 X178.689 Y84.458
G1 F1800 X178.689 Y86.764 E118.46447
G0 F3600 X176.022 Y86.764
G1 F1800 X176.022 Y84.458 E118.54116
G0 F3600 X173.355 Y84.458
G1 F1800 X173.355 Y86.764 E118.61786
G0 F3600 X170.688 Y86.764
G1 F1800 X170.688 Y84.458 E118.69456
G0 F3600 X168.021 Y84.458
G1 F1800 X168.021 Y86.764 E118.77126
G0 F3600 X165.354 Y86.764
G1 F1800 X165.354 Y84.458 E118.84795
G0 F3600 X162.687 Y84.458
G1 F1800 X162.687 Y86.764 E118.92465
G0 F3600 X160.02 Y86.764
G1 F1800 X160.02 Y84.458 E119.00135
G0 F3600 X157.353 Y84.458
G1 F1800 X157.353 Y86.764 E119.07805
G0 F3600 X154.686 Y86.764
G1 F1800 X154.686 Y84.458 E119.15475
G0 F3600 X152.019 Y84.458
G1 F1800 X152.019 Y86.764 E119.23144
G0 F3600 X149.352 Y86.764
G1 F1800 X149.352 Y84.458 E119.30814
G0 F3600 X146.685 Y84.458
G1 F1800 X146.685 Y86.764 E119.38484
G0 F3600 X144.018 Y86.764
G1 F1800 X144.018 Y84.458 E119.46154
G0 F3600 X141.351 Y84.458
G1 F1800 X141.351 Y86.764 E119.53824
G0 F3600 X138.684 Y86.764
G1 F1800 X138.684 Y84.458 E119.61493
G0 F3600 X136.017 Y84.458
G1 F1800 X136.017 Y86.764 E119.69163
G0 F3600 X133.35 Y86.764
G1 F1800 X133.35 Y84.458 E119.76833
G0 F3600 X130.683 Y84.458
G1 F1800 X130.683 Y86.764 E119.84503
G0 F3600 X128.016 Y86.764
