;FLAVOR:Marlin
;TIME:5300
;Filament used: 3.48428m
;Layer height: 0.2
;MINX:62.622
;MINY:36.907
;MINZ:0.2
;MAXX:169.283
;MAXY:99.511
;MAXZ:7.8
;Generated with Cura_SteamEngine 4.5.0
M82 ;absolute extrusion mode
; Ender 3 Custom Start G-code
M117 Getting the bed up to temp!
M140 S60.0 ; Set Heat Bed temperature
M190 S60.0 ; Wait for Heat Bed temperature
M117 Pre-heating the extruder!
M104 S190.0/2
G28 ; Home all axes
M420 S1; Auto bed-level (BL-Touch)
G92 E0 ; Reset Extruder
M117 Getting the extruder up to temp!
M104 S190.0 ; Set Extruder temperature
M109 S190.0 ; Wait for Extruder temperature
G1 Z1.0 F3000 ; move z up little to prevent scratching of surface
G1 X0.1 Y20 Z0.3 F5000.0 ; move to start-line position
M117 LET THE PURGE BEGIN!
G1 X0.1 Y200.0 Z0.3 F1500.0 E15 ; draw 1st line
G1 X0.4 Y200.0 Z0.3 F5000.0 ; move to side a little
G1 X0.4 Y20 Z0.3 F1500.0 E30 ; draw 2nd line
G92 E0 ; reset extruder
G1 Z1.0 F3000 ; move z up little to prevent scratching of surface
M117 Autobots! Roll Out!
G92 E0
G92 E0
G1 F3600 E-6
;LAYER_COUNT:39
;LAYER:0
M107
G0 F6000 X64.514 Y42.02 Z0.2
;TYPE:SKIRT
G1 F3600 E0
G1 F1200 X65.059 Y41.258 E0.03116
G1 X65.668 Y40.544 E0.06237
G1 X66.336 Y39.886 E0.09356
G1 X67.057 Y39.286 E0.12476
G1 X67.739 Y38.806 E0.15249
G1 X68.542 Y38.321 E0.1837
G1 X69.383 Y37.907 E0.21487
G1 X70.257 Y37.565 E0.24609
G1 X71.156 Y37.3 E0.27726
G1 X72.075 Y37.112 E0.30846
G1 X73.006 Y37.003 E0.33964
G1 X73.64 Y36.974 E0.36075
G1 X74.412 Y36.963 E0.38643
G1 X77.626 Y36.956 E0.49332
G1 X84.445 Y36.961 E0.72013
G1 X85.667 Y36.98 E0.76077
G1 X87.641 Y37.036 E0.82646
G1 X90.149 Y37.038 E0.90987
G1 X92.913 Y36.957 E1.00184
G1 X93.708 Y36.926 E1.02831
G1 X94.481 Y36.915 E1.05402
G1 X97.687 Y36.907 E1.16065
G1 X104.509 Y36.913 E1.38755
G1 X105.207 Y36.923 E1.41077
G1 X106.438 Y37.01 E1.45181
G1 X107.477 Y37.142 E1.48665
G1 X110.061 Y37.437 E1.57315
G1 X112.572 Y37.652 E1.65697
G1 X115.05 Y37.793 E1.73953
G1 X118.926 Y37.878 E1.86847
G1 X123.78 Y37.882 E2.02992
G1 X126.362 Y37.847 E2.1158
G1 X128.993 Y37.738 E2.20339
G1 X129.845 Y37.692 E2.23176
G1 X130.222 Y37.678 E2.24431
G1 X131.464 Y37.655 E2.28563
G1 X134.452 Y37.648 E2.38501
G1 X144.16 Y37.659 E2.7079
G1 X145.335 Y37.626 E2.747
G1 X147.125 Y37.598 E2.80654
G1 X150.332 Y37.59 E2.9132
G1 X157.152 Y37.596 E3.14004
G1 X157.852 Y37.606 E3.16332
G1 X158.788 Y37.659 E3.1945
G1 X159.717 Y37.792 E3.22572
G1 X160.631 Y38.004 E3.25692
G1 X161.523 Y38.293 E3.28811
G1 X162.387 Y38.656 E3.31928
G1 X163.218 Y39.092 E3.35049
G1 X164.008 Y39.597 E3.38168
G1 X164.753 Y40.168 E3.4129
G1 X165.446 Y40.799 E3.44407
G1 X166.082 Y41.488 E3.47526
G1 X166.658 Y42.228 E3.50645
G1 X167.169 Y43.015 E3.53766
G1 X167.61 Y43.842 E3.56883
G1 X167.98 Y44.704 E3.60003
G1 X168.275 Y45.595 E3.63125
G1 X168.493 Y46.507 E3.66243
G1 X168.633 Y47.434 E3.69362
G1 X168.69 Y48.283 E3.72192
G1 X168.703 Y48.877 E3.74168
G1 X168.703 Y61.86 E4.17349
G1 X168.694 Y62.492 E4.19452
G1 X168.694 Y65.063 E4.28003
G1 X168.766 Y67.594 E4.36424
G1 X168.909 Y70.134 E4.44886
G1 X169.123 Y72.647 E4.53274
G1 X169.2 Y73.374 E4.55706
G1 X169.251 Y74.035 E4.57911
G1 X169.272 Y74.494 E4.59439
G1 X169.283 Y74.996 E4.61109
G1 X169.283 Y87.926 E5.04115
G1 X169.273 Y88.653 E5.06533
G1 X169.22 Y89.59 E5.09654
G1 X169.088 Y90.518 E5.12772
G1 X168.877 Y91.432 E5.15892
G1 X168.588 Y92.324 E5.1901
G1 X168.225 Y93.189 E5.22131
G1 X167.79 Y94.02 E5.2525
G1 X167.285 Y94.81 E5.28369
G1 X166.715 Y95.555 E5.31489
G1 X166.084 Y96.249 E5.34608
G1 X165.395 Y96.886 E5.37729
G1 X164.655 Y97.462 E5.40848
G1 X163.869 Y97.973 E5.43967
G1 X163.042 Y98.415 E5.47085
G1 X162.18 Y98.785 E5.50205
G1 X161.29 Y99.08 E5.53324
G1 X160.378 Y99.299 E5.56443
G1 X159.451 Y99.439 E5.59562
G1 X158.578 Y99.498 E5.62472
G1 X157.949 Y99.511 E5.64564
G1 X147.586 Y99.51 E5.99032
G1 X146.927 Y99.5 E6.01224
G1 X146.612 Y99.49 E6.02272
G1 X146.111 Y99.468 E6.0394
G1 X143.509 Y99.392 E6.12598
G1 X141.122 Y99.385 E6.20537
G1 X130.856 Y99.384 E6.54682
G1 X128.676 Y99.345 E6.61934
G1 X126.127 Y99.338 E6.70412
G1 X124.246 Y99.374 E6.76669
G1 X113.868 Y99.374 E7.11187
G1 X113.204 Y99.364 E7.13395
G1 X111.805 Y99.253 E7.18063
G1 X109.004 Y98.85 E7.27475
G1 X106.514 Y98.566 E7.35811
G1 X103.98 Y98.348 E7.4427
G1 X101.463 Y98.204 E7.52655
G1 X98.958 Y98.131 E7.6099
G1 X97.561 Y98.121 E7.65637
G1 X96.694 Y98.121 E7.68521
G1 X93.127 Y98.115 E7.80385
G1 X91.861 Y98.118 E7.84595
G1 X89.294 Y98.181 E7.93136
G1 X86.754 Y98.315 E8.01596
G1 X86.094 Y98.364 E8.03797
G1 X85.361 Y98.402 E8.06238
G1 X84.732 Y98.416 E8.08331
G1 X74.35 Y98.415 E8.42861
G1 X73.708 Y98.405 E8.44997
G1 X72.771 Y98.35 E8.48119
G1 X71.843 Y98.216 E8.51237
G1 X70.93 Y98.003 E8.54355
G1 X70.038 Y97.714 E8.57474
G1 X69.174 Y97.349 E8.60594
G1 X68.344 Y96.912 E8.63714
G1 X67.715 Y96.518 E8.66182
G1 X66.956 Y95.968 E8.693
G1 X66.245 Y95.356 E8.7242
G1 X65.59 Y94.685 E8.75539
G1 X64.993 Y93.961 E8.7866
G1 X64.461 Y93.189 E8.81778
G1 X63.997 Y92.374 E8.84897
G1 X63.603 Y91.523 E8.88016
G1 X63.284 Y90.641 E8.91136
G1 X63.002 Y89.555 E8.94868
G1 X62.924 Y89.176 E8.96155
G1 X62.774 Y88.251 E8.99271
G1 X62.706 Y87.378 E9.02184
G1 X62.687 Y86.88 E9.03841
G1 X62.679 Y86.461 E9.05235
G1 X62.681 Y74.99 E9.43388
G1 X62.71 Y73.573 E9.48102
G1 X62.733 Y73.04 E9.49876
G1 X62.837 Y70.457 E9.58474
G1 X62.868 Y67.964 E9.66767
G1 X62.827 Y65.43 E9.75196
G1 X62.696 Y62.562 E9.84745
G1 X62.638 Y61.545 E9.88133
G1 X62.627 Y61.189 E9.89318
G1 X62.622 Y60.849 E9.90449
G1 X62.624 Y49.362 E10.28655
G1 X62.649 Y48.127 E10.32763
G1 X62.708 Y47.191 E10.35882
G1 X62.847 Y46.264 E10.39
G1 X62.956 Y45.762 E10.40709
G1 X63.032 Y45.448 E10.41783
G1 X63.291 Y44.547 E10.44901
G1 X63.626 Y43.671 E10.48021
G1 X64.035 Y42.827 E10.5114
G1 X64.514 Y42.02 E10.54261
G0 F6000 X64.886 Y42.183
G1 F1200 X65.427 Y41.438 E10.57324
G1 X66.031 Y40.743 E10.60386
G1 X66.693 Y40.103 E10.63449
G1 X67.407 Y39.523 E10.66508
G1 X67.96 Y39.139 E10.68747
G1 X68.748 Y38.664 E10.71808
G1 X69.575 Y38.259 E10.7487
G1 X70.434 Y37.928 E10.77932
G1 X71.318 Y37.672 E10.80993
G1 X72.222 Y37.494 E10.84058
G1 X73.137 Y37.395 E10.87119
G1 X73.647 Y37.374 E10.88816
G1 X74.413 Y37.363 E10.91364
G1 X77.627 Y37.356 E11.02054
G1 X84.439 Y37.361 E11.24711
G1 X85.655 Y37.38 E11.28756
G1 X87.628 Y37.436 E11.35321
G1 X90.127 Y37.438 E11.43633
G1 X93.005 Y37.354 E11.53209
G1 X93.714 Y37.326 E11.55569
G1 X94.482 Y37.315 E11.58124
G1 X97.688 Y37.307 E11.68787
G1 X104.503 Y37.313 E11.91454
G1 X105.201 Y37.323 E11.93775
G1 X106.387 Y37.407 E11.9773
G1 X107.374 Y37.533 E12.01039
G1 X110.018 Y37.835 E12.0989
G1 X112.551 Y38.051 E12.18346
G1 X115.046 Y38.193 E12.26658
G1 X118.918 Y38.278 E12.39539
G1 X123.786 Y38.282 E12.5573
G1 X126.382 Y38.247 E12.64365
G1 X129.034 Y38.137 E12.73193
G1 X129.867 Y38.092 E12.75968
G1 X130.23 Y38.078 E12.77176
G1 X131.465 Y38.055 E12.81285
G1 X134.453 Y38.048 E12.91223
G1 X144.171 Y38.059 E13.23545
G1 X145.342 Y38.026 E13.27441
G1 X147.126 Y37.998 E13.33376
G1 X150.333 Y37.99 E13.44042
G1 X157.146 Y37.996 E13.66702
G1 X157.846 Y38.006 E13.69031
G1 X158.766 Y38.059 E13.72096
G1 X159.677 Y38.192 E13.75158
G1 X160.573 Y38.403 E13.7822
G1 X161.447 Y38.691 E13.8128
G1 X162.293 Y39.054 E13.84342
G1 X163.105 Y39.489 E13.87406
G1 X163.875 Y39.993 E13.90467
G1 X164.599 Y40.562 E13.9353
G1 X165.271 Y41.191 E13.96591
G1 X165.886 Y41.877 E13.99655
G1 X166.439 Y42.613 E14.02717
G1 X166.926 Y43.394 E14.05778
G1 X167.343 Y44.215 E14.08841
G1 X167.688 Y45.068 E14.11902
G1 X167.957 Y45.949 E14.14965
G1 X168.149 Y46.849 E14.18026
G1 X168.261 Y47.763 E14.21089
G1 X168.29 Y48.295 E14.22861
G1 X168.303 Y48.877 E14.24797
G1 X168.303 Y61.854 E14.67959
G1 X168.294 Y62.486 E14.70061
G1 X168.294 Y65.074 E14.78669
G1 X168.366 Y67.629 E14.8717
G1 X168.507 Y70.121 E14.95472
G1 X168.728 Y72.721 E15.04151
G1 X168.802 Y73.416 E15.06475
G1 X168.851 Y74.054 E15.08603
G1 X168.872 Y74.513 E15.10132
G1 X168.883 Y74.996 E15.11739
G1 X168.883 Y87.921 E15.54727
G1 X168.873 Y88.648 E15.57146
G1 X168.82 Y89.567 E15.60207
G1 X168.688 Y90.478 E15.63269
G1 X168.477 Y91.374 E15.6633
G1 X168.19 Y92.249 E15.69393
G1 X167.827 Y93.095 E15.72455
G1 X167.393 Y93.907 E15.75517
G1 X166.889 Y94.678 E15.78581
G1 X166.321 Y95.402 E15.81642
G1 X165.692 Y96.074 E15.84703
G1 X165.007 Y96.689 E15.87765
G1 X164.271 Y97.242 E15.90827
G1 X163.49 Y97.73 E15.9389
G1 X162.67 Y98.148 E15.96951
G1 X161.816 Y98.493 E16.00015
G1 X160.936 Y98.762 E16.03075
G1 X160.035 Y98.955 E16.0614
G1 X159.122 Y99.068 E16.092
G1 X158.567 Y99.098 E16.11048
G1 X157.949 Y99.111 E16.13104
G1 X147.592 Y99.11 E16.47552
G1 X146.63 Y99.091 E16.50752
G1 X146.072 Y99.067 E16.5261
G1 X143.522 Y98.992 E16.61095
G1 X141.124 Y98.985 E16.69071
G1 X130.862 Y98.984 E17.03202
G1 X128.689 Y98.945 E17.10431
G1 X126.12 Y98.938 E17.18975
G1 X124.246 Y98.974 E17.25209
G1 X113.874 Y98.974 E17.59707
G1 X113.21 Y98.964 E17.61915
G1 X111.862 Y98.857 E17.66413
G1 X109.073 Y98.456 E17.75785
G1 X106.518 Y98.164 E17.84338
G1 X104.039 Y97.951 E17.92614
G1 X101.498 Y97.806 E18.01079
G1 X98.927 Y97.731 E18.09634
G1 X97.564 Y97.721 E18.14167
G1 X96.694 Y97.721 E18.17061
G1 X93.126 Y97.715 E18.28928
G1 X91.85 Y97.718 E18.33172
G1 X89.263 Y97.782 E18.41779
G1 X86.742 Y97.915 E18.50175
G1 X86.07 Y97.965 E18.52417
G1 X85.35 Y98.003 E18.54815
G1 X84.732 Y98.016 E18.56871
G1 X74.356 Y98.015 E18.91381
G1 X73.714 Y98.005 E18.93517
G1 X72.795 Y97.95 E18.96579
G1 X71.884 Y97.817 E18.99641
G1 X70.988 Y97.604 E19.02704
G1 X70.114 Y97.315 E19.05766
G1 X69.269 Y96.951 E19.08826
G1 X68.458 Y96.515 E19.11889
G1 X67.936 Y96.184 E19.13945
G1 X67.19 Y95.644 E19.17008
G1 X66.494 Y95.041 E19.2007
G1 X65.853 Y94.38 E19.23133
G1 X65.272 Y93.666 E19.26195
G1 X64.755 Y92.905 E19.29254
G1 X64.306 Y92.101 E19.32317
G1 X63.929 Y91.261 E19.3538
G1 X63.625 Y90.392 E19.38442
G1 X63.394 Y89.475 E19.41587
G1 X63.316 Y89.096 E19.42874
G1 X63.169 Y88.187 E19.45937
G1 X63.106 Y87.363 E19.48685
G1 X63.087 Y86.865 E19.50343
G1 X63.079 Y86.461 E19.51687
G1 X63.081 Y74.998 E19.89813
G1 X63.11 Y73.581 E19.94527
G1 X63.132 Y73.076 E19.96208
G1 X63.237 Y70.478 E20.04856
G1 X63.268 Y67.962 E20.13225
G1 X63.226 Y65.405 E20.21731
G1 X63.099 Y62.6 E20.3107
G1 X63.038 Y61.532 E20.34628
G1 X63.027 Y61.176 E20.35812
G1 X63.022 Y60.849 E20.369
G1 X63.024 Y49.37 E20.75079
G1 X63.049 Y48.135 E20.79188
G1 X63.108 Y47.217 E20.82247
G1 X63.246 Y46.306 E20.85312
G1 X63.344 Y45.856 E20.86844
G1 X63.42 Y45.542 E20.87918
G1 X63.676 Y44.658 E20.90979
G1 X64.007 Y43.799 E20.94041
G1 X64.411 Y42.972 E20.97102
G1 X64.886 Y42.183 E21.00165
G0 F6000 X65.257 Y42.346
G1 F1200 X65.794 Y41.62 E21.03169
G1 X66.392 Y40.944 E21.06171
G1 X67.048 Y40.323 E21.09175
G1 X68.086 Y39.535 E21.1351
G1 X68.181 Y39.472 E21.13889
G1 X68.955 Y39.007 E21.16892
G1 X69.767 Y38.612 E21.19895
G1 X70.611 Y38.29 E21.229
G1 X71.48 Y38.045 E21.25903
G1 X72.367 Y37.877 E21.28906
G1 X73.653 Y37.774 E21.33196
G1 X74.414 Y37.763 E21.35728
G1 X77.628 Y37.756 E21.46418
G1 X84.433 Y37.761 E21.69051
G1 X85.644 Y37.78 E21.73079
G1 X87.617 Y37.836 E21.79644
G1 X90.137 Y37.838 E21.88026
G1 X92.973 Y37.755 E21.97463
G1 X93.721 Y37.726 E21.99952
G1 X94.483 Y37.715 E22.02487
G1 X97.689 Y37.707 E22.1315
G1 X104.497 Y37.713 E22.35794
G1 X105.195 Y37.723 E22.38115
G1 X106.337 Y37.804 E22.41923
G1 X107.357 Y37.934 E22.45343
G1 X109.975 Y38.233 E22.54107
G1 X112.53 Y38.451 E22.62636
G1 X114.986 Y38.591 E22.70818
G1 X118.956 Y38.678 E22.84026
G1 X123.79 Y38.682 E23.00104
G1 X126.405 Y38.647 E23.08802
G1 X128.995 Y38.54 E23.17424
G1 X129.889 Y38.491 E23.20402
G1 X130.238 Y38.478 E23.21563
G1 X131.466 Y38.455 E23.25648
G1 X134.454 Y38.448 E23.35586
G1 X144.182 Y38.459 E23.67942
G1 X145.349 Y38.426 E23.71825
G1 X147.127 Y38.398 E23.77739
G1 X150.334 Y38.39 E23.88406
G1 X157.141 Y38.396 E24.11046
G1 X157.841 Y38.406 E24.13374
G1 X158.742 Y38.459 E24.16376
G1 X159.636 Y38.591 E24.19382
G1 X160.514 Y38.802 E24.22385
G1 X161.37 Y39.09 E24.25389
G1 X162.197 Y39.452 E24.28392
G1 X162.989 Y39.886 E24.31396
G1 X163.739 Y40.389 E24.34399
G1 X164.442 Y40.956 E24.37403
G1 X165.093 Y41.582 E24.40407
G1 X165.685 Y42.264 E24.43411
G1 X166.214 Y42.996 E24.46415
G1 X166.677 Y43.771 E24.49417
G1 X167.069 Y44.585 E24.52422
G1 X167.388 Y45.43 E24.55426
G1 X167.631 Y46.3 E24.58431
G1 X167.796 Y47.188 E24.61435
G1 X167.891 Y48.306 E24.65167
G1 X167.903 Y48.877 E24.67066
G1 X167.903 Y61.848 E25.10208
G1 X167.894 Y62.48 E25.1231
G1 X167.894 Y65.085 E25.20974
G1 X167.966 Y67.626 E25.29429
G1 X168.11 Y70.178 E25.37931
G1 X168.324 Y72.702 E25.46356
G1 X168.405 Y73.458 E25.48885
G1 X168.451 Y74.072 E25.50932
G1 X168.472 Y74.531 E25.52461
G1 X168.483 Y74.996 E25.54008
G1 X168.483 Y87.915 E25.96976
G1 X168.473 Y88.642 E25.99395
G1 X168.421 Y89.544 E26.024
G1 X168.289 Y90.437 E26.05402
G1 X168.078 Y91.316 E26.08409
G1 X167.791 Y92.172 E26.11412
G1 X167.429 Y92.999 E26.14414
G1 X166.995 Y93.791 E26.17418
G1 X166.493 Y94.542 E26.20422
G1 X165.927 Y95.245 E26.23424
G1 X165.3 Y95.896 E26.2643
G1 X164.619 Y96.488 E26.29432
G1 X163.888 Y97.018 E26.32435
G1 X163.112 Y97.481 E26.3544
G1 X162.299 Y97.874 E26.38444
G1 X161.454 Y98.194 E26.41449
G1 X160.585 Y98.437 E26.4445
G1 X159.697 Y98.602 E26.47454
G1 X158.556 Y98.698 E26.51263
G1 X157.949 Y98.711 E26.53282
G1 X147.598 Y98.71 E26.8771
G1 X146.647 Y98.691 E26.90873
G1 X146.168 Y98.67 E26.92468
G1 X143.497 Y98.592 E27.01355
G1 X141.125 Y98.585 E27.09245
G1 X130.868 Y98.584 E27.4336
G1 X128.702 Y98.545 E27.50565
G1 X126.113 Y98.538 E27.59176
G1 X124.246 Y98.574 E27.65387
G1 X113.88 Y98.574 E27.99864
G1 X113.216 Y98.564 E28.02073
G1 X111.919 Y98.461 E28.06401
G1 X109.105 Y98.057 E28.15856
G1 X106.601 Y97.771 E28.24238
G1 X104.025 Y97.549 E28.32838
G1 X101.533 Y97.406 E28.4114
G1 X98.941 Y97.331 E28.49765
G1 X97.567 Y97.321 E28.54335
G1 X96.695 Y97.321 E28.57235
G1 X93.126 Y97.315 E28.69106
G1 X91.84 Y97.318 E28.73383
G1 X89.267 Y97.381 E28.81943
G1 X86.689 Y97.517 E28.9053
G1 X86.047 Y97.566 E28.92671
G1 X85.338 Y97.603 E28.95032
G1 X84.732 Y97.616 E28.97048
G1 X74.362 Y97.615 E29.31539
G1 X73.72 Y97.605 E29.33675
G1 X72.819 Y97.551 E29.36677
G1 X71.925 Y97.417 E29.39684
G1 X71.048 Y97.205 E29.42685
G1 X70.192 Y96.916 E29.45689
G1 X69.365 Y96.553 E29.48693
G1 X68.259 Y95.918 E29.52935
G1 X68.156 Y95.85 E29.53346
G1 X67.425 Y95.32 E29.56349
G1 X66.744 Y94.727 E29.59352
G1 X66.118 Y94.076 E29.62356
G1 X65.552 Y93.372 E29.6536
G1 X65.051 Y92.621 E29.68363
G1 X64.618 Y91.829 E29.71365
G1 X64.256 Y91.001 E29.74371
G1 X63.97 Y90.144 E29.77376
G1 X63.785 Y89.394 E29.79945
G1 X63.707 Y89.015 E29.81232
G1 X63.565 Y88.123 E29.84236
G1 X63.505 Y87.348 E29.86822
G1 X63.486 Y86.85 E29.88479
G1 X63.479 Y86.461 E29.89773
G1 X63.481 Y75.006 E30.27873
G1 X63.51 Y73.589 E30.32587
G1 X63.637 Y70.463 E30.42992
G1 X63.668 Y67.961 E30.51315
G1 X63.626 Y65.38 E30.599
G1 X63.5 Y62.618 E30.69096
G1 X63.438 Y61.52 E30.72754
G1 X63.422 Y60.849 E30.74986
G1 X63.424 Y49.379 E31.13136
G1 X63.449 Y48.144 E31.17244
G1 X63.507 Y47.242 E31.20251
G1 X63.733 Y45.95 E31.24613
G1 X63.809 Y45.636 E31.25688
G1 X64.06 Y44.769 E31.2869
G1 X64.387 Y43.927 E31.31694
G1 X64.787 Y43.117 E31.34699
G1 X65.257 Y42.346 E31.37702
G1 F3600 E25.37702
;MESH:Object 3
G0 F6000 X72.969 Y48.292
G0 X74.041 Y48.595
G0 X74.804 Y60.607
G0 X83.996 Y60.789
;TYPE:WALL-INNER
G1 F3600 E31.37702
G1 F1200 X77.386 Y60.792 E31.59687
G1 X74.622 Y60.789 E31.6888
G1 X74.624 Y48.963 E32.08213
G1 X77.652 Y48.956 E32.18284
G1 X83.996 Y48.96 E32.39385
G1 X83.996 Y60.789 E32.78728
G0 F6000 X84.396 Y61.189
G1 F1200 X77.386 Y61.192 E33.02043
G1 X74.224 Y61.188 E33.1256
G1 X74.222 Y61.15 E33.12687
G1 X74.224 Y48.564 E33.54548
G1 X77.651 Y48.556 E33.65946
G1 X84.396 Y48.56 E33.8838
G1 X84.396 Y61.189 E34.30385
G0 F6000 X84.796 Y61.589
;TYPE:WALL-OUTER
G1 F1200 X77.386 Y61.592 E34.5503
G1 X73.871 Y61.588 E34.66721
G1 X73.862 Y61.566 E34.668
G1 X73.849 Y61.509 E34.66995
G1 X73.832 Y61.377 E34.67437
G1 X73.822 Y61.169 E34.6813
G1 X73.822 Y48.587 E35.09978
G1 X73.831 Y48.373 E35.1069
G1 X73.866 Y48.169 E35.11379
G1 X73.869 Y48.165 E35.11395
