;FLAVOR:Marlin
;TIME:15970
;Filament used: 11.7m
;Layer height: 0.24
;MINX:4.6
;MINY:87.374
;MINZ:0.2
;MAXX:230.4
;MAXY:147.431
;MAXZ:8.8
;Generated with Cura_SteamEngine 4.2.1
M140 S70
M105
M190 S70
M104 S210
M105
M109 S210
M82 ;absolute extrusion mode
; Ender 3 Custom Start G-code
G28 ; Home all axes
M420 S1
G92 E0 ; Reset Extruder
G1 Z2.0 F3000 ; Move Z Axis up little to prevent scratching of Heat Bed
G1 X0.1 Y20 Z0.3 F5000.0 ; Move to start position
G1 X0.1 Y200.0 Z0.3 F1500.0 E15 ; Draw the first line
G1 X0.4 Y200.0 Z0.3 F5000.0 ; Move to side a little
G1 X0.4 Y20 Z0.3 F1500.0 E30 ; Draw the second line
G92 E0 ; Reset Extruder
G1 Z2.0 F3000 ; Move Z Axis up little to prevent scratching of Heat Bed
G92 E0
G92 E0
G1 F3000 E-8
;LAYER_COUNT:36
;LAYER:0
M107
M204 S500
M205 X8 Y8
G0 F6000 X14.635 Y87.575 Z0.2
;TYPE:SKIRT
G1 F3000 E0
G1 F1200 X15.58 Y87.441 E0.03175
G1 X16.272 Y87.393 E0.05482
G1 X16.478 Y87.385 E0.06167
G1 X16.905 Y87.376 E0.07588
G1 X17.665 Y87.375 E0.10116
G1 X17.68 Y87.375 E0.10166
G1 X214.358 Y87.374 E6.64319
G1 X214.361 Y87.374 E6.64329
G1 X217.625 Y87.375 E6.75185
G1 X217.789 Y87.376 E6.75731
G1 X218.335 Y87.384 E6.77547
G1 X219.344 Y87.444 E6.80909
G1 X219.643 Y87.475 E6.81909
G1 X220.587 Y87.613 E6.85082
G1 X221.517 Y87.83 E6.88258
G1 X222.426 Y88.123 E6.91435
G1 X223.306 Y88.492 E6.94608
G1 X223.778 Y88.727 E6.96362
G1 X224.08 Y88.886 E6.97497
G1 X224.905 Y89.365 E7.0067
G1 X225.688 Y89.913 E7.03849
G1 X226.422 Y90.523 E7.07023
G1 X227.102 Y91.193 E7.10198
G1 X227.737 Y91.935 E7.13447
G1 X227.861 Y92.093 E7.14115
G1 X228.418 Y92.868 E7.17289
G1 X228.909 Y93.687 E7.20465
G1 X229.33 Y94.544 E7.23641
G1 X229.677 Y95.434 E7.26818
G1 X229.901 Y96.167 E7.29367
G1 X229.999 Y96.531 E7.30621
G1 X230.208 Y97.463 E7.33798
G1 X230.339 Y98.409 E7.36974
G1 X230.384 Y99.102 E7.39284
G1 X230.391 Y99.305 E7.3996
G1 X230.398 Y99.697 E7.41264
G1 X230.4 Y125.628 E8.2751
G1 X230.399 Y125.789 E8.28046
G1 X230.387 Y126.645 E8.30893
G1 X230.384 Y126.803 E8.31419
G1 X230.315 Y129.275 E8.39644
G1 X230.315 Y131.761 E8.47912
G1 X230.353 Y133.131 E8.52471
G1 X230.354 Y133.169 E8.52597
G1 X230.393 Y134.767 E8.57914
G1 X230.395 Y135.203 E8.59364
G1 X230.389 Y135.635 E8.60801
G1 X230.336 Y136.589 E8.63979
G1 X230.203 Y137.534 E8.67153
G1 X229.991 Y138.465 E8.70329
G1 X229.703 Y139.375 E8.73503
G1 X229.339 Y140.258 E8.7668
G1 X228.903 Y141.107 E8.79854
G1 X228.397 Y141.917 E8.83031
G1 X227.825 Y142.682 E8.86208
G1 X227.191 Y143.396 E8.89384
G1 X226.5 Y144.054 E8.92557
G1 X225.756 Y144.652 E8.95732
G1 X224.964 Y145.186 E8.98909
G1 X224.131 Y145.652 E9.02084
G1 X223.261 Y146.047 E9.05262
G1 X222.051 Y146.458 E9.09512
G1 X220.684 Y146.839 E9.14232
G1 X220.492 Y146.891 E9.14894
G1 X219.869 Y147.053 E9.17035
G1 X218.936 Y147.254 E9.20209
G1 X217.989 Y147.377 E9.23385
G1 X217.381 Y147.414 E9.25411
G1 X217.052 Y147.425 E9.26506
G1 X216.67 Y147.431 E9.27777
G1 X204.615 Y147.43 E9.67872
G1 X18.707 Y147.431 E15.86204
G1 X18.544 Y147.43 E15.86746
G1 X17.843 Y147.42 E15.89078
G1 X16.89 Y147.366 E15.92253
G1 X15.945 Y147.233 E15.95427
G1 X15.068 Y147.036 E15.98417
G1 X14.307 Y146.833 E16.01036
G1 X14.22 Y146.809 E16.01336
G1 X12.999 Y146.473 E16.05548
G1 X12.09 Y146.182 E16.08723
G1 X11.209 Y145.815 E16.11897
G1 X10.361 Y145.376 E16.15073
G1 X9.553 Y144.867 E16.18249
G1 X8.79 Y144.293 E16.21425
G1 X8.078 Y143.657 E16.246
G1 X7.422 Y142.963 E16.27777
G1 X6.826 Y142.217 E16.30952
G1 X6.295 Y141.424 E16.34127
G1 X5.832 Y140.589 E16.37302
G1 X5.44 Y139.718 E16.40479
G1 X5.123 Y138.818 E16.43653
G1 X4.882 Y137.894 E16.46829
G1 X4.719 Y136.953 E16.50005
G1 X4.625 Y135.659 E16.5432
G1 X4.613 Y134.888 E16.56885
G1 X4.616 Y134.392 E16.58535
G1 X4.685 Y131.929 E16.6673
G1 X4.685 Y129.421 E16.75072
G1 X4.647 Y128.086 E16.79514
G1 X4.645 Y128.038 E16.79673
G1 X4.603 Y126.301 E16.85452
G1 X4.6 Y126.025 E16.8637
G1 X4.6 Y100.164 E17.72385
G1 X4.601 Y99.998 E17.72937
G1 X4.611 Y99.311 E17.75222
G1 X4.665 Y98.358 E17.78397
G1 X4.799 Y97.412 E17.81574
G1 X5.009 Y96.486 E17.84733
G1 X5.102 Y96.144 E17.85911
G1 X5.391 Y95.234 E17.89087
G1 X5.755 Y94.351 E17.92264
G1 X6.192 Y93.502 E17.9544
G1 X6.698 Y92.692 E17.98616
G1 X7.27 Y91.928 E18.0179
G1 X8.042 Y91.074 E18.05619
G1 X8.295 Y90.821 E18.06809
G1 X8.998 Y90.175 E18.09985
G1 X9.752 Y89.59 E18.13159
G1 X10.553 Y89.07 E18.16335
G1 X11.394 Y88.618 E18.19511
G1 X12.271 Y88.239 E18.22688
G1 X13.346 Y87.887 E18.26451
G1 X13.704 Y87.789 E18.27685
G1 X14.635 Y87.575 E18.30863
G0 F6000 X14.724 Y87.966
G1 F1200 X15.653 Y87.835 E18.33983
G1 X16.287 Y87.792 E18.36097
G1 X16.493 Y87.784 E18.36782
G1 X16.906 Y87.776 E18.38156
G1 X17.666 Y87.775 E18.40684
G1 X17.68 Y87.775 E18.4073
G1 X214.358 Y87.774 E24.94884
G1 X214.361 Y87.774 E24.94894
G1 X217.625 Y87.775 E25.0575
G1 X217.783 Y87.776 E25.06276
G1 X218.329 Y87.784 E25.08092
G1 X219.302 Y87.842 E25.11334
G1 X219.601 Y87.873 E25.12334
G1 X220.529 Y88.009 E25.15453
G1 X221.442 Y88.224 E25.18573
G1 X222.333 Y88.516 E25.21691
G1 X223.592 Y89.081 E25.26281
G1 X223.894 Y89.24 E25.27416
G1 X224.704 Y89.712 E25.30535
G1 X225.471 Y90.251 E25.33652
G1 X226.19 Y90.853 E25.36771
G1 X226.855 Y91.515 E25.39892
G1 X227.422 Y92.182 E25.42804
G1 X227.546 Y92.34 E25.43472
G1 X228.093 Y93.102 E25.46592
G1 X228.574 Y93.907 E25.49711
G1 X228.983 Y94.751 E25.5283
G1 X229.32 Y95.626 E25.55949
G1 X229.515 Y96.271 E25.5819
G1 X229.613 Y96.635 E25.59444
G1 X229.818 Y97.55 E25.62563
G1 X229.944 Y98.48 E25.65684
G1 X229.984 Y99.116 E25.67804
G1 X229.991 Y99.319 E25.68479
G1 X229.998 Y99.697 E25.69737
G1 X230 Y125.628 E26.55983
G1 X229.999 Y125.783 E26.56499
G1 X229.987 Y126.639 E26.59346
G1 X229.984 Y126.792 E26.59855
G1 X229.915 Y129.267 E26.6809
G1 X229.915 Y131.772 E26.76422
G1 X229.953 Y133.142 E26.8098
G1 X229.954 Y133.179 E26.81104
G1 X229.993 Y134.777 E26.8642
G1 X229.995 Y135.198 E26.8782
G1 X229.989 Y135.63 E26.89257
G1 X229.936 Y136.566 E26.92376
G1 X229.803 Y137.495 E26.95497
G1 X229.592 Y138.408 E26.98614
G1 X229.304 Y139.301 E27.01734
G1 X228.941 Y140.166 E27.04854
G1 X228.505 Y140.996 E27.07973
G1 X228 Y141.787 E27.11094
G1 X227.43 Y142.531 E27.14211
G1 X226.799 Y143.225 E27.17331
G1 X226.11 Y143.862 E27.20452
G1 X225.37 Y144.438 E27.23571
G1 X224.584 Y144.949 E27.26689
G1 X223.757 Y145.391 E27.29808
G1 X222.895 Y145.761 E27.32928
G1 X221.943 Y146.073 E27.3626
G1 X220.576 Y146.454 E27.4098
G1 X220.391 Y146.504 E27.41617
G1 X219.768 Y146.666 E27.43758
G1 X218.851 Y146.863 E27.46878
G1 X217.921 Y146.981 E27.49996
G1 X217.368 Y147.014 E27.51838
G1 X217.039 Y147.025 E27.52933
G1 X216.67 Y147.031 E27.54161
G1 X204.615 Y147.03 E27.94256
G1 X18.706 Y147.031 E34.12592
G1 X18.55 Y147.03 E34.13111
G1 X17.849 Y147.02 E34.15442
G1 X16.913 Y146.967 E34.18561
G1 X15.984 Y146.834 E34.21682
G1 X15.171 Y146.649 E34.24455
G1 X14.41 Y146.446 E34.27075
G1 X14.326 Y146.424 E34.27363
G1 X13.105 Y146.088 E34.31575
G1 X12.213 Y145.801 E34.34692
G1 X11.348 Y145.438 E34.37812
G1 X10.516 Y145.004 E34.40933
G1 X9.725 Y144.5 E34.44053
G1 X8.98 Y143.931 E34.47171
G1 X8.286 Y143.3 E34.5029
G1 X7.648 Y142.612 E34.53411
G1 X7.071 Y141.873 E34.5653
G1 X6.559 Y141.087 E34.5965
G1 X6.116 Y140.261 E34.62767
G1 X5.745 Y139.399 E34.65888
G1 X5.449 Y138.509 E34.69008
G1 X5.229 Y137.598 E34.72125
G1 X5.088 Y136.67 E34.75247
G1 X5.025 Y135.653 E34.78636
G1 X5.013 Y134.882 E34.81201
G1 X5.016 Y134.403 E34.82794
G1 X5.085 Y131.933 E34.91012
G1 X5.085 Y129.446 E34.99284
G1 X5.046 Y128.074 E35.03849
G1 X5.045 Y128.028 E35.04002
G1 X5.003 Y126.291 E35.09781
G1 X5 Y126.025 E35.10666
G1 X5 Y100.164 E35.9668
G1 X5.001 Y100.004 E35.97212
G1 X5.011 Y99.317 E35.99497
G1 X5.065 Y98.381 E36.02616
G1 X5.198 Y97.452 E36.05737
G1 X5.395 Y96.591 E36.08675
G1 X5.488 Y96.249 E36.09854
G1 X5.773 Y95.355 E36.12975
G1 X6.132 Y94.489 E36.16093
G1 X6.564 Y93.656 E36.19214
G1 X7.066 Y92.864 E36.22332
G1 X7.633 Y92.117 E36.25452
G1 X8.325 Y91.357 E36.2887
G1 X8.578 Y91.104 E36.3006
G1 X9.269 Y90.47 E36.33179
G1 X10.011 Y89.896 E36.36299
G1 X10.8 Y89.389 E36.39419
G1 X11.628 Y88.95 E36.42536
G1 X12.492 Y88.583 E36.45658
G1 X13.452 Y88.272 E36.49014
G1 X13.81 Y88.174 E36.50249
G1 X14.724 Y87.966 E36.53367
G0 F6000 X14.813 Y88.356
G1 F1200 X15.725 Y88.23 E36.56429
G1 X16.303 Y88.192 E36.58355
G1 X16.509 Y88.184 E36.59041
G1 X16.906 Y88.176 E36.60362
G1 X17.666 Y88.175 E36.62889
G1 X17.68 Y88.175 E36.62936
G1 X214.358 Y88.174 E43.1709
G1 X214.361 Y88.174 E43.171
G1 X217.625 Y88.175 E43.27956
G1 X217.777 Y88.176 E43.28461
G1 X218.323 Y88.184 E43.30277
G1 X219.261 Y88.24 E43.33403
G1 X219.56 Y88.271 E43.34403
G1 X220.471 Y88.405 E43.37465
G1 X221.367 Y88.618 E43.40528
G1 X222.24 Y88.908 E43.43588
G1 X223.405 Y89.435 E43.47841
G1 X223.707 Y89.594 E43.48976
G1 X224.502 Y90.057 E43.52036
G1 X225.254 Y90.589 E43.551
G1 X225.958 Y91.183 E43.58163
G1 X226.606 Y91.836 E43.61223
G1 X227.108 Y92.429 E43.63807
G1 X227.232 Y92.587 E43.64475
G1 X227.768 Y93.335 E43.67536
G1 X228.237 Y94.127 E43.70597
G1 X228.636 Y94.957 E43.7366
G1 X228.962 Y95.818 E43.76722
G1 X229.129 Y96.375 E43.78657
G1 X229.227 Y96.739 E43.7991
G1 X229.427 Y97.638 E43.82974
G1 X229.549 Y98.55 E43.86034
G1 X229.585 Y99.13 E43.87967
G1 X229.592 Y99.333 E43.88642
G1 X229.598 Y99.697 E43.89853
G1 X229.6 Y125.628 E44.761
G1 X229.599 Y125.778 E44.76599
G1 X229.587 Y126.634 E44.79446
G1 X229.584 Y126.78 E44.79932
G1 X229.515 Y129.255 E44.88167
G1 X229.515 Y131.783 E44.96575
G1 X229.553 Y133.153 E45.01134
G1 X229.554 Y133.188 E45.0125
G1 X229.593 Y134.786 E45.06567
G1 X229.595 Y135.192 E45.07917
G1 X229.589 Y135.624 E45.09354
G1 X229.536 Y136.543 E45.12416
G1 X229.404 Y137.454 E45.15477
G1 X229.193 Y138.351 E45.18542
G1 X228.905 Y139.225 E45.21603
G1 X228.543 Y140.071 E45.24663
G1 X228.108 Y140.883 E45.27727
G1 X227.604 Y141.654 E45.30791
G1 X227.036 Y142.378 E45.33851
G1 X226.407 Y143.05 E45.36913
G1 X225.722 Y143.665 E45.39975
G1 X224.986 Y144.218 E45.43037
G1 X224.205 Y144.706 E45.461
G1 X223.384 Y145.123 E45.49162
G1 X222.531 Y145.468 E45.52223
G1 X221.836 Y145.688 E45.54647
G1 X220.469 Y146.069 E45.59367
G1 X220.291 Y146.117 E45.59981
G1 X219.668 Y146.279 E45.62122
G1 X218.767 Y146.472 E45.65186
G1 X217.854 Y146.586 E45.68246
G1 X217.354 Y146.614 E45.69912
G1 X217.025 Y146.625 E45.71007
G1 X216.67 Y146.631 E45.72188
G1 X204.615 Y146.63 E46.12283
G1 X18.706 Y146.631 E52.30619
G1 X18.556 Y146.63 E52.31118
G1 X17.855 Y146.62 E52.33449
G1 X16.936 Y146.567 E52.36511
G1 X16.025 Y146.434 E52.39573
G1 X15.274 Y146.263 E52.42135
G1 X14.513 Y146.06 E52.44755
G1 X14.433 Y146.038 E52.45031
G1 X13.212 Y145.702 E52.49243
G1 X12.335 Y145.42 E52.52307
G1 X11.487 Y145.062 E52.55368
G1 X10.673 Y144.632 E52.5843
G1 X9.899 Y144.133 E52.61493
G1 X9.171 Y143.569 E52.64556
G1 X8.496 Y142.944 E52.67616
G1 X7.876 Y142.263 E52.70679
G1 X7.319 Y141.53 E52.73741
G1 X6.827 Y140.752 E52.76802
G1 X6.404 Y139.934 E52.79865
G1 X6.054 Y139.082 E52.82929
G1 X5.779 Y138.204 E52.85989
G1 X5.582 Y137.305 E52.8905
G1 X5.463 Y136.392 E52.92112
G1 X5.425 Y135.647 E52.94593
G1 X5.413 Y134.876 E52.97158
G1 X5.416 Y134.414 E52.98695
G1 X5.485 Y131.933 E53.0695
G1 X5.485 Y129.435 E53.15258
G1 X5.446 Y128.063 E53.19823
G1 X5.445 Y128.018 E53.19973
G1 X5.403 Y126.281 E53.25752
G1 X5.4 Y126.025 E53.26604
G1 X5.4 Y100.164 E54.12618
G1 X5.401 Y100.01 E54.1313
G1 X5.411 Y99.323 E54.15415
G1 X5.464 Y98.404 E54.18477
G1 X5.597 Y97.493 E54.21539
G1 X5.781 Y96.696 E54.24259
G1 X5.874 Y96.354 E54.25438
G1 X6.154 Y95.476 E54.28503
G1 X6.509 Y94.627 E54.31564
G1 X6.937 Y93.812 E54.34626
G1 X7.433 Y93.036 E54.37689
G1 X7.995 Y92.307 E54.4075
G1 X8.608 Y91.64 E54.43763
G1 X8.861 Y91.387 E54.44954
G1 X9.539 Y90.765 E54.48014
G1 X10.269 Y90.204 E54.51076
G1 X11.045 Y89.708 E54.54139
G1 X11.861 Y89.282 E54.57201
G1 X12.711 Y88.928 E54.60263
G1 X13.557 Y88.658 E54.63217
G1 X13.915 Y88.56 E54.64451
G1 X14.813 Y88.356 E54.67514
G0 F6000 X14.902 Y88.746
G1 F1200 X15.797 Y88.625 E54.70518
G1 X16.318 Y88.592 E54.72254
G1 X16.524 Y88.584 E54.7294
G1 X16.907 Y88.576 E54.74214
G1 X17.667 Y88.575 E54.76742
G1 X17.68 Y88.575 E54.76785
G1 X214.358 Y88.574 E61.30939
G1 X214.361 Y88.574 E61.30949
G1 X217.625 Y88.575 E61.41805
G1 X217.771 Y88.576 E61.42291
G1 X218.317 Y88.584 E61.44107
G1 X219.22 Y88.637 E61.47115
G1 X219.519 Y88.668 E61.48115
G1 X220.412 Y88.801 E61.51118
G1 X221.29 Y89.012 E61.54121
G1 X222.146 Y89.301 E61.57126
G1 X223.219 Y89.788 E61.61046
G1 X223.521 Y89.947 E61.62181
G1 X224.301 Y90.403 E61.65186
G1 X225.037 Y90.926 E61.68189
G1 X225.724 Y91.512 E61.71192
G1 X226.357 Y92.156 E61.74196
G1 X226.793 Y92.676 E61.76453
G1 X226.917 Y92.834 E61.77121
G1 X227.443 Y93.568 E61.80124
G1 X227.901 Y94.346 E61.83127
G1 X228.289 Y95.162 E61.86132
G1 X228.603 Y96.008 E61.89133
G1 X228.742 Y96.479 E61.90767
G1 X228.84 Y96.843 E61.92021
G1 X229.036 Y97.725 E61.95026
G1 X229.153 Y98.62 E61.98028
G1 X229.185 Y99.143 E61.99771
G1 X229.192 Y99.346 E62.00446
G1 X229.198 Y99.697 E62.01614
G1 X229.2 Y125.628 E62.87861
G1 X229.199 Y125.772 E62.8834
G1 X229.187 Y126.628 E62.91187
G1 X229.184 Y126.769 E62.91656
G1 X229.115 Y129.244 E62.99891
G1 X229.115 Y131.794 E63.08372
G1 X229.153 Y133.164 E63.12931
G1 X229.154 Y133.198 E63.13044
G1 X229.193 Y134.796 E63.1836
G1 X229.195 Y135.187 E63.19661
G1 X229.189 Y135.619 E63.21098
G1 X229.137 Y136.52 E63.241
G1 X229.004 Y137.414 E63.27106
G1 X228.794 Y138.292 E63.30108
G1 X228.506 Y139.148 E63.33112
G1 X228.144 Y139.975 E63.36115
G1 X227.711 Y140.767 E63.39117
G1 X227.209 Y141.518 E63.42122
G1 X226.642 Y142.221 E63.45125
G1 X226.015 Y142.872 E63.48132
G1 X225.334 Y143.464 E63.51133
G1 X224.602 Y143.994 E63.54139
G1 X223.827 Y144.457 E63.57141
G1 X223.014 Y144.85 E63.60145
G1 X222.169 Y145.169 E63.63149
G1 X221.728 Y145.303 E63.64682
G1 X220.361 Y145.684 E63.69402
G1 X220.19 Y145.73 E63.69991
G1 X219.567 Y145.892 E63.72132
G1 X218.684 Y146.08 E63.75134
G1 X217.341 Y146.214 E63.79623
G1 X217.012 Y146.225 E63.80718
G1 X216.67 Y146.231 E63.81856
G1 X204.615 Y146.23 E64.21951
G1 X18.706 Y146.231 E70.40287
G1 X18.562 Y146.23 E70.40766
G1 X17.861 Y146.22 E70.43098
G1 X16.959 Y146.167 E70.46103
G1 X16.066 Y146.035 E70.49105
G1 X15.377 Y145.876 E70.51457
G1 X14.616 Y145.673 E70.54077
G1 X14.539 Y145.652 E70.54342
G1 X13.318 Y145.316 E70.58554
G1 X12.458 Y145.039 E70.61559
G1 X11.627 Y144.686 E70.64562
G1 X10.83 Y144.261 E70.67566
G1 X10.074 Y143.767 E70.7057
G1 X9.365 Y143.208 E70.73573
G1 X8.707 Y142.589 E70.76578
G1 X8.107 Y141.914 E70.79582
G1 X7.57 Y141.188 E70.82585
G1 X7.098 Y140.418 E70.85589
G1 X6.696 Y139.609 E70.88594
G1 X6.368 Y138.768 E70.91596
G1 X6.115 Y137.901 E70.946
G1 X5.94 Y137.015 E70.97604
G1 X5.844 Y136.117 E71.00607
G1 X5.825 Y135.641 E71.02192
G1 X5.813 Y134.87 E71.04757
G1 X5.816 Y134.425 E71.06237
G1 X5.885 Y131.962 E71.14432
G1 X5.885 Y129.424 E71.22873
G1 X5.846 Y128.052 E71.27438
G1 X5.845 Y128.009 E71.27581
G1 X5.803 Y126.272 E71.3336
G1 X5.8 Y126.025 E71.34182
G1 X5.8 Y100.164 E72.20196
G1 X5.801 Y100.016 E72.20688
G1 X5.811 Y99.329 E72.22973
G1 X5.864 Y98.427 E72.25979
G1 X5.997 Y97.534 E72.28982
G1 X6.167 Y96.801 E72.31484
G1 X6.26 Y96.459 E72.32663
G1 X6.536 Y95.598 E72.3567
G1 X6.886 Y94.766 E72.38672
G1 X7.309 Y93.968 E72.41676
G1 X7.8 Y93.21 E72.4468
G1 X8.357 Y92.499 E72.47684
G1 X8.891 Y91.923 E72.50297
G1 X9.144 Y91.67 E72.51487
G1 X9.81 Y91.06 E72.54491
G1 X10.527 Y90.511 E72.57494
G1 X11.291 Y90.029 E72.60499
G1 X12.094 Y89.615 E72.63504
G1 X12.93 Y89.275 E72.66505
G1 X13.663 Y89.044 E72.69061
G1 X14.021 Y88.946 E72.70296
G1 X14.902 Y88.746 E72.73301
G1 F3000 E64.73301
G1 F600 Z0.4
G0 F6000 X17.98 Y100.755 Z0.4
;TYPE:SUPPORT
G1 F600 Z0.2
G1 F3000 E72.73301
G1 F1200 X26.171 Y100.754 E73.00544
G1 X217.02 Y100.755 E79.3531
G1 X217.02 Y126.652 E80.21444
G1 X217.722 Y127.355 E80.24749
G1 X217.82 Y127.355 E80.25075
G1 X217.82 Y133.854 E80.4669
G1 X217.723 Y133.854 E80.47013
G1 X217.02 Y134.557 E80.5032
G1 X217.02 Y135.641 E80.53925
G1 X216.829 Y135.831 E80.54821
G1 X204.615 Y135.83 E80.95445
G1 X18.171 Y135.831 E87.1556
G1 X17.98 Y135.641 E87.16456
G1 X17.98 Y134.557 E87.20062
