;FLAVOR:Marlin
;TIME:13294
;Filament used: 8.43152m
;Layer height: 0.28
;MINX:22.255
;MINY:7.772
;MINZ:0.2
;MAXX:212.745
;MAXY:92.801
;MAXZ:5.8
;Generated with Cura_SteamEngine 4.4.1
M82 ;absolute extrusion mode
; Ender 3 Custom Start G-code
M117 Getting the bed up to temp!
M140 S60.0 ; Set Heat Bed temperature
M190 S60.0 ; Wait for Heat Bed temperature
M117 Pre-heating the extruder!
M104 S228.0/2
G28 ; Home all axes
M420 S1; Auto bed-level (BL-Touch)
G92 E0 ; Reset Extruder
M117 Getting the extruder up to temp!
M104 S228.0 ; Set Extruder temperature
M109 S228.0 ; Wait for Extruder temperature
G1 Z1.0 F3000 ; move z up little to prevent scratching of surface
G1 X0.1 Y20 Z0.3 F5000.0 ; move to start-line position
M117 LET THE PURGE BEGIN!
G1 X0.1 Y200.0 Z0.3 F1500.0 E15 ; draw 1st line
G1 X0.4 Y200.0 Z0.3 F5000.0 ; move to side a little
G1 X0.4 Y20 Z0.3 F1500.0 E30 ; draw 2nd line
G92 E0 ; reset extruder
G1 Z1.0 F3000 ; move z up little to prevent scratching of surface
M117 Autobots! Roll Out!
G92 E0
G92 E0
G1 F3000 E-8
;LAYER_COUNT:21
;LAYER:0
M107
M204 S500
M205 X8 Y8
G0 F6000 X23.747 Y13.265 Z0.2
;TYPE:SKIRT
G1 F3000 E0
G1 F1200 X24.251 Y12.475 E0.03117
G1 X24.821 Y11.73 E0.06237
G1 X25.453 Y11.036 E0.09359
G1 X26.141 Y10.399 E0.12477
G1 X26.881 Y9.823 E0.15596
G1 X27.667 Y9.311 E0.18716
G1 X28.494 Y8.869 E0.21835
G1 X29.356 Y8.499 E0.24955
G1 X30.246 Y8.203 E0.28074
G1 X31.158 Y7.985 E0.31193
G1 X32.085 Y7.844 E0.34312
G1 X32.956 Y7.785 E0.37216
G1 X33.277 Y7.776 E0.38284
G1 X33.585 Y7.772 E0.39308
G1 X46.922 Y7.772 E0.83667
G1 X47.075 Y7.773 E0.84176
G1 X48.803 Y7.797 E0.89924
G1 X48.981 Y7.801 E0.90516
G1 X49.42 Y7.814 E0.91977
G1 X51.979 Y7.818 E1.00488
G1 X53.935 Y7.775 E1.06995
G1 X54.176 Y7.772 E1.07797
G1 X113.143 Y7.772 E3.03922
G1 X113.301 Y7.773 E3.04448
G1 X115.042 Y7.798 E3.10239
G1 X115.196 Y7.801 E3.10751
G1 X115.66 Y7.814 E3.12295
G1 X118.219 Y7.817 E3.20806
G1 X120.161 Y7.775 E3.27267
G1 X120.398 Y7.772 E3.28055
G1 X179.365 Y7.772 E5.2418
G1 X179.518 Y7.773 E5.24689
G1 X181.246 Y7.797 E5.30437
G1 X181.424 Y7.801 E5.31029
G1 X181.863 Y7.814 E5.3249
G1 X184.422 Y7.818 E5.41001
G1 X186.378 Y7.775 E5.47508
G1 X186.619 Y7.772 E5.4831
G1 X201.038 Y7.772 E5.96268
G1 X201.196 Y7.773 E5.96793
G1 X201.894 Y7.783 E5.99115
G1 X202.83 Y7.837 E6.02234
G1 X203.758 Y7.969 E6.05351
G1 X204.672 Y8.181 E6.08472
G1 X205.564 Y8.47 E6.1159
G1 X206.429 Y8.833 E6.14711
G1 X207.259 Y9.269 E6.17829
G1 X208.05 Y9.774 E6.2095
G1 X208.794 Y10.345 E6.24069
G1 X209.487 Y10.977 E6.27189
G1 X210.124 Y11.665 E6.30307
G1 X210.699 Y12.406 E6.33427
G1 X211.21 Y13.192 E6.36545
G1 X211.652 Y14.02 E6.39667
G1 X212.021 Y14.882 E6.42786
G1 X212.316 Y15.772 E6.45904
G1 X212.534 Y16.684 E6.49023
G1 X212.674 Y17.612 E6.52144
G1 X212.732 Y18.473 E6.55015
G1 X212.741 Y18.793 E6.56079
G1 X212.745 Y19.102 E6.57107
G1 X212.745 Y81.065 E8.63197
G1 X212.744 Y81.201 E8.63649
G1 X212.735 Y81.928 E8.66067
G1 X212.684 Y82.865 E8.69189
G1 X212.552 Y83.793 E8.72306
G1 X212.343 Y84.707 E8.75425
G1 X212.056 Y85.6 E8.78544
G1 X211.694 Y86.466 E8.81666
G1 X211.26 Y87.297 E8.84784
G1 X210.756 Y88.088 E8.87904
G1 X210.187 Y88.833 E8.91022
G1 X209.556 Y89.528 E8.94144
G1 X208.869 Y90.166 E8.97262
G1 X208.13 Y90.743 E9.00381
G1 X207.344 Y91.255 E9.03501
G1 X206.518 Y91.698 E9.06618
G1 X205.656 Y92.07 E9.09741
G1 X204.767 Y92.366 E9.12857
G1 X203.855 Y92.586 E9.15978
G1 X202.928 Y92.727 E9.19096
G1 X202.044 Y92.788 E9.22043
G1 X201.723 Y92.797 E9.23111
G1 X201.415 Y92.801 E9.24136
G1 X188.452 Y92.801 E9.67251
G1 X188.296 Y92.8 E9.6777
G1 X187.591 Y92.79 E9.70115
G1 X187.131 Y92.774 E9.71646
G1 X184.594 Y92.632 E9.80097
G1 X182.055 Y92.56 E9.88545
G1 X179.568 Y92.56 E9.96817
G1 X176.965 Y92.634 E10.05478
G1 X175.682 Y92.698 E10.09751
G1 X174.372 Y92.774 E10.14115
G1 X174.044 Y92.788 E10.15207
G1 X173.724 Y92.797 E10.16272
G1 X173.415 Y92.801 E10.173
G1 X123.421 Y92.801 E11.8358
G1 X123.265 Y92.8 E11.84099
G1 X122.56 Y92.79 E11.86444
G1 X122.1 Y92.774 E11.87975
G1 X119.563 Y92.632 E11.96427
G1 X117.024 Y92.56 E12.04875
G1 X114.537 Y92.56 E12.13147
G1 X111.934 Y92.634 E12.21808
G1 X110.651 Y92.698 E12.2608
G1 X109.341 Y92.774 E12.30445
G1 X109.013 Y92.788 E12.31537
G1 X108.693 Y92.797 E12.32601
G1 X108.384 Y92.801 E12.33629
G1 X58.391 Y92.801 E13.99907
G1 X58.235 Y92.8 E14.00425
G1 X57.53 Y92.79 E14.0277
G1 X57.07 Y92.774 E14.04301
G1 X54.533 Y92.632 E14.12753
G1 X51.994 Y92.56 E14.21201
G1 X49.507 Y92.56 E14.29473
G1 X46.904 Y92.634 E14.38134
G1 X45.621 Y92.698 E14.42406
G1 X44.311 Y92.774 E14.46771
G1 X43.983 Y92.788 E14.47863
G1 X43.663 Y92.797 E14.48927
G1 X43.354 Y92.801 E14.49955
G1 X33.962 Y92.801 E14.81193
G1 X33.82 Y92.8 E14.81665
G1 X33.122 Y92.791 E14.83987
G1 X32.186 Y92.739 E14.87105
G1 X31.257 Y92.607 E14.90226
G1 X30.343 Y92.397 E14.93345
G1 X29.45 Y92.11 E14.96465
G1 X28.585 Y91.747 E14.99585
G1 X27.754 Y91.313 E15.02703
G1 X26.963 Y90.809 E15.05823
G1 X26.218 Y90.239 E15.08943
G1 X25.524 Y89.608 E15.12062
G1 X24.887 Y88.921 E15.15178
G1 X24.31 Y88.181 E15.18299
G1 X23.798 Y87.395 E15.21419
G1 X23.355 Y86.568 E15.2454
G1 X22.984 Y85.707 E15.27658
G1 X22.688 Y84.817 E15.30778
G1 X22.469 Y83.905 E15.33897
G1 X22.328 Y82.978 E15.37016
G1 X22.268 Y82.089 E15.39979
G1 X22.259 Y81.756 E15.41087
G1 X22.255 Y81.459 E15.42075
G1 X22.255 Y19.446 E17.48331
G1 X22.256 Y19.297 E17.48827
G1 X22.265 Y18.632 E17.51039
G1 X22.318 Y17.696 E17.54157
G1 X22.45 Y16.767 E17.57278
G1 X22.661 Y15.853 E17.60398
G1 X22.949 Y14.961 E17.63516
G1 X23.312 Y14.096 E17.66636
G1 X23.747 Y13.265 E17.69755
G0 F6000 X24.144 Y13.378
G1 F1200 X24.647 Y12.607 E17.72817
G1 X25.216 Y11.883 E17.7588
G1 X25.844 Y11.211 E17.78939
G1 X26.529 Y10.595 E17.82003
G1 X27.265 Y10.042 E17.85065
G1 X28.046 Y9.554 E17.88128
G1 X28.866 Y9.136 E17.91189
G1 X29.72 Y8.791 E17.94253
G1 X30.6 Y8.521 E17.97314
G1 X31.5 Y8.329 E18.00375
G1 X32.414 Y8.215 E18.03439
G1 X32.967 Y8.185 E18.05281
G1 X33.288 Y8.176 E18.06349
G1 X33.585 Y8.172 E18.07337
G1 X46.922 Y8.172 E18.51696
G1 X47.069 Y8.173 E18.52184
G1 X48.797 Y8.197 E18.57932
G1 X48.969 Y8.201 E18.58505
G1 X49.408 Y8.214 E18.59965
G1 X51.988 Y8.218 E18.68547
G1 X53.944 Y8.175 E18.75054
G1 X54.176 Y8.172 E18.75825
G1 X113.143 Y8.172 E20.7195
G1 X113.295 Y8.173 E20.72456
G1 X115.036 Y8.198 E20.78247
G1 X115.185 Y8.201 E20.78743
G1 X115.649 Y8.214 E20.80287
G1 X118.183 Y8.217 E20.88715
G1 X120.169 Y8.174 E20.95322
G1 X120.398 Y8.172 E20.96084
G1 X179.365 Y8.172 E22.92209
G1 X179.512 Y8.173 E22.92698
G1 X181.24 Y8.197 E22.98446
G1 X181.412 Y8.201 E22.99018
G1 X181.851 Y8.214 E23.00478
G1 X184.431 Y8.218 E23.0906
G1 X186.387 Y8.175 E23.15567
G1 X186.619 Y8.172 E23.16339
G1 X201.038 Y8.172 E23.64296
G1 X201.19 Y8.173 E23.64802
G1 X201.888 Y8.183 E23.67124
G1 X202.807 Y8.236 E23.70185
G1 X203.718 Y8.369 E23.73248
G1 X204.614 Y8.58 E23.76309
G1 X205.488 Y8.868 E23.7937
G1 X206.335 Y9.231 E23.82435
G1 X207.146 Y9.666 E23.85496
G1 X207.916 Y10.17 E23.88557
G1 X208.64 Y10.739 E23.91619
G1 X209.312 Y11.369 E23.94683
G1 X209.927 Y12.054 E23.97745
G1 X210.48 Y12.79 E24.00807
G1 X210.967 Y13.571 E24.03868
G1 X211.384 Y14.392 E24.06931
G1 X211.729 Y15.246 E24.09994
G1 X211.998 Y16.126 E24.13055
G1 X212.19 Y17.027 E24.16119
G1 X212.303 Y17.94 E24.19179
G1 X212.332 Y18.484 E24.2099
G1 X212.341 Y18.804 E24.22055
G1 X212.345 Y19.102 E24.23046
G1 X212.345 Y81.065 E26.29136
G1 X212.344 Y81.196 E26.29572
G1 X212.335 Y81.923 E26.3199
G1 X212.284 Y82.842 E26.35051
G1 X212.153 Y83.754 E26.38116
G1 X211.943 Y84.65 E26.41177
G1 X211.657 Y85.525 E26.44239
G1 X211.296 Y86.372 E26.47301
G1 X210.862 Y87.184 E26.50363
G1 X210.36 Y87.956 E26.53426
G1 X209.792 Y88.681 E26.56489
G1 X209.164 Y89.354 E26.59551
G1 X208.48 Y89.97 E26.62612
G1 X207.745 Y90.524 E26.65674
G1 X206.965 Y91.013 E26.68736
G1 X206.145 Y91.432 E26.71798
G1 X205.292 Y91.778 E26.7486
G1 X204.412 Y92.049 E26.77923
G1 X203.512 Y92.242 E26.80984
G1 X202.598 Y92.357 E26.84048
G1 X202.033 Y92.388 E26.8593
G1 X201.712 Y92.397 E26.86998
G1 X201.415 Y92.401 E26.87986
G1 X188.452 Y92.401 E27.31101
G1 X188.302 Y92.4 E27.316
G1 X187.597 Y92.39 E27.33945
G1 X187.154 Y92.374 E27.35419
G1 X184.63 Y92.233 E27.43827
G1 X182.066 Y92.16 E27.52359
G1 X179.557 Y92.16 E27.60704
G1 X176.98 Y92.233 E27.69278
G1 X175.573 Y92.303 E27.73964
G1 X174.349 Y92.374 E27.78042
G1 X174.033 Y92.388 E27.79094
G1 X173.713 Y92.397 E27.80158
G1 X173.415 Y92.401 E27.8115
G1 X123.421 Y92.401 E29.4743
G1 X123.271 Y92.4 E29.47929
G1 X122.566 Y92.39 E29.50274
G1 X122.123 Y92.374 E29.51749
G1 X119.599 Y92.233 E29.60157
G1 X117.035 Y92.16 E29.68688
G1 X114.526 Y92.16 E29.77033
G1 X111.949 Y92.233 E29.85608
G1 X110.542 Y92.303 E29.90293
G1 X109.318 Y92.374 E29.94371
G1 X109.002 Y92.388 E29.95423
G1 X108.682 Y92.397 E29.96488
G1 X108.384 Y92.401 E29.97479
G1 X58.391 Y92.401 E31.63756
G1 X58.241 Y92.4 E31.64255
G1 X57.536 Y92.39 E31.666
G1 X57.093 Y92.374 E31.68075
G1 X54.569 Y92.233 E31.76483
G1 X52.005 Y92.16 E31.85014
G1 X49.496 Y92.16 E31.93359
G1 X46.919 Y92.233 E32.01934
G1 X45.512 Y92.303 E32.06619
G1 X44.288 Y92.374 E32.10697
G1 X43.972 Y92.388 E32.11749
G1 X43.652 Y92.397 E32.12814
G1 X43.354 Y92.401 E32.13805
G1 X33.962 Y92.401 E32.45043
G1 X33.825 Y92.4 E32.45499
G1 X33.127 Y92.391 E32.4782
G1 X32.208 Y92.339 E32.50882
G1 X31.297 Y92.208 E32.53943
G1 X30.401 Y91.998 E32.57004
G1 X29.526 Y91.711 E32.60067
G1 X28.679 Y91.349 E32.6313
G1 X27.867 Y90.915 E32.66193
G1 X27.096 Y90.413 E32.69253
G1 X26.371 Y89.845 E32.72316
G1 X25.698 Y89.216 E32.7538
G1 X25.083 Y88.532 E32.78439
G1 X24.529 Y87.797 E32.815
G1 X24.041 Y87.016 E32.84563
G1 X23.622 Y86.196 E32.87626
G1 X23.276 Y85.343 E32.90688
G1 X23.006 Y84.463 E32.93749
G1 X22.813 Y83.562 E32.96814
G1 X22.699 Y82.649 E32.99874
G1 X22.668 Y82.078 E33.01776
G1 X22.659 Y81.745 E33.02884
G1 X22.655 Y81.459 E33.03836
G1 X22.655 Y19.446 E35.10092
G1 X22.656 Y19.303 E35.10567
G1 X22.665 Y18.638 E35.12779
G1 X22.717 Y17.718 E35.15844
G1 X22.849 Y16.807 E35.18906
G1 X23.06 Y15.911 E35.21967
G1 X23.347 Y15.036 E35.2503
G1 X23.71 Y14.19 E35.28092
G1 X24.144 Y13.378 E35.31154
G0 F6000 X24.541 Y13.494
G1 F1200 X25.043 Y12.743 E35.34159
G1 X25.61 Y12.039 E35.37165
G1 X26.236 Y11.389 E35.40167
G1 X26.917 Y10.796 E35.4317
G1 X27.649 Y10.266 E35.46176
G1 X28.424 Y9.803 E35.49179
G1 X29.237 Y9.41 E35.52182
G1 X30.082 Y9.09 E35.55187
G1 X30.951 Y8.847 E35.58189
G1 X31.839 Y8.681 E35.61193
G1 X32.978 Y8.585 E35.64995
G1 X33.299 Y8.576 E35.66063
G1 X33.585 Y8.572 E35.67014
G1 X46.922 Y8.572 E36.11373
G1 X47.064 Y8.573 E36.11846
G1 X48.792 Y8.597 E36.17594
G1 X48.957 Y8.601 E36.18143
G1 X49.395 Y8.614 E36.196
G1 X51.953 Y8.618 E36.28108
G1 X53.953 Y8.574 E36.34762
G1 X54.176 Y8.572 E36.35503
G1 X113.143 Y8.572 E38.31628
G1 X113.289 Y8.573 E38.32114
G1 X115.03 Y8.598 E38.37905
G1 X115.173 Y8.601 E38.38381
G1 X115.636 Y8.614 E38.39921
G1 X118.191 Y8.617 E38.48419
G1 X120.178 Y8.574 E38.5503
G1 X120.398 Y8.572 E38.55761
G1 X179.365 Y8.572 E40.51887
G1 X179.507 Y8.573 E40.52359
G1 X181.235 Y8.597 E40.58107
G1 X181.4 Y8.601 E40.58656
G1 X181.838 Y8.614 E40.60113
G1 X184.396 Y8.618 E40.68621
G1 X186.396 Y8.574 E40.75275
G1 X186.619 Y8.572 E40.76016
G1 X201.038 Y8.572 E41.23974
G1 X201.184 Y8.573 E41.2446
G1 X201.882 Y8.583 E41.26782
G1 X202.784 Y8.636 E41.29787
G1 X203.677 Y8.768 E41.32789
G1 X204.555 Y8.979 E41.35793
G1 X205.411 Y9.267 E41.38797
G1 X206.238 Y9.629 E41.41799
G1 X207.03 Y10.064 E41.44805
G1 X207.781 Y10.566 E41.47809
G1 X208.484 Y11.133 E41.50813
G1 X209.134 Y11.76 E41.53817
G1 X209.726 Y12.442 E41.5682
G1 X210.256 Y13.173 E41.59824
G1 X210.718 Y13.949 E41.62827
G1 X211.111 Y14.762 E41.65831
G1 X211.429 Y15.607 E41.68834
G1 X211.672 Y16.477 E41.71838
G1 X211.837 Y17.365 E41.74842
G1 X211.932 Y18.495 E41.78614
G1 X211.941 Y18.815 E41.79678
G1 X211.945 Y19.102 E41.80633
G1 X211.945 Y81.065 E43.86723
G1 X211.944 Y81.191 E43.87142
G1 X211.935 Y81.918 E43.8956
G1 X211.884 Y82.82 E43.92565
G1 X211.753 Y83.714 E43.9557
G1 X211.544 Y84.592 E43.98572
G1 X211.258 Y85.449 E44.01577
G1 X210.897 Y86.277 E44.04581
G1 X210.465 Y87.069 E44.07582
G1 X209.964 Y87.821 E44.10587
G1 X209.398 Y88.525 E44.13592
G1 X208.773 Y89.176 E44.16593
G1 X208.092 Y89.77 E44.19599
G1 X207.361 Y90.301 E44.22604
G1 X206.587 Y90.765 E44.25605
G1 X205.774 Y91.159 E44.2861
G1 X204.93 Y91.479 E44.31612
G1 X204.06 Y91.724 E44.34619
G1 X203.173 Y91.89 E44.3762
G1 X202.022 Y91.988 E44.41462
G1 X201.701 Y91.997 E44.4253
G1 X201.415 Y92.001 E44.43482
G1 X188.452 Y92.001 E44.86597
G1 X188.307 Y92 E44.87079
G1 X187.602 Y91.99 E44.89424
G1 X187.176 Y91.975 E44.90842
G1 X184.626 Y91.832 E44.99336
G1 X182.078 Y91.76 E45.07814
G1 X179.545 Y91.76 E45.16239
G1 X176.949 Y91.833 E45.24877
G1 X175.636 Y91.899 E45.2925
G1 X174.326 Y91.975 E45.33614
G1 X174.022 Y91.988 E45.34626
G1 X173.702 Y91.997 E45.35691
G1 X173.415 Y92.001 E45.36645
G1 X123.421 Y92.001 E47.02926
G1 X123.276 Y92 E47.03408
G1 X122.571 Y91.99 E47.05754
G1 X122.145 Y91.975 E47.07171
G1 X119.595 Y91.832 E47.15666
G1 X117.047 Y91.76 E47.24144
G1 X114.514 Y91.76 E47.32569
G1 X111.918 Y91.833 E47.41207
G1 X110.605 Y91.899 E47.45579
G1 X109.295 Y91.975 E47.49944
G1 X108.991 Y91.988 E47.50956
G1 X108.671 Y91.997 E47.5202
G1 X108.384 Y92.001 E47.52975
G1 X58.391 Y92.001 E49.19252
G1 X58.246 Y92 E49.19735
G1 X57.541 Y91.99 E49.2208
G1 X57.115 Y91.975 E49.23497
G1 X54.565 Y91.832 E49.31992
G1 X52.017 Y91.76 E49.4047
G1 X49.484 Y91.76 E49.48895
G1 X46.888 Y91.833 E49.57533
G1 X45.575 Y91.899 E49.61905
G1 X44.265 Y91.975 E49.6627
G1 X43.961 Y91.988 E49.67282
G1 X43.641 Y91.997 E49.68346
G1 X43.354 Y92.001 E49.69301
G1 X33.962 Y92.001 E50.00539
G1 X33.83 Y92 E50.00978
G1 X33.132 Y91.991 E50.033
G1 X32.231 Y91.94 E50.06301
G1 X31.337 Y91.808 E50.09307
G1 X30.459 Y91.599 E50.12309
G1 X29.602 Y91.312 E50.15315
G1 X28.775 Y90.951 E50.18316
G1 X27.982 Y90.518 E50.21321
G1 X27.231 Y90.017 E50.24324
G1 X26.527 Y89.451 E50.27328
G1 X25.876 Y88.825 E50.30332
G1 X25.283 Y88.144 E50.33336
G1 X24.753 Y87.413 E50.36339
G1 X24.289 Y86.638 E50.39343
G1 X23.895 Y85.825 E50.42348
G1 X23.575 Y84.981 E50.4535
G1 X23.331 Y84.111 E50.48355
G1 X23.165 Y83.223 E50.5136
G1 X23.068 Y82.068 E50.55215
G1 X23.059 Y81.735 E50.56323
G1 X23.055 Y81.459 E50.57241
G1 X23.055 Y19.446 E52.63497
G1 X23.056 Y19.308 E52.63956
G1 X23.065 Y18.643 E52.66168
G1 X23.117 Y17.741 E52.69173
G1 X23.249 Y16.848 E52.72176
G1 X23.459 Y15.97 E52.75178
G1 X23.746 Y15.113 E52.78184
G1 X24.108 Y14.286 E52.81187
G1 X24.541 Y13.494 E52.84189
G1 F3000 E44.84189
;MESH:Object 1
G0 F6000 X188.924 Y70.009
G0 X187.505 Y69.644
G0 X187.561 Y70.712
;TYPE:WALL-INNER
G1 F3000 E52.84189
G1 F1200 X187.691 Y71.733 E52.87612
G1 X188.069 Y72.69 E52.91035
G1 X188.674 Y73.523 E52.94459
G1 X189.467 Y74.178 E52.9788
G1 X190.398 Y74.617 E53.01303
G1 X191.409 Y74.809 E53.04726
G1 X192.436 Y74.745 E53.08148
G1 X193.415 Y74.427 E53.11572
G1 X194.283 Y73.876 E53.14991
G1 X194.987 Y73.126 E53.18413
G1 X195.483 Y72.223 E53.21839
G1 X195.739 Y71.228 E53.25257
G1 X195.739 Y70.198 E53.28682
G1 X195.483 Y69.203 E53.321
G1 X194.987 Y68.3 E53.35526
G1 X194.283 Y67.55 E53.38947
G1 X193.415 Y66.999 E53.42367
G1 X192.436 Y66.681 E53.45791
G1 X191.409 Y66.617 E53.49213
G1 X190.398 Y66.809 E53.52636
G1 X189.467 Y67.248 E53.56059
G1 X188.674 Y67.903 E53.5948
G1 X188.069 Y68.736 E53.62904
G1 X187.691 Y69.693 E53.66327
G1 X187.561 Y70.712 E53.69743
G0 F6000 X187.964 Y70.712
;TYPE:WALL-OUTER
G1 F1200 X188.081 Y71.633 E53.72831
G1 X188.422 Y72.496 E53.75918
G1 X188.968 Y73.247 E53.79006
G1 X189.683 Y73.838 E53.82091
G1 X190.523 Y74.234 E53.8518
G1 X191.434 Y74.407 E53.88264
G1 X192.36 Y74.349 E53.9135
G1 X193.243 Y74.062 E53.94438
G1 X194.026 Y73.565 E53.97523
G1 X194.661 Y72.889 E54.00607
G1 X195.108 Y72.075 E54.03696
G1 X195.339 Y71.177 E54.0678
G1 X195.339 Y70.249 E54.09867
G1 X195.108 Y69.351 E54.12951
G1 X194.661 Y68.537 E54.16039
G1 X194.026 Y67.861 E54.19124
G1 X193.243 Y67.364 E54.22209
G1 X192.36 Y67.077 E54.25297
G1 X191.434 Y67.019 E54.28383
G1 X190.523 Y67.192 E54.31467
