;FLAVOR:Marlin
;TIME:11340
;Filament used: 6.77158m
;Layer height: 0.2
;MINX:21.93
;MINY:14.156
;MINZ:0.2
;MAXX:213.07
;MAXY:99.105
;MAXZ:5.2
;Generated with Cura_SteamEngine 4.4.1
M82 ;absolute extrusion mode
; Ender 3 Custom Start G-code
M104 S220.0 ; Start heating hot end without waiting
M140 S70.0 ; Start heating bed without waiting
G28 ; Home all axes
M420 S1
M109 S220.0 ; Wait for hot end to reach temp before proceeding
M190 S70.0 ; Wait for bed to reach temp before proceeding
G92 E0 ; Reset Extruder
G1 Z2.0 F3000 ; Move Z Axis up little to prevent scratching of Heat Bed
G1 X0.1 Y20 Z0.3 F5000.0 ; Move to start position
G1 X0.1 Y200.0 Z0.3 F1500.0 E15 ; Draw the first line
G1 X0.4 Y200.0 Z0.3 F5000.0 ; Move to side a little
G1 X0.4 Y20 Z0.3 F1500.0 E30 ; Draw the second line
G92 E0 ; Reset Extruder
G1 Z2.0 F3000 ; Move Z Axis up little to prevent scratching of Heat Bed
G92 E0
G92 E0
G1 F3000 E-6
;LAYER_COUNT:26
;LAYER:0
M107
M204 S500
M205 X8 Y8
G0 F6000 X23.326 Y17.62 Z0.2
;TYPE:SKIRT
G1 F3000 E0
G1 F1200 X23.809 Y16.996 E0.02625
G1 X24.215 Y16.558 E0.04611
G1 X24.332 Y16.441 E0.05161
G1 X24.918 Y15.911 E0.07789
G1 X25.554 Y15.444 E0.10414
G1 X26.234 Y15.043 E0.13039
G1 X26.952 Y14.713 E0.15667
G1 X27.699 Y14.458 E0.18293
G1 X28.468 Y14.279 E0.20919
G1 X29.252 Y14.179 E0.23548
G1 X29.847 Y14.156 E0.25528
G1 X188.656 Y14.157 E5.53729
G1 X205.153 Y14.156 E6.08598
G1 X205.942 Y14.196 E6.11226
G1 X206.722 Y14.315 E6.1385
G1 X207.487 Y14.513 E6.16478
G1 X208.227 Y14.787 E6.19103
G1 X208.936 Y15.135 E6.2173
G1 X209.607 Y15.553 E6.24359
G1 X210.231 Y16.036 E6.26984
G1 X210.804 Y16.58 E6.29612
G1 X211.319 Y17.178 E6.32236
G1 X211.77 Y17.826 E6.34862
G1 X212.154 Y18.517 E6.37492
G1 X212.466 Y19.242 E6.40117
G1 X212.703 Y19.995 E6.42742
G1 X212.862 Y20.769 E6.4537
G1 X212.953 Y21.942 E6.49284
G1 X213.069 Y84.79 E8.58317
G1 X213.069 Y84.803 E8.5836
G1 X213.07 Y91.187 E8.79594
G1 X213.03 Y91.975 E8.82218
G1 X212.911 Y92.756 E8.84846
G1 X212.713 Y93.521 E8.87474
G1 X212.439 Y94.261 E8.90098
G1 X212.092 Y94.97 E8.92724
G1 X211.674 Y95.641 E8.95353
G1 X211.191 Y96.265 E8.97978
G1 X210.785 Y96.703 E8.99964
G1 X210.668 Y96.82 E9.00514
G1 X210.082 Y97.35 E9.03142
G1 X209.446 Y97.817 E9.05767
G1 X208.766 Y98.218 E9.08392
G1 X208.048 Y98.548 E9.11021
G1 X207.301 Y98.803 E9.13646
G1 X206.532 Y98.982 E9.16272
G1 X205.748 Y99.082 E9.18901
G1 X205.153 Y99.105 E9.20881
G1 X46.344 Y99.104 E14.49082
G1 X29.847 Y99.105 E15.03951
G1 X29.058 Y99.065 E15.06579
G1 X28.278 Y98.946 E15.09203
G1 X27.513 Y98.748 E15.11832
G1 X26.773 Y98.474 E15.14456
G1 X26.064 Y98.126 E15.17083
G1 X25.393 Y97.708 E15.19712
G1 X24.769 Y97.225 E15.22337
G1 X24.332 Y96.82 E15.24319
G1 X24.215 Y96.703 E15.24869
G1 X23.685 Y96.117 E15.27497
G1 X23.218 Y95.481 E15.30121
G1 X22.817 Y94.801 E15.32747
G1 X22.487 Y94.083 E15.35375
G1 X22.232 Y93.336 E15.38
G1 X22.053 Y92.567 E15.40626
G1 X21.953 Y91.783 E15.43255
G1 X21.93 Y91.188 E15.45236
G1 X21.931 Y28.457 E17.5388
G1 X21.93 Y22.074 E17.7511
G1 X21.97 Y21.286 E17.77734
G1 X22.089 Y20.505 E17.80362
G1 X22.287 Y19.74 E17.8299
G1 X22.561 Y19 E17.85614
G1 X22.908 Y18.291 E17.8824
G1 X23.326 Y17.62 E17.90869
G0 F6000 X23.724 Y17.751
G1 F1200 X24.205 Y17.151 E17.93427
G1 X24.497 Y16.84 E17.94846
G1 X24.614 Y16.723 E17.95396
G1 X25.186 Y16.209 E17.97954
G1 X25.808 Y15.756 E18.00513
G1 X26.473 Y15.37 E18.03071
G1 X27.175 Y15.055 E18.0563
G1 X27.906 Y14.815 E18.08189
G1 X28.657 Y14.652 E18.10745
G1 X29.422 Y14.568 E18.13304
G1 X29.847 Y14.556 E18.14718
G1 X188.656 Y14.557 E23.42919
G1 X205.153 Y14.556 E23.97789
G1 X205.921 Y14.596 E24.00346
G1 X206.681 Y14.715 E24.02905
G1 X207.424 Y14.913 E24.05462
G1 X208.143 Y15.187 E24.08022
G1 X208.83 Y15.534 E24.10582
G1 X209.476 Y15.95 E24.13137
G1 X210.076 Y16.431 E24.15695
G1 X210.623 Y16.972 E24.18254
G1 X211.111 Y17.567 E24.20813
G1 X211.534 Y18.209 E24.2337
G1 X211.889 Y18.892 E24.2593
G1 X212.17 Y19.608 E24.28489
G1 X212.376 Y20.349 E24.31047
G1 X212.504 Y21.107 E24.33604
G1 X212.553 Y21.942 E24.36386
G1 X212.669 Y84.79 E26.45419
G1 X212.669 Y84.803 E26.45462
G1 X212.67 Y91.187 E26.66696
G1 X212.63 Y91.955 E26.69254
G1 X212.511 Y92.715 E26.71812
G1 X212.313 Y93.458 E26.7437
G1 X212.04 Y94.177 E26.76928
G1 X211.693 Y94.863 E26.79485
G1 X211.276 Y95.51 E26.82045
G1 X210.795 Y96.11 E26.84602
G1 X210.503 Y96.421 E26.86021
G1 X210.386 Y96.538 E26.86572
G1 X209.814 Y97.052 E26.89129
G1 X209.192 Y97.505 E26.91689
G1 X208.527 Y97.891 E26.94246
G1 X207.825 Y98.206 E26.96805
G1 X207.094 Y98.446 E26.99364
G1 X206.343 Y98.609 E27.0192
G1 X205.578 Y98.693 E27.0448
G1 X205.153 Y98.705 E27.05894
G1 X46.344 Y98.704 E32.34095
G1 X29.847 Y98.705 E32.88964
G1 X29.079 Y98.665 E32.91522
G1 X28.319 Y98.546 E32.94081
G1 X27.576 Y98.348 E32.96638
G1 X26.857 Y98.074 E32.99197
G1 X26.17 Y97.727 E33.01757
G1 X25.524 Y97.311 E33.04313
G1 X24.924 Y96.83 E33.0687
G1 X24.614 Y96.538 E33.08287
G1 X24.497 Y96.421 E33.08837
G1 X23.983 Y95.849 E33.11395
G1 X23.53 Y95.227 E33.13954
G1 X23.144 Y94.562 E33.16512
G1 X22.829 Y93.86 E33.19071
G1 X22.589 Y93.129 E33.2163
G1 X22.426 Y92.378 E33.24186
G1 X22.342 Y91.613 E33.26745
G1 X22.33 Y91.188 E33.28159
G1 X22.331 Y28.457 E35.36804
G1 X22.33 Y22.074 E35.58034
G1 X22.37 Y21.306 E35.60591
G1 X22.489 Y20.546 E35.6315
G1 X22.687 Y19.803 E35.65707
G1 X22.96 Y19.084 E35.68265
G1 X23.307 Y18.398 E35.70822
G1 X23.724 Y17.751 E35.73383
G0 F6000 X24.121 Y17.885
G1 F1200 X24.78 Y17.123 E35.76733
G1 X24.897 Y17.006 E35.77284
G1 X25.454 Y16.506 E35.79773
G1 X26.06 Y16.069 E35.82258
G1 X26.71 Y15.698 E35.84747
G1 X27.396 Y15.399 E35.87236
G1 X28.11 Y15.175 E35.89725
G1 X28.843 Y15.028 E35.92212
G1 X29.847 Y14.956 E35.9556
G1 X188.656 Y14.957 E41.23761
G1 X205.153 Y14.956 E41.7863
G1 X205.9 Y14.996 E41.81118
G1 X206.639 Y15.115 E41.83607
G1 X207.36 Y15.313 E41.86094
G1 X208.056 Y15.586 E41.88581
G1 X208.719 Y15.933 E41.9107
G1 X209.342 Y16.348 E41.9356
G1 X209.916 Y16.827 E41.96046
G1 X210.437 Y17.364 E41.98535
G1 X210.896 Y17.954 E42.01021
G1 X211.291 Y18.59 E42.03511
G1 X211.615 Y19.264 E42.05998
G1 X211.865 Y19.969 E42.08486
G1 X212.039 Y20.697 E42.10976
G1 X212.134 Y21.439 E42.13464
G1 X212.153 Y21.943 E42.15141
G1 X212.269 Y84.791 E44.24175
G1 X212.269 Y84.803 E44.24215
G1 X212.27 Y91.187 E44.45448
G1 X212.23 Y91.934 E44.47936
G1 X212.111 Y92.672 E44.50423
G1 X211.913 Y93.394 E44.52913
G1 X211.64 Y94.09 E44.55399
G1 X211.294 Y94.753 E44.57887
G1 X210.879 Y95.376 E44.60376
G1 X210.22 Y96.138 E44.63727
G1 X210.103 Y96.255 E44.64277
G1 X209.546 Y96.755 E44.66767
G1 X208.94 Y97.192 E44.69252
G1 X208.29 Y97.563 E44.71741
G1 X207.604 Y97.862 E44.7423
G1 X206.89 Y98.086 E44.76719
G1 X206.157 Y98.233 E44.79205
G1 X205.153 Y98.305 E44.82553
G1 X46.344 Y98.304 E50.10754
G1 X29.847 Y98.305 E50.65624
G1 X29.1 Y98.265 E50.68112
G1 X28.361 Y98.146 E50.70601
G1 X27.64 Y97.948 E50.73088
G1 X26.944 Y97.675 E50.75575
G1 X26.281 Y97.328 E50.78064
G1 X25.658 Y96.913 E50.80553
G1 X24.897 Y96.255 E50.83899
G1 X24.78 Y96.138 E50.8445
G1 X24.28 Y95.581 E50.86939
G1 X23.843 Y94.975 E50.89424
G1 X23.472 Y94.325 E50.91913
G1 X23.173 Y93.639 E50.94402
G1 X22.949 Y92.925 E50.96891
G1 X22.802 Y92.192 E50.99378
G1 X22.73 Y91.188 E51.02726
G1 X22.731 Y28.457 E53.1137
G1 X22.73 Y22.074 E53.326
G1 X22.77 Y21.327 E53.35088
G1 X22.889 Y20.589 E53.37574
G1 X23.087 Y19.867 E53.40064
G1 X23.36 Y19.171 E53.42551
G1 X23.706 Y18.508 E53.45038
G1 X24.121 Y17.885 E53.47528
G0 F6000 X24.518 Y18.024
G1 F1200 X25.063 Y17.406 E53.50269
G1 X25.18 Y17.289 E53.50819
G1 X25.721 Y16.805 E53.53233
G1 X26.312 Y16.382 E53.55651
G1 X26.946 Y16.028 E53.58066
G1 X27.615 Y15.745 E53.60482
G1 X28.311 Y15.537 E53.62898
G1 X29.026 Y15.407 E53.65315
G1 X29.847 Y15.356 E53.68051
G1 X188.656 Y15.357 E58.96252
G1 X205.153 Y15.356 E59.51121
G1 X205.878 Y15.396 E59.53536
G1 X206.595 Y15.515 E59.55953
G1 X207.294 Y15.713 E59.5837
G1 X207.967 Y15.986 E59.60785
G1 X208.606 Y16.331 E59.632
G1 X209.203 Y16.745 E59.65617
G1 X209.751 Y17.221 E59.68031
G1 X210.244 Y17.755 E59.70448
G1 X210.674 Y18.34 E59.72863
G1 X211.038 Y18.969 E59.7528
G1 X211.331 Y19.634 E59.77697
G1 X211.549 Y20.327 E59.80114
G1 X211.689 Y21.039 E59.82527
G1 X211.753 Y21.944 E59.85545
G1 X211.869 Y84.792 E61.94578
G1 X211.869 Y84.803 E61.94615
G1 X211.87 Y91.187 E62.15848
G1 X211.83 Y91.912 E62.18263
G1 X211.711 Y92.629 E62.2068
G1 X211.514 Y93.328 E62.23096
G1 X211.241 Y94.001 E62.25511
G1 X210.895 Y94.64 E62.27928
G1 X210.482 Y95.237 E62.30343
G1 X209.937 Y95.855 E62.33083
G1 X209.82 Y95.972 E62.33634
G1 X209.279 Y96.456 E62.36048
G1 X208.688 Y96.879 E62.38465
G1 X208.054 Y97.233 E62.40881
G1 X207.385 Y97.516 E62.43297
G1 X206.689 Y97.724 E62.45713
G1 X205.974 Y97.854 E62.4813
G1 X205.153 Y97.905 E62.50866
G1 X46.344 Y97.904 E67.79066
G1 X29.847 Y97.905 E68.33936
G1 X29.122 Y97.865 E68.36351
G1 X28.405 Y97.746 E68.38768
G1 X27.706 Y97.548 E68.41184
G1 X27.033 Y97.275 E68.436
G1 X26.394 Y96.93 E68.46015
G1 X25.797 Y96.516 E68.48432
G1 X25.18 Y95.972 E68.51168
G1 X25.063 Y95.855 E68.51718
G1 X24.579 Y95.314 E68.54132
G1 X24.156 Y94.723 E68.5655
G1 X23.802 Y94.089 E68.58965
G1 X23.519 Y93.42 E68.61381
G1 X23.311 Y92.724 E68.63797
G1 X23.181 Y92.009 E68.66214
G1 X23.13 Y91.188 E68.6895
G1 X23.131 Y28.457 E70.77594
G1 X23.13 Y22.074 E70.98824
G1 X23.17 Y21.349 E71.01239
G1 X23.289 Y20.632 E71.03656
G1 X23.486 Y19.933 E71.06072
G1 X23.759 Y19.26 E71.08487
G1 X24.105 Y18.621 E71.10904
G1 X24.518 Y18.024 E71.13319
G0 F6000 X24.503 Y18.738
G1 F1200 X24.915 Y18.167 E71.15661
G1 X25.346 Y17.689 E71.17801
G1 X25.463 Y17.572 E71.18352
G1 X25.988 Y17.103 E71.20693
G1 X26.563 Y16.697 E71.23034
G1 X27.181 Y16.359 E71.25377
G1 X27.832 Y16.092 E71.27717
G1 X28.51 Y15.902 E71.30059
G1 X29.205 Y15.789 E71.32401
G1 X29.847 Y15.756 E71.34539
G1 X188.656 Y15.757 E76.6274
G1 X205.153 Y15.756 E77.17609
G1 X205.856 Y15.796 E77.19951
G1 X206.55 Y15.915 E77.22293
G1 X207.225 Y16.113 E77.24633
G1 X207.875 Y16.385 E77.26976
G1 X208.489 Y16.73 E77.29319
G1 X209.059 Y17.141 E77.31656
G1 X209.58 Y17.615 E77.33999
G1 X210.044 Y18.145 E77.36342
G1 X210.444 Y18.724 E77.38682
G1 X210.776 Y19.345 E77.41024
G1 X211.036 Y19.999 E77.43365
G1 X211.22 Y20.679 E77.45708
G1 X211.326 Y21.375 E77.4805
G1 X211.353 Y21.945 E77.49948
G1 X211.469 Y84.793 E79.58982
G1 X211.469 Y84.803 E79.59015
G1 X211.47 Y91.187 E79.80248
G1 X211.43 Y91.89 E79.8259
G1 X211.311 Y92.584 E79.84932
G1 X211.114 Y93.26 E79.87274
G1 X210.841 Y93.909 E79.89616
G1 X210.497 Y94.523 E79.91957
G1 X210.085 Y95.094 E79.94298
G1 X209.654 Y95.572 E79.96439
G1 X209.537 Y95.689 E79.96989
G1 X209.012 Y96.158 E79.99331
G1 X208.437 Y96.564 E80.01672
G1 X207.819 Y96.902 E80.04015
G1 X207.168 Y97.169 E80.06355
G1 X206.49 Y97.359 E80.08697
G1 X205.795 Y97.472 E80.11039
G1 X205.153 Y97.505 E80.13177
G1 X46.344 Y97.504 E85.41378
G1 X29.847 Y97.505 E85.96247
G1 X29.144 Y97.465 E85.98589
G1 X28.45 Y97.346 E86.00931
G1 X27.775 Y97.148 E86.03271
G1 X27.125 Y96.876 E86.05614
G1 X26.511 Y96.531 E86.07957
G1 X25.941 Y96.12 E86.10294
G1 X25.463 Y95.689 E86.12435
G1 X25.346 Y95.572 E86.12985
G1 X24.877 Y95.047 E86.15327
G1 X24.471 Y94.472 E86.17668
G1 X24.133 Y93.854 E86.2001
G1 X23.866 Y93.203 E86.22351
G1 X23.676 Y92.525 E86.24693
G1 X23.563 Y91.83 E86.27035
G1 X23.53 Y91.188 E86.29173
G1 X23.531 Y28.457 E88.37817
G1 X23.53 Y22.074 E88.59047
G1 X23.57 Y21.371 E88.61389
G1 X23.689 Y20.677 E88.63731
G1 X23.886 Y20.001 E88.66073
G1 X24.159 Y19.352 E88.68414
G1 X24.503 Y18.738 E88.70755
G0 F6000 X24.901 Y18.86
G1 F1200 X25.311 Y18.316 E88.73021
G1 X25.629 Y17.972 E88.74579
G1 X25.746 Y17.855 E88.75129
G1 X26.255 Y17.402 E88.77396
G1 X26.813 Y17.013 E88.79658
G1 X27.413 Y16.691 E88.81923
G1 X28.047 Y16.442 E88.84188
G1 X28.706 Y16.269 E88.86455
G1 X29.38 Y16.175 E88.88718
G1 X29.847 Y16.156 E88.90272
G1 X188.656 Y16.157 E94.18473
G1 X205.153 Y16.156 E94.73343
G1 X205.833 Y16.196 E94.75608
G1 X206.503 Y16.315 E94.77872
G1 X207.155 Y16.512 E94.80137
G1 X207.779 Y16.785 E94.82402
G1 X208.367 Y17.128 E94.84666
G1 X208.911 Y17.538 E94.86932
G1 X209.402 Y18.009 E94.89195
G1 X209.836 Y18.534 E94.91461
G1 X210.205 Y19.106 E94.93725
G1 X210.504 Y19.718 E94.9599
G1 X210.729 Y20.36 E94.98253
G1 X210.878 Y21.025 E95.00519
G1 X210.953 Y21.945 E95.03589
G1 X211.069 Y84.793 E97.12623
G1 X211.069 Y84.803 E97.12656
G1 X211.07 Y91.187 E97.3389
G1 X211.03 Y91.867 E97.36155
G1 X210.911 Y92.537 E97.38419
G1 X210.714 Y93.189 E97.40684
G1 X210.442 Y93.813 E97.42948
G1 X210.099 Y94.401 E97.45212
G1 X209.689 Y94.945 E97.47478
G1 X209.371 Y95.289 E97.49036
G1 X209.254 Y95.406 E97.49586
G1 X208.745 Y95.859 E97.51852
G1 X208.187 Y96.248 E97.54115
G1 X207.587 Y96.57 E97.5638
G1 X206.953 Y96.819 E97.58645
G1 X206.294 Y96.992 E97.60911
G1 X205.62 Y97.086 E97.63175
G1 X205.153 Y97.105 E97.64729
G1 X46.344 Y97.104 E102.9293
G1 X29.847 Y97.105 E103.47799
G1 X29.167 Y97.065 E103.50065
G1 X28.497 Y96.946 E103.52328
G1 X27.845 Y96.749 E103.54594
G1 X27.221 Y96.476 E103.56859
G1 X26.633 Y96.133 E103.59123
G1 X26.089 Y95.723 E103.61389
G1 X25.746 Y95.406 E103.62942
G1 X25.629 Y95.289 E103.63493
G1 X25.176 Y94.78 E103.65759
G1 X24.787 Y94.222 E103.68021
G1 X24.465 Y93.622 E103.70286
G1 X24.216 Y92.988 E103.72552
G1 X24.043 Y92.329 E103.74818
G1 X23.949 Y91.655 E103.77081
G1 X23.93 Y91.188 E103.78636
G1 X23.931 Y28.457 E105.8728
G1 X23.93 Y22.074 E106.0851
G1 X23.97 Y21.394 E106.10775
G1 X24.089 Y20.724 E106.13039
G1 X24.286 Y20.072 E106.15304
G1 X24.558 Y19.448 E106.17568
G1 X24.901 Y18.86 E106.19832
G0 F6000 X25.3 Y18.985
G1 F1200 X25.912 Y18.255 E106.23001
G1 X26.029 Y18.138 E106.23551
G1 X26.521 Y17.702 E106.25737
G1 X27.062 Y17.33 E106.27921
G1 X27.644 Y17.026 E106.30105
G1 X28.259 Y16.795 E106.3229
G1 X28.898 Y16.64 E106.34477
G1 X29.847 Y16.556 E106.37646
G1 X188.656 Y16.557 E111.65847
G1 X205.153 Y16.556 E112.20716
G1 X205.809 Y16.596 E112.22902
G1 X206.455 Y16.715 E112.25087
G1 X207.082 Y16.912 E112.27272
G1 X207.68 Y17.184 E112.29458
G1 X208.241 Y17.526 E112.31643
G1 X208.756 Y17.934 E112.33828
G1 X209.218 Y18.401 E112.36013
G1 X209.619 Y18.921 E112.38197
G1 X209.955 Y19.486 E112.40383
G1 X210.219 Y20.087 E112.42567
G1 X210.409 Y20.716 E112.44752
G1 X210.52 Y21.363 E112.46935
G1 X210.553 Y21.946 E112.48878
G1 X210.669 Y84.794 E114.57911
G1 X210.669 Y84.803 E114.57941
G1 X210.67 Y91.187 E114.79175
G1 X210.63 Y91.843 E114.8136
G1 X210.511 Y92.489 E114.83545
G1 X210.314 Y93.116 E114.85731
G1 X210.043 Y93.714 E114.87915
G1 X209.701 Y94.275 E114.901
G1 X209.088 Y95.006 E114.93273
G1 X208.971 Y95.123 E114.93823
G1 X208.479 Y95.559 E114.9601
G1 X207.938 Y95.931 E114.98194
G1 X207.356 Y96.235 E115.00378
G1 X206.741 Y96.466 E115.02563
G1 X206.102 Y96.621 E115.0475
G1 X205.153 Y96.705 E115.07918
G1 X46.344 Y96.704 E120.36119
G1 X29.847 Y96.705 E120.90988
G1 X29.191 Y96.665 E120.93174
G1 X28.545 Y96.546 E120.95359
G1 X27.918 Y96.349 E120.97545
G1 X27.32 Y96.077 E120.9973
G1 X26.759 Y95.735 E121.01915
G1 X26.029 Y95.123 E121.05084
G1 X25.912 Y95.006 E121.05634
G1 X25.476 Y94.514 E121.0782
G1 X25.104 Y93.973 E121.10004
G1 X24.8 Y93.391 E121.12188
G1 X24.569 Y92.776 E121.14373
G1 X24.414 Y92.137 E121.1656
G1 X24.33 Y91.188 E121.19729
G1 X24.331 Y28.457 E123.28373
G1 X24.33 Y22.073 E123.49606
G1 X24.37 Y21.417 E123.51792
G1 X24.489 Y20.771 E123.53977
G1 X24.686 Y20.144 E123.56163
G1 X24.958 Y19.546 E123.58348
G1 X25.3 Y18.985 E123.60533
G0 F6000 X25.697 Y19.117
G1 F1200 X26.194 Y18.537 E123.63074
G1 X26.311 Y18.42 E123.63624
G1 X26.786 Y18.003 E123.65726
G1 X27.309 Y17.648 E123.67829
G1 X27.873 Y17.362 E123.69932
G1 X28.468 Y17.15 E123.72033
G1 X29.086 Y17.014 E123.74137
G1 X29.847 Y16.956 E123.76676
G1 X188.656 Y16.957 E129.04877
G1 X205.153 Y16.956 E129.59746
G1 X205.784 Y16.996 E129.61849
G1 X206.405 Y17.115 E129.63952
G1 X207.005 Y17.312 E129.66052
G1 X207.577 Y17.583 E129.68157
G1 X208.109 Y17.923 E129.70257
G1 X208.594 Y18.329 E129.72361
G1 X209.024 Y18.792 E129.74463
G1 X209.393 Y19.306 E129.76567
G1 X209.693 Y19.862 E129.78669
G1 X209.921 Y20.451 E129.80769
G1 X210.073 Y21.065 E129.82873
