;FLAVOR:Marlin
;TIME:558
;Filament used: 0.30296m
;Layer height: 0.15
;MINX:56.525
;MINY:94.531
;MINZ:0.2
;MAXX:163.474
;MAXY:127.684
;MAXZ:1.25
;Generated with Cura_SteamEngine 4.1.0
M140 S60
M105
M190 S60
M104 S228
M105
M109 S228
M82 ;absolute extrusion mode
; Ender 3 Custom Start G-code
G28 ; Home all axes
G92 E0 ; Reset Extruder
G1 Z2.0 F3000 ; Move Z Axis up little to prevent scratching of Heat Bed
G1 X0.1 Y20 Z0.3 F5000.0 ; Move to start position
G1 X0.1 Y200.0 Z0.3 F1500.0 E15 ; Draw the first line
G1 X0.4 Y200.0 Z0.3 F5000.0 ; Move to side a little
G1 X0.4 Y20 Z0.3 F1500.0 E30 ; Draw the second line
G92 E0 ; Reset Extruder
G1 Z2.0 F3000 ; Move Z Axis up little to prevent scratching of Heat Bed
; End of custom start GCode
G92 E0
G92 E0
G1 F2400 E-5
;LAYER_COUNT:8
;LAYER:0
M107
M204 S500
M205 X10 Y10
G0 F3600 X59.873 Y95.379 Z0.2
;TYPE:SKIRT
G1 F2400 E0
G1 F1800 X60.514 Y95.061 E0.0238
G1 X61.186 Y94.817 E0.04758
G1 X61.881 Y94.649 E0.07136
G1 X62.829 Y94.548 E0.10307
G1 X63.144 Y94.538 E0.11355
G1 X63.33 Y94.535 E0.11974
G1 X64.85 Y94.531 E0.17029
G1 X64.886 Y94.531 E0.17149
G1 X66.563 Y94.536 E0.22727
G1 X120.486 Y94.535 E2.02075
G1 X156.267 Y94.535 E3.21084
G1 X156.358 Y94.536 E3.21386
G1 X157.059 Y94.546 E3.23718
G1 X157.773 Y94.596 E3.26099
G1 X158.476 Y94.725 E3.28476
G1 X159.161 Y94.932 E3.30856
G1 X159.818 Y95.215 E3.33235
G1 X160.44 Y95.568 E3.35614
G1 X161.018 Y95.989 E3.37992
G1 X161.546 Y96.472 E3.40372
G1 X162.016 Y97.011 E3.42751
G1 X162.424 Y97.599 E3.45131
G1 X162.763 Y98.229 E3.47511
G1 X163.03 Y98.893 E3.49891
G1 X163.118 Y99.153 E3.50804
G1 X163.309 Y99.842 E3.53182
G1 X163.449 Y100.901 E3.56735
G1 X163.465 Y101.237 E3.57854
G1 X163.472 Y101.529 E3.58825
G1 X163.474 Y102.635 E3.62504
G1 X163.474 Y102.726 E3.62806
G1 X163.452 Y104.499 E3.68704
G1 X163.45 Y104.593 E3.69017
G1 X163.432 Y105.252 E3.71209
G1 X163.436 Y107.916 E3.8007
G1 X163.469 Y109.309 E3.84704
G1 X163.471 Y109.445 E3.85157
G1 X163.474 Y110.623 E3.89075
G1 X163.474 Y110.717 E3.89387
G1 X163.465 Y111.452 E3.91832
G1 X163.416 Y112.166 E3.94213
G1 X163.288 Y112.87 E3.96592
G1 X163.082 Y113.555 E3.98972
G1 X162.801 Y114.212 E4.01348
G1 X162.449 Y114.835 E4.03728
G1 X162.029 Y115.414 E4.06107
G1 X161.547 Y115.943 E4.08488
G1 X161.009 Y116.414 E4.10866
G1 X160.422 Y116.823 E4.13245
G1 X159.793 Y117.163 E4.15623
G1 X159.13 Y117.432 E4.18003
G1 X158.441 Y117.624 E4.20382
G1 X157.804 Y117.731 E4.2253
G1 X156.978 Y117.827 E4.25296
G1 X156.885 Y117.837 E4.25607
G1 X155.847 Y117.942 E4.29077
G1 X153.218 Y118.286 E4.37896
G1 X150.604 Y118.702 E4.467
G1 X148.009 Y119.191 E4.55483
G1 X145.448 Y119.749 E4.642
G1 X142.837 Y120.395 E4.73146
G1 X140.309 Y121.098 E4.81874
G1 X137.751 Y121.888 E4.90778
G1 X135.279 Y122.728 E4.99462
G1 X132.765 Y123.662 E5.08382
G1 X130.334 Y124.646 E5.17104
G1 X127.892 Y125.714 E5.25969
G1 X125.963 Y126.617 E5.33053
G1 X125.459 Y126.86 E5.34914
G1 X125.146 Y127.001 E5.36056
G1 X124.784 Y127.152 E5.37361
G1 X124.109 Y127.39 E5.39741
G1 X123.413 Y127.551 E5.42117
G1 X122.877 Y127.621 E5.43915
G1 X122.419 Y127.661 E5.45444
G1 X121.669 Y127.682 E5.4794
G1 X120.812 Y127.656 E5.50792
G1 X118.143 Y127.613 E5.5967
G1 X113.994 Y127.684 E5.73471
G1 X113.605 Y127.679 E5.74765
G1 X110.931 Y127.562 E5.83668
G1 X108.302 Y127.521 E5.92413
G1 X106.006 Y127.543 E6.0005
G1 X105.876 Y127.543 E6.00482
G1 X104.586 Y127.529 E6.04773
G1 X101.947 Y127.538 E6.1355
G1 X98.116 Y127.68 E6.26301
G1 X97.401 Y127.666 E6.2868
G1 X96.355 Y127.5 E6.32202
G1 X96.004 Y127.414 E6.33404
G1 X95.32 Y127.205 E6.35783
G1 X94.786 Y126.981 E6.37709
G1 X94.475 Y126.834 E6.38853
G1 X92.001 Y125.67 E6.47947
G1 X89.566 Y124.607 E6.56784
G1 X87.072 Y123.599 E6.65731
G1 X84.646 Y122.703 E6.74332
G1 X82.138 Y121.854 E6.83139
G1 X79.59 Y121.069 E6.92007
G1 X77.05 Y120.366 E7.00772
G1 X74.46 Y119.727 E7.09645
G1 X71.879 Y119.166 E7.1843
G1 X69.27 Y118.68 E7.27257
G1 X66.671 Y118.268 E7.36009
G1 X64.006 Y117.923 E7.44947
G1 X62.269 Y117.739 E7.50757
G1 X61.563 Y117.625 E7.53135
G1 X60.874 Y117.432 E7.55515
G1 X60.211 Y117.163 E7.57895
G1 X59.582 Y116.822 E7.60274
G1 X58.995 Y116.413 E7.62654
G1 X58.458 Y115.941 E7.65032
G1 X57.976 Y115.413 E7.6741
G1 X57.557 Y114.833 E7.6979
G1 X57.205 Y114.211 E7.72167
G1 X56.924 Y113.553 E7.74546
G1 X56.719 Y112.868 E7.76924
G1 X56.591 Y112.164 E7.79304
G1 X56.55 Y111.7 E7.80854
G1 X56.533 Y111.366 E7.81966
G1 X56.525 Y111.041 E7.83047
G1 X56.525 Y109.958 E7.86649
G1 X56.526 Y109.866 E7.86955
G1 X56.552 Y108.056 E7.92976
G1 X56.554 Y107.962 E7.93289
G1 X56.564 Y107.616 E7.9444
G1 X56.566 Y104.925 E8.0339
G1 X56.527 Y103.183 E8.09186
G1 X56.525 Y103.04 E8.09661
G1 X56.525 Y101.959 E8.13257
G1 X56.526 Y101.863 E8.13576
G1 X56.536 Y101.197 E8.15792
G1 X56.586 Y100.483 E8.18172
G1 X56.77 Y99.575 E8.21254
G1 X56.867 Y99.227 E8.22455
G1 X57.097 Y98.549 E8.24836
G1 X57.402 Y97.902 E8.27215
G1 X57.776 Y97.293 E8.29592
G1 X58.217 Y96.729 E8.31974
G1 X58.717 Y96.218 E8.34352
G1 X59.272 Y95.766 E8.36732
G1 X59.873 Y95.379 E8.3911
G0 F3600 X60.205 Y95.653
G1 F1800 X60.834 Y95.362 E8.41415
G1 X61.492 Y95.146 E8.43718
G1 X62.17 Y95.007 E8.4602
G1 X62.842 Y94.948 E8.48264
G1 X63.157 Y94.938 E8.49312
G1 X63.331 Y94.935 E8.49891
G1 X64.851 Y94.931 E8.54946
G1 X64.885 Y94.931 E8.55059
G1 X66.562 Y94.936 E8.60637
G1 X120.486 Y94.935 E10.39989
G1 X156.267 Y94.935 E11.58997
G1 X156.353 Y94.936 E11.59283
G1 X157.054 Y94.946 E11.61615
G1 X157.744 Y94.995 E11.63916
G1 X158.425 Y95.125 E11.66222
G1 X159.086 Y95.331 E11.68525
G1 X159.718 Y95.613 E11.70826
G1 X160.315 Y95.965 E11.73131
G1 X160.866 Y96.384 E11.75434
G1 X161.366 Y96.863 E11.77737
G1 X161.807 Y97.397 E11.8004
G1 X162.183 Y97.979 E11.82345
G1 X162.49 Y98.599 E11.84646
G1 X162.651 Y99.021 E11.86148
G1 X162.739 Y99.281 E11.87061
G1 X162.923 Y99.949 E11.89366
G1 X163.049 Y100.92 E11.92622
G1 X163.065 Y101.256 E11.93741
G1 X163.072 Y101.53 E11.94653
G1 X163.074 Y102.636 E11.98331
G1 X163.074 Y102.721 E11.98614
G1 X163.052 Y104.494 E12.04511
G1 X163.05 Y104.583 E12.04807
G1 X163.032 Y105.242 E12.07
G1 X163.036 Y107.926 E12.15927
G1 X163.069 Y109.318 E12.20558
G1 X163.071 Y109.446 E12.20984
G1 X163.074 Y110.624 E12.24902
G1 X163.074 Y110.712 E12.25195
G1 X163.065 Y111.447 E12.2764
G1 X163.016 Y112.138 E12.29944
G1 X162.888 Y112.819 E12.32248
G1 X162.683 Y113.48 E12.3455
G1 X162.403 Y114.114 E12.36855
G1 X162.052 Y114.711 E12.39159
G1 X161.634 Y115.263 E12.41462
G1 X161.155 Y115.764 E12.43767
G1 X160.622 Y116.206 E12.4607
G1 X160.042 Y116.583 E12.48371
G1 X159.422 Y116.892 E12.50675
G1 X158.77 Y117.127 E12.5298
G1 X157.758 Y117.334 E12.56416
G1 X156.932 Y117.43 E12.59181
G1 X156.845 Y117.439 E12.59472
G1 X155.826 Y117.542 E12.62879
G1 X153.135 Y117.894 E12.71905
G1 X150.539 Y118.307 E12.80648
G1 X147.921 Y118.801 E12.89509
G1 X145.372 Y119.356 E12.98186
G1 X142.739 Y120.008 E13.07208
G1 X140.189 Y120.716 E13.1601
G1 X137.641 Y121.503 E13.2488
G1 X135.125 Y122.358 E13.33718
G1 X132.644 Y123.281 E13.42523
G1 X130.172 Y124.28 E13.5139
G1 X127.71 Y125.358 E13.6033
G1 X125.799 Y126.253 E13.67348
G1 X125.285 Y126.5 E13.69245
G1 X124.992 Y126.632 E13.70314
G1 X124.63 Y126.783 E13.71618
G1 X123.976 Y127.012 E13.73923
G1 X123.301 Y127.164 E13.76224
G1 X122.842 Y127.222 E13.77763
G1 X122.384 Y127.262 E13.79292
G1 X121.681 Y127.282 E13.81631
G1 X120.831 Y127.256 E13.8446
G1 X118.142 Y127.213 E13.93405
G1 X113.987 Y127.284 E14.07226
G1 X113.623 Y127.279 E14.08437
G1 X110.955 Y127.163 E14.17319
G1 X108.305 Y127.121 E14.26134
G1 X106.002 Y127.143 E14.33794
G1 X105.88 Y127.143 E14.342
G1 X104.589 Y127.129 E14.38494
G1 X101.93 Y127.138 E14.47338
G1 X98.101 Y127.28 E14.60082
G1 X97.408 Y127.266 E14.62388
G1 X96.45 Y127.112 E14.65615
G1 X96.099 Y127.026 E14.66817
G1 X95.437 Y126.822 E14.69121
G1 X94.957 Y126.62 E14.70853
G1 X94.63 Y126.465 E14.72057
G1 X92.167 Y125.305 E14.81112
G1 X89.727 Y124.241 E14.89965
G1 X87.234 Y123.233 E14.98909
G1 X84.753 Y122.316 E15.07706
G1 X82.257 Y121.471 E15.16471
G1 X79.7 Y120.684 E15.25369
G1 X77.147 Y119.977 E15.3418
G1 X74.57 Y119.342 E15.43008
G1 X71.94 Y118.77 E15.5196
G1 X69.364 Y118.29 E15.60675
G1 X66.714 Y117.87 E15.69599
G1 X64.103 Y117.532 E15.78356
G1 X62.311 Y117.342 E15.84349
G1 X61.628 Y117.229 E15.86652
G1 X60.962 Y117.039 E15.88955
G1 X60.322 Y116.773 E15.9126
G1 X59.718 Y116.435 E15.93562
G1 X59.156 Y116.03 E15.95866
G1 X58.645 Y115.563 E15.98169
G1 X58.191 Y115.039 E16.00475
G1 X57.8 Y114.468 E16.02777
G1 X57.478 Y113.855 E16.0508
G1 X57.229 Y113.208 E16.07385
G1 X57.056 Y112.538 E16.09687
G1 X56.95 Y111.68 E16.12562
G1 X56.933 Y111.346 E16.13675
G1 X56.925 Y111.041 E16.14689
G1 X56.925 Y109.958 E16.18292
G1 X56.926 Y109.872 E16.18578
G1 X56.952 Y108.062 E16.24598
G1 X56.954 Y107.974 E16.24891
G1 X56.964 Y107.628 E16.26042
G1 X56.966 Y104.916 E16.35063
G1 X56.927 Y103.174 E16.40858
G1 X56.925 Y103.04 E16.41304
G1 X56.925 Y101.959 E16.44899
G1 X56.926 Y101.869 E16.45198
G1 X56.936 Y101.203 E16.47414
G1 X56.986 Y100.512 E16.49718
G1 X57.155 Y99.682 E16.52535
G1 X57.252 Y99.334 E16.53737
G1 X57.476 Y98.679 E16.56039
G1 X57.775 Y98.054 E16.58344
G1 X58.143 Y97.467 E16.60648
G1 X58.576 Y96.927 E16.6295
G1 X59.069 Y96.44 E16.65255
G1 X59.614 Y96.014 E16.67556
G1 X60.205 Y95.653 E16.69859
G0 F3600 X60.535 Y95.933
G1 F1800 X61.151 Y95.671 E16.72086
G1 X61.793 Y95.484 E16.7431
G1 X62.453 Y95.375 E16.76534
G1 X62.854 Y95.348 E16.77871
G1 X63.169 Y95.338 E16.78919
G1 X63.332 Y95.335 E16.79462
G1 X64.852 Y95.331 E16.84517
G1 X64.884 Y95.331 E16.84624
G1 X66.561 Y95.336 E16.90201
G1 X120.486 Y95.335 E18.69557
G1 X156.267 Y95.335 E19.88565
G1 X156.347 Y95.336 E19.88831
G1 X157.048 Y95.346 E19.91163
G1 X157.715 Y95.395 E19.93387
G1 X158.372 Y95.524 E19.95614
G1 X159.008 Y95.73 E19.97838
G1 X159.615 Y96.01 E20.00061
G1 X160.185 Y96.361 E20.02287
G1 X160.709 Y96.778 E20.04515
G1 X161.179 Y97.254 E20.0674
G1 X161.589 Y97.782 E20.08963
G1 X161.933 Y98.356 E20.11189
G1 X162.272 Y99.15 E20.1406
G1 X162.36 Y99.41 E20.14973
G1 X162.537 Y100.055 E20.17198
G1 X162.65 Y100.939 E20.20162
G1 X162.666 Y101.275 E20.21281
G1 X162.672 Y101.531 E20.22132
G1 X162.674 Y102.637 E20.25811
G1 X162.674 Y102.716 E20.26074
G1 X162.652 Y104.489 E20.31971
G1 X162.65 Y104.572 E20.32247
G1 X162.632 Y105.232 E20.34443
G1 X162.636 Y107.937 E20.4344
G1 X162.669 Y109.328 E20.48068
G1 X162.671 Y109.447 E20.48464
G1 X162.674 Y110.625 E20.52382
G1 X162.674 Y110.708 E20.52658
G1 X162.665 Y111.443 E20.55103
G1 X162.616 Y112.11 E20.57327
G1 X162.489 Y112.767 E20.59553
G1 X162.284 Y113.404 E20.61778
G1 X162.005 Y114.012 E20.64003
G1 X161.655 Y114.582 E20.66228
G1 X161.24 Y115.106 E20.68451
G1 X160.765 Y115.578 E20.70679
G1 X160.237 Y115.989 E20.72904
G1 X159.664 Y116.334 E20.75129
G1 X159.054 Y116.609 E20.77354
G1 X158.416 Y116.809 E20.79578
G1 X157.711 Y116.937 E20.81961
G1 X156.885 Y117.033 E20.84727
G1 X156.804 Y117.041 E20.84998
G1 X155.77 Y117.146 E20.88454
G1 X153.092 Y117.496 E20.97437
G1 X150.473 Y117.913 E21.06258
G1 X147.868 Y118.404 E21.15075
G1 X145.229 Y118.979 E21.24058
G1 X142.664 Y119.613 E21.32846
G1 X140.078 Y120.332 E21.41773
G1 X137.499 Y121.129 E21.50751
G1 X135.005 Y121.976 E21.59512
G1 X132.491 Y122.911 E21.68433
G1 X129.998 Y123.919 E21.77377
G1 X127.575 Y124.98 E21.86174
G1 X125.598 Y125.905 E21.93434
G1 X125.112 Y126.139 E21.95228
G1 X124.838 Y126.262 E21.96227
G1 X124.476 Y126.413 E21.97532
G1 X123.844 Y126.634 E21.99758
G1 X123.191 Y126.777 E22.01982
G1 X122.807 Y126.824 E22.03269
G1 X122.349 Y126.864 E22.04798
G1 X121.694 Y126.882 E22.06977
G1 X120.851 Y126.857 E22.09782
G1 X118.142 Y126.813 E22.18793
G1 X113.98 Y126.884 E22.32638
G1 X113.64 Y126.88 E22.33769
G1 X110.942 Y126.762 E22.42751
G1 X108.308 Y126.72 E22.51513
G1 X105.999 Y126.743 E22.59193
G1 X105.884 Y126.743 E22.59576
G1 X104.592 Y126.729 E22.63873
G1 X101.914 Y126.738 E22.7278
G1 X98.086 Y126.88 E22.85521
G1 X97.417 Y126.865 E22.87747
G1 X96.545 Y126.723 E22.90685
G1 X96.194 Y126.637 E22.91887
G1 X95.555 Y126.439 E22.94112
G1 X95.128 Y126.258 E22.95655
G1 X94.801 Y126.103 E22.96858
G1 X92.318 Y124.935 E23.05985
G1 X89.889 Y123.874 E23.14801
G1 X87.386 Y122.863 E23.23779
G1 X84.883 Y121.938 E23.32655
G1 X82.388 Y121.093 E23.41416
G1 X79.819 Y120.302 E23.50357
G1 X77.245 Y119.59 E23.59239
G1 X74.645 Y118.949 E23.68146
G1 X72.032 Y118.381 E23.7704
G1 X69.427 Y117.895 E23.85853
G1 X66.791 Y117.477 E23.9473
G1 X64.11 Y117.13 E24.03722
G1 X62.353 Y116.944 E24.09598
G1 X61.693 Y116.834 E24.11824
G1 X61.051 Y116.646 E24.14049
G1 X60.436 Y116.383 E24.16273
G1 X59.856 Y116.048 E24.18501
G1 X59.321 Y115.647 E24.20725
G1 X58.838 Y115.185 E24.22948
G1 X58.413 Y114.668 E24.25174
G1 X58.052 Y114.104 E24.27401
G1 X57.762 Y113.502 E24.29624
G1 X57.545 Y112.869 E24.31849
G1 X57.405 Y112.214 E24.34077
G1 X57.349 Y111.66 E24.35929
G1 X57.332 Y111.326 E24.37041
G1 X57.325 Y111.041 E24.37989
G1 X57.325 Y109.958 E24.41592
G1 X57.326 Y109.878 E24.41858
G1 X57.352 Y108.068 E24.47878
G1 X57.353 Y107.985 E24.48154
G1 X57.364 Y107.605 E24.49419
G1 X57.366 Y104.951 E24.58246
G1 X57.326 Y103.165 E24.64188
G1 X57.325 Y103.04 E24.64604
G1 X57.325 Y101.959 E24.68199
G1 X57.326 Y101.875 E24.68478
G1 X57.336 Y101.209 E24.70694
G1 X57.386 Y100.542 E24.72918
G1 X57.541 Y99.789 E24.75475
G1 X57.638 Y99.441 E24.76677
G1 X57.855 Y98.809 E24.789
G1 X58.147 Y98.207 E24.81125
G1 X58.509 Y97.644 E24.83351
G1 X58.935 Y97.128 E24.85577
G1 X59.419 Y96.666 E24.87802
G1 X59.955 Y96.266 E24.90027
G1 X60.535 Y95.933 E24.92251
G0 F3600 X60.294 Y96.525
G1 F1800 X60.862 Y96.22 E24.94395
G1 X61.463 Y95.987 E24.96539
G1 X62.088 Y95.831 E24.98682
G1 X62.867 Y95.748 E25.01287
G1 X63.182 Y95.738 E25.02336
G1 X63.333 Y95.735 E25.02838
G1 X64.853 Y95.731 E25.07893
G1 X64.883 Y95.731 E25.07993
G1 X66.56 Y95.736 E25.13571
G1 X120.486 Y95.735 E26.9293
G1 X156.267 Y95.735 E28.11938
G1 X156.341 Y95.736 E28.12184
G1 X157.042 Y95.746 E28.14516
G1 X157.685 Y95.795 E28.1666
G1 X158.317 Y95.923 E28.18805
G1 X158.928 Y96.128 E28.20949
G1 X159.509 Y96.408 E28.23094
G1 X160.051 Y96.757 E28.25238
G1 X160.545 Y97.171 E28.27382
G1 X160.985 Y97.642 E28.29525
G1 X161.362 Y98.165 E28.3167
G1 X161.673 Y98.73 E28.33815
G1 X161.894 Y99.278 E28.3578
G1 X161.982 Y99.538 E28.36693
G1 X162.15 Y100.16 E28.38836
G1 X162.25 Y100.958 E28.41511
G1 X162.266 Y101.294 E28.4263
G1 X162.272 Y101.532 E28.43422
G1 X162.274 Y102.638 E28.471
G1 X162.274 Y102.712 E28.47346
G1 X162.252 Y104.485 E28.53244
G1 X162.25 Y104.561 E28.53497
G1 X162.232 Y105.222 E28.55696
G1 X162.236 Y107.901 E28.64606
G1 X162.27 Y109.337 E28.69384
G1 X162.271 Y109.448 E28.69753
G1 X162.274 Y110.626 E28.73671
G1 X162.274 Y110.703 E28.73927
G1 X162.265 Y111.438 E28.76372
G1 X162.217 Y112.081 E28.78516
G1 X162.09 Y112.713 E28.80661
G1 X161.886 Y113.324 E28.82803
G1 X161.607 Y113.906 E28.8495
G1 X161.259 Y114.448 E28.87092
G1 X160.846 Y114.943 E28.89236
G1 X160.376 Y115.384 E28.9138
G1 X159.854 Y115.763 E28.93525
G1 X159.29 Y116.074 E28.95667
G1 X158.691 Y116.313 E28.97812
G1 X158.067 Y116.477 E28.99958
G1 X157.665 Y116.539 E29.01311
G1 X156.839 Y116.635 E29.04077
G1 X156.764 Y116.643 E29.04328
G1 X155.711 Y116.75 E29.07848
G1 X153.048 Y117.097 E29.1678
G1 X150.408 Y117.518 E29.25672
G1 X147.773 Y118.015 E29.3459
G1 X145.161 Y118.584 E29.43482
G1 X142.534 Y119.234 E29.52483
G1 X139.958 Y119.95 E29.61375
G1 X137.401 Y120.74 E29.70277
G1 X134.862 Y121.602 E29.79195
G1 X132.349 Y122.537 E29.88113
G1 X129.867 Y123.54 E29.97017
G1 X127.375 Y124.631 E30.06064
G1 X125.48 Y125.518 E30.13024
G1 X124.938 Y125.779 E30.15024
G1 X124.684 Y125.893 E30.1595
G1 X124.322 Y126.044 E30.17255
G1 X123.713 Y126.255 E30.19399
G1 X122.772 Y126.425 E30.22579
G1 X122.314 Y126.465 E30.24108
G1 X121.706 Y126.483 E30.26131
G1 X120.809 Y126.456 E30.29116
G1 X118.141 Y126.412 E30.37991
G1 X113.973 Y126.484 E30.51856
G1 X113.658 Y126.48 E30.52904
G1 X110.967 Y126.363 E30.61863
G1 X108.31 Y126.32 E30.70701
G1 X105.995 Y126.343 E30.78401
G1 X105.888 Y126.343 E30.78757
G1 X104.595 Y126.329 E30.83058
G1 X101.898 Y126.338 E30.92028
G1 X98.071 Y126.48 E31.04765
