;FLAVOR:Marlin
;TIME:418
;Filament used: 0.154278m
;Layer height: 0.2
;MINX:99.056
;MINY:108.677
;MINZ:0.2
;MAXX:127.944
;MAXY:142.373
;MAXZ:5
;Generated with Cura_SteamEngine 4.2.1
M140 S60
M105
M190 S60
M104 S228
M105
M109 S228
M82 ;absolute extrusion mode
; Ender 3 Custom Start G-code
G28 ; Home all axes
M420 S1
G92 E0 ; Reset Extruder
G1 Z2.0 F3000 ; Move Z Axis up little to prevent scratching of Heat Bed
G1 X0.1 Y20 Z0.3 F5000.0 ; Move to start position
G1 X0.1 Y200.0 Z0.3 F1500.0 E15 ; Draw the first line
G1 X0.4 Y200.0 Z0.3 F5000.0 ; Move to side a little
G1 X0.4 Y20 Z0.3 F1500.0 E30 ; Draw the second line
G92 E0 ; Reset Extruder
G1 Z2.0 F3000 ; Move Z Axis up little to prevent scratching of Heat Bed
M141 S32
G92 E0
G92 E0
G1 F2400 E-10
;LAYER_COUNT:25
;LAYER:0
M107
M204 S500
M205 X8 Y8
G0 F6000 X109.479 Y110.826 Z0.2
;TYPE:SKIRT
G1 F2400 E0
G1 F1200 X110.078 Y110.311 E0.02627
G1 X110.726 Y109.86 E0.05253
G1 X111.417 Y109.476 E0.07883
G1 X112.142 Y109.164 E0.10508
G1 X112.895 Y108.927 E0.13133
G1 X113.669 Y108.768 E0.15761
G1 X114.454 Y108.687 E0.18386
G1 X114.866 Y108.677 E0.19757
G1 X116.457 Y108.679 E0.25049
G1 X120.14 Y108.677 E0.37298
G1 X120.928 Y108.717 E0.39923
G1 X121.709 Y108.836 E0.4255
G1 X122.474 Y109.033 E0.45178
G1 X123.214 Y109.307 E0.47802
G1 X123.924 Y109.654 E0.50431
G1 X124.594 Y110.071 E0.53055
G1 X125.219 Y110.554 E0.55683
G1 X125.792 Y111.097 E0.58308
G1 X126.307 Y111.696 E0.60936
G1 X126.759 Y112.344 E0.63563
G1 X127.143 Y113.034 E0.6619
G1 X127.455 Y113.759 E0.68815
G1 X127.692 Y114.512 E0.71441
G1 X127.852 Y115.286 E0.74069
G1 X127.933 Y116.071 E0.76694
G1 X127.944 Y116.477 E0.78045
G1 X127.944 Y118.573 E0.85016
G1 X127.904 Y119.362 E0.87644
G1 X127.785 Y120.142 E0.90268
G1 X127.587 Y120.907 E0.92896
G1 X127.313 Y121.647 E0.95521
G1 X126.965 Y122.356 E0.98148
G1 X126.547 Y123.027 E1.00777
G1 X126.064 Y123.651 E1.03402
G1 X125.521 Y124.224 E1.06027
G1 X124.922 Y124.739 E1.08655
G1 X124.274 Y125.19 E1.11281
G1 X123.583 Y125.574 E1.1391
G1 X122.858 Y125.886 E1.16535
G1 X122.105 Y126.123 E1.19161
G1 X121.331 Y126.282 E1.21789
G1 X120.546 Y126.363 E1.24414
G1 X120.144 Y126.373 E1.25751
G1 X116.985 Y126.373 E1.36258
G1 X117.219 Y126.554 E1.37242
G1 X117.792 Y127.097 E1.39867
G1 X118.307 Y127.696 E1.42495
G1 X118.759 Y128.344 E1.45123
G1 X119.143 Y129.034 E1.47749
G1 X119.455 Y129.759 E1.50374
G1 X119.692 Y130.512 E1.53
G1 X119.852 Y131.286 E1.55629
G1 X119.933 Y132.071 E1.58253
G1 X119.944 Y132.477 E1.59604
G1 X119.944 Y134.573 E1.66576
G1 X119.904 Y135.362 E1.69203
G1 X119.785 Y136.142 E1.71827
G1 X119.587 Y136.907 E1.74456
G1 X119.313 Y137.647 E1.7708
G1 X118.965 Y138.356 E1.79707
G1 X118.547 Y139.027 E1.82337
G1 X118.064 Y139.651 E1.84961
G1 X117.521 Y140.224 E1.87587
G1 X116.922 Y140.739 E1.90214
G1 X116.274 Y141.19 E1.9284
G1 X115.583 Y141.574 E1.95469
G1 X114.858 Y141.886 E1.98094
G1 X114.105 Y142.123 E2.0072
G1 X113.331 Y142.282 E2.03348
G1 X112.546 Y142.363 E2.05973
G1 X112.144 Y142.373 E2.0731
G1 X106.856 Y142.373 E2.24898
G1 X106.067 Y142.333 E2.27526
G1 X105.287 Y142.214 E2.3015
G1 X104.522 Y142.016 E2.32778
G1 X103.782 Y141.742 E2.35403
G1 X103.073 Y141.394 E2.3803
G1 X102.402 Y140.976 E2.40659
G1 X101.778 Y140.493 E2.43284
G1 X101.205 Y139.95 E2.45909
G1 X100.69 Y139.351 E2.48537
G1 X100.239 Y138.703 E2.51163
G1 X99.855 Y138.012 E2.53792
G1 X99.543 Y137.287 E2.56417
G1 X99.306 Y136.534 E2.59043
G1 X99.147 Y135.76 E2.61671
G1 X99.066 Y134.975 E2.64296
G1 X99.056 Y134.573 E2.65633
G1 X99.056 Y132.477 E2.72604
G1 X99.096 Y131.688 E2.75232
G1 X99.215 Y130.908 E2.77856
G1 X99.413 Y130.143 E2.80485
G1 X99.687 Y129.403 E2.83109
G1 X100.035 Y128.694 E2.85736
G1 X100.453 Y128.023 E2.88365
G1 X100.936 Y127.399 E2.9099
G1 X101.479 Y126.826 E2.93616
G1 X102.078 Y126.311 E2.96243
G1 X102.726 Y125.86 E2.98869
G1 X103.417 Y125.476 E3.01498
G1 X104.142 Y125.164 E3.04123
G1 X104.895 Y124.927 E3.06749
G1 X105.669 Y124.768 E3.09377
G1 X106.454 Y124.687 E3.12002
G1 X106.866 Y124.677 E3.13372
G1 X108.457 Y124.679 E3.18664
G1 X110.017 Y124.678 E3.23853
G1 X109.778 Y124.493 E3.24858
G1 X109.205 Y123.95 E3.27484
G1 X108.69 Y123.351 E3.30111
G1 X108.239 Y122.703 E3.32737
G1 X107.855 Y122.012 E3.35366
G1 X107.543 Y121.287 E3.37991
G1 X107.306 Y120.534 E3.40617
G1 X107.147 Y119.76 E3.43245
G1 X107.066 Y118.975 E3.4587
G1 X107.056 Y118.573 E3.47207
G1 X107.056 Y116.477 E3.54179
G1 X107.096 Y115.688 E3.56806
G1 X107.215 Y114.908 E3.59431
G1 X107.413 Y114.143 E3.62059
G1 X107.687 Y113.403 E3.64683
G1 X108.035 Y112.694 E3.6731
G1 X108.453 Y112.023 E3.6994
G1 X108.936 Y111.399 E3.72564
G1 X109.479 Y110.826 E3.7519
G0 F6000 X109.872 Y111.007
G1 F1200 X110.467 Y110.519 E3.77749
G1 X111.109 Y110.096 E3.80306
G1 X111.792 Y109.741 E3.82867
G1 X112.507 Y109.46 E3.85422
G1 X113.249 Y109.254 E3.87983
G1 X114.007 Y109.126 E3.9054
G1 X114.865 Y109.077 E3.93398
G1 X116.456 Y109.079 E3.9869
G1 X120.14 Y109.077 E4.10943
G1 X120.908 Y109.117 E4.13501
G1 X121.668 Y109.236 E4.16059
G1 X122.411 Y109.433 E4.18616
G1 X123.13 Y109.706 E4.21174
G1 X123.817 Y110.053 E4.23734
G1 X124.464 Y110.469 E4.26292
G1 X125.064 Y110.95 E4.2885
G1 X125.611 Y111.49 E4.31406
G1 X126.1 Y112.085 E4.33968
G1 X126.523 Y112.727 E4.36525
G1 X126.878 Y113.409 E4.39082
G1 X127.16 Y114.125 E4.41642
G1 X127.366 Y114.866 E4.442
G1 X127.495 Y115.624 E4.46757
G1 X127.544 Y116.477 E4.49599
G1 X127.544 Y118.573 E4.5657
G1 X127.504 Y119.341 E4.59128
G1 X127.385 Y120.101 E4.61687
G1 X127.187 Y120.844 E4.64244
G1 X126.913 Y121.563 E4.66803
G1 X126.566 Y122.249 E4.6936
G1 X126.15 Y122.896 E4.71919
G1 X125.669 Y123.496 E4.74476
G1 X125.128 Y124.043 E4.77035
G1 X124.533 Y124.531 E4.79595
G1 X123.891 Y124.954 E4.82152
G1 X123.208 Y125.309 E4.84712
G1 X122.493 Y125.59 E4.87267
G1 X121.751 Y125.796 E4.89828
G1 X120.993 Y125.924 E4.92385
G1 X120.144 Y125.973 E4.95214
G1 X115.659 Y125.973 E5.10131
G1 X115.817 Y126.053 E5.1072
G1 X116.464 Y126.469 E5.13278
G1 X117.064 Y126.95 E5.15836
G1 X117.611 Y127.49 E5.18392
G1 X118.1 Y128.085 E5.20954
G1 X118.523 Y128.727 E5.23511
G1 X118.878 Y129.409 E5.26068
G1 X119.16 Y130.125 E5.28628
G1 X119.366 Y130.866 E5.31186
G1 X119.495 Y131.624 E5.33743
G1 X119.544 Y132.477 E5.36585
G1 X119.544 Y134.573 E5.43556
G1 X119.504 Y135.341 E5.46114
G1 X119.385 Y136.101 E5.48673
G1 X119.187 Y136.844 E5.5123
G1 X118.913 Y137.563 E5.53789
G1 X118.566 Y138.249 E5.56346
G1 X118.15 Y138.896 E5.58905
G1 X117.669 Y139.496 E5.61462
G1 X117.128 Y140.043 E5.64021
G1 X116.533 Y140.531 E5.66581
G1 X115.891 Y140.954 E5.69138
G1 X115.208 Y141.309 E5.71698
G1 X114.493 Y141.59 E5.74253
G1 X113.751 Y141.796 E5.76814
G1 X112.993 Y141.924 E5.79371
G1 X112.144 Y141.973 E5.822
G1 X106.856 Y141.973 E5.99788
G1 X106.088 Y141.933 E6.02345
G1 X105.328 Y141.814 E6.04904
G1 X104.585 Y141.616 E6.07461
G1 X103.866 Y141.342 E6.10021
G1 X103.18 Y140.995 E6.12578
G1 X102.533 Y140.579 E6.15136
G1 X101.933 Y140.098 E6.17694
G1 X101.386 Y139.557 E6.20253
G1 X100.898 Y138.962 E6.22812
G1 X100.475 Y138.32 E6.25369
G1 X100.12 Y137.637 E6.27929
G1 X99.839 Y136.922 E6.30484
G1 X99.633 Y136.18 E6.33046
G1 X99.505 Y135.422 E6.35603
G1 X99.456 Y134.573 E6.38431
G1 X99.456 Y132.477 E6.45402
G1 X99.496 Y131.709 E6.4796
G1 X99.615 Y130.949 E6.50519
G1 X99.813 Y130.206 E6.53076
G1 X100.087 Y129.487 E6.55635
G1 X100.434 Y128.801 E6.58192
G1 X100.85 Y128.154 E6.60751
G1 X101.331 Y127.554 E6.63308
G1 X101.872 Y127.007 E6.65867
G1 X102.467 Y126.519 E6.68427
G1 X103.109 Y126.096 E6.70984
G1 X103.792 Y125.741 E6.73544
G1 X104.507 Y125.46 E6.76099
G1 X105.249 Y125.254 E6.7866
G1 X106.007 Y125.126 E6.81217
G1 X106.865 Y125.077 E6.84076
G1 X108.456 Y125.079 E6.89367
G1 X111.343 Y125.077 E6.98969
G1 X111.18 Y124.995 E6.99576
G1 X110.533 Y124.579 E7.02135
G1 X109.933 Y124.098 E7.04692
G1 X109.386 Y123.557 E7.07251
G1 X108.898 Y122.962 E7.09811
G1 X108.475 Y122.32 E7.12368
G1 X108.12 Y121.637 E7.14928
G1 X107.839 Y120.922 E7.17483
G1 X107.633 Y120.18 E7.20044
G1 X107.505 Y119.422 E7.22601
G1 X107.456 Y118.573 E7.2543
G1 X107.456 Y116.477 E7.32401
G1 X107.496 Y115.709 E7.34959
G1 X107.615 Y114.949 E7.37517
G1 X107.813 Y114.206 E7.40075
G1 X108.087 Y113.487 E7.42634
G1 X108.434 Y112.801 E7.45191
G1 X108.85 Y112.154 E7.47749
G1 X109.331 Y111.554 E7.50307
G1 X109.872 Y111.007 E7.52866
G0 F6000 X110.264 Y111.193
G1 F1200 X110.854 Y110.734 E7.55352
G1 X111.49 Y110.339 E7.57842
G1 X112.164 Y110.015 E7.6033
G1 X112.869 Y109.765 E7.62818
G1 X113.597 Y109.591 E7.65307
G1 X114.339 Y109.496 E7.67795
G1 X114.865 Y109.477 E7.69546
G1 X116.456 Y109.479 E7.74837
G1 X120.14 Y109.477 E7.8709
G1 X120.887 Y109.517 E7.89579
G1 X121.626 Y109.636 E7.92068
G1 X122.347 Y109.833 E7.94554
G1 X123.044 Y110.106 E7.97044
G1 X123.707 Y110.452 E7.99531
G1 X124.33 Y110.866 E8.02019
G1 X124.905 Y111.345 E8.04508
G1 X125.425 Y111.882 E8.06994
G1 X125.885 Y112.472 E8.09483
G1 X126.28 Y113.108 E8.11973
G1 X126.604 Y113.782 E8.1446
G1 X126.855 Y114.487 E8.16949
G1 X127.029 Y115.214 E8.19435
G1 X127.125 Y115.956 E8.21924
G1 X127.144 Y116.477 E8.23658
G1 X127.144 Y118.573 E8.30629
G1 X127.104 Y119.32 E8.33117
G1 X126.985 Y120.058 E8.35604
G1 X126.787 Y120.78 E8.38094
G1 X126.514 Y121.476 E8.4058
G1 X126.167 Y122.139 E8.43069
G1 X125.752 Y122.762 E8.45559
G1 X125.273 Y123.336 E8.48046
G1 X124.736 Y123.857 E8.50534
G1 X124.146 Y124.316 E8.5302
G1 X123.51 Y124.711 E8.5551
G1 X122.836 Y125.035 E8.57998
G1 X122.131 Y125.285 E8.60486
G1 X121.403 Y125.459 E8.62975
G1 X120.661 Y125.554 E8.65463
G1 X120.144 Y125.573 E8.67184
G1 X114.856 Y125.573 E8.84772
G1 X114.109 Y125.533 E8.8726
G1 X113.371 Y125.414 E8.89746
G1 X112.649 Y125.216 E8.92236
G1 X111.953 Y124.943 E8.94723
G1 X111.29 Y124.596 E8.97212
G1 X110.667 Y124.181 E8.99702
G1 X110.093 Y123.702 E9.02188
G1 X109.572 Y123.165 E9.04677
G1 X109.113 Y122.575 E9.07163
G1 X108.718 Y121.939 E9.09653
G1 X108.394 Y121.265 E9.1214
G1 X108.144 Y120.56 E9.14628
G1 X107.97 Y119.832 E9.17118
G1 X107.875 Y119.09 E9.19606
G1 X107.856 Y118.573 E9.21327
G1 X107.856 Y116.477 E9.28298
G1 X107.896 Y115.73 E9.30786
G1 X108.015 Y114.992 E9.33272
G1 X108.213 Y114.27 E9.35762
G1 X108.486 Y113.574 E9.38249
G1 X108.833 Y112.911 E9.40738
G1 X109.248 Y112.288 E9.43228
G1 X109.727 Y111.714 E9.45714
G1 X110.264 Y111.193 E9.48203
G0 F6000 X110.121 Y111.879
G1 F1200 X110.655 Y111.386 E9.5062
G1 X111.24 Y110.956 E9.53035
G1 X111.869 Y110.592 E9.55452
G1 X112.534 Y110.299 E9.57869
G1 X113.227 Y110.081 E9.60285
G1 X113.939 Y109.941 E9.62699
G1 X114.864 Y109.877 E9.65782
G1 X116.455 Y109.879 E9.71074
G1 X120.14 Y109.877 E9.83331
G1 X120.866 Y109.917 E9.85749
G1 X121.582 Y110.036 E9.88163
G1 X122.281 Y110.233 E9.90578
G1 X122.955 Y110.505 E9.92996
G1 X123.594 Y110.85 E9.95411
G1 X124.191 Y111.264 E9.97827
G1 X124.74 Y111.74 E10.00244
G1 X125.232 Y112.274 E10.02659
G1 X125.663 Y112.858 E10.05073
G1 X126.028 Y113.487 E10.07492
G1 X126.321 Y114.151 E10.09906
G1 X126.539 Y114.844 E10.12322
G1 X126.68 Y115.557 E10.1474
G1 X126.744 Y116.477 E10.17807
G1 X126.744 Y118.573 E10.24778
G1 X126.704 Y119.298 E10.27193
G1 X126.585 Y120.015 E10.29611
G1 X126.387 Y120.714 E10.32027
G1 X126.114 Y121.387 E10.34443
G1 X125.769 Y122.026 E10.36858
G1 X125.355 Y122.623 E10.39274
G1 X124.879 Y123.171 E10.41689
G1 X124.345 Y123.664 E10.44106
G1 X123.76 Y124.094 E10.46521
G1 X123.131 Y124.458 E10.48938
G1 X122.466 Y124.751 E10.51355
G1 X121.773 Y124.969 E10.53771
G1 X121.061 Y125.109 E10.56184
G1 X120.144 Y125.173 E10.59242
G1 X114.856 Y125.173 E10.7683
G1 X114.131 Y125.133 E10.79245
G1 X113.414 Y125.014 E10.81662
G1 X112.715 Y124.816 E10.84079
G1 X112.042 Y124.543 E10.86494
G1 X111.403 Y124.198 E10.88909
G1 X110.806 Y123.784 E10.91326
G1 X110.258 Y123.308 E10.9374
G1 X109.765 Y122.774 E10.96157
G1 X109.335 Y122.189 E10.98572
G1 X108.971 Y121.56 E11.00989
G1 X108.678 Y120.895 E11.03406
G1 X108.46 Y120.202 E11.05822
G1 X108.32 Y119.49 E11.08236
G1 X108.256 Y118.573 E11.11293
G1 X108.256 Y116.477 E11.18265
G1 X108.296 Y115.752 E11.2068
G1 X108.415 Y115.035 E11.23097
G1 X108.613 Y114.336 E11.25513
G1 X108.886 Y113.663 E11.27929
G1 X109.231 Y113.024 E11.30344
G1 X109.645 Y112.427 E11.32761
G1 X110.121 Y111.879 E11.35175
G0 F6000 X110.515 Y112.05
G1 F1200 X111.045 Y111.586 E11.37518
G1 X111.624 Y111.186 E11.39858
G1 X112.245 Y110.854 E11.422
G1 X112.899 Y110.594 E11.44541
G1 X113.579 Y110.41 E11.46884
G1 X114.275 Y110.304 E11.49226
G1 X114.864 Y110.277 E11.51187
G1 X116.456 Y110.279 E11.56482
G1 X120.141 Y110.277 E11.68738
G1 X120.844 Y110.317 E11.7108
G1 X121.537 Y110.436 E11.73419
G1 X122.213 Y110.633 E11.75761
G1 X122.862 Y110.905 E11.78101
G1 X123.477 Y111.249 E11.80445
G1 X124.048 Y111.66 E11.82785
G1 X124.569 Y112.134 E11.85128
G1 X125.033 Y112.664 E11.87471
G1 X125.433 Y113.242 E11.89809
G1 X125.766 Y113.863 E11.92152
G1 X126.026 Y114.517 E11.94493
G1 X126.21 Y115.196 E11.96833
G1 X126.316 Y115.892 E11.99174
G1 X126.344 Y116.477 E12.01122
G1 X126.344 Y118.573 E12.08094
G1 X126.304 Y119.276 E12.10436
G1 X126.185 Y119.97 E12.12778
G1 X125.987 Y120.645 E12.15117
G1 X125.715 Y121.294 E12.17458
G1 X125.37 Y121.908 E12.198
G1 X124.959 Y122.479 E12.2214
G1 X124.485 Y123 E12.24483
G1 X123.955 Y123.464 E12.26826
G1 X123.376 Y123.864 E12.29166
G1 X122.755 Y124.196 E12.31509
G1 X122.101 Y124.456 E12.33849
G1 X121.421 Y124.64 E12.36192
G1 X120.725 Y124.746 E12.38534
G1 X120.144 Y124.773 E12.40468
G1 X114.856 Y124.773 E12.58056
G1 X114.153 Y124.733 E12.60398
G1 X113.459 Y124.614 E12.6274
G1 X112.784 Y124.416 E12.6508
G1 X112.135 Y124.144 E12.6742
G1 X111.521 Y123.799 E12.69763
G1 X110.95 Y123.388 E12.72103
G1 X110.429 Y122.914 E12.74446
G1 X109.965 Y122.384 E12.76788
G1 X109.565 Y121.805 E12.79129
G1 X109.233 Y121.184 E12.81471
G1 X108.973 Y120.53 E12.83812
G1 X108.789 Y119.85 E12.86155
G1 X108.683 Y119.154 E12.88497
G1 X108.656 Y118.573 E12.90431
G1 X108.656 Y116.477 E12.97402
G1 X108.696 Y115.774 E12.99744
G1 X108.815 Y115.08 E13.02086
G1 X109.013 Y114.405 E13.04426
G1 X109.285 Y113.756 E13.06767
G1 X109.63 Y113.142 E13.09109
G1 X110.041 Y112.571 E13.11449
G1 X110.515 Y112.05 E13.13792
G0 F6000 X110.909 Y112.228
G1 F1200 X111.434 Y111.794 E13.16057
G1 X112.006 Y111.425 E13.18321
G1 X112.618 Y111.126 E13.20587
G1 X113.26 Y110.901 E13.22849
G1 X113.925 Y110.752 E13.25116
G1 X114.863 Y110.677 E13.28246
G1 X116.455 Y110.679 E13.33541
G1 X120.141 Y110.677 E13.458
G1 X120.821 Y110.717 E13.48066
G1 X121.491 Y110.836 E13.50329
G1 X122.143 Y111.032 E13.52594
G1 X122.767 Y111.304 E13.54858
G1 X123.355 Y111.647 E13.57122
G1 X123.899 Y112.057 E13.59388
G1 X124.391 Y112.527 E13.61651
G1 X124.825 Y113.052 E13.63916
G1 X125.194 Y113.624 E13.6618
G1 X125.494 Y114.236 E13.68447
G1 X125.719 Y114.878 E13.7071
G1 X125.868 Y115.543 E13.72976
G1 X125.944 Y116.477 E13.76093
G1 X125.944 Y118.573 E13.83065
G1 X125.904 Y119.253 E13.8533
G1 X125.785 Y119.923 E13.87593
G1 X125.588 Y120.575 E13.89859
G1 X125.316 Y121.199 E13.92123
G1 X124.972 Y121.787 E13.94389
G1 X124.562 Y122.331 E13.96654
G1 X124.091 Y122.822 E13.98917
G1 X123.566 Y123.256 E14.01183
G1 X122.994 Y123.625 E14.03447
G1 X122.382 Y123.924 E14.05712
G1 X121.74 Y124.149 E14.07975
G1 X121.075 Y124.298 E14.10242
G1 X120.144 Y124.373 E14.13348
G1 X114.856 Y124.373 E14.30936
G1 X114.176 Y124.333 E14.33202
G1 X113.506 Y124.214 E14.35465
G1 X112.854 Y124.017 E14.3773
G1 X112.23 Y123.745 E14.39994
G1 X111.642 Y123.401 E14.4226
G1 X111.098 Y122.991 E14.44526
G1 X110.607 Y122.52 E14.46789
G1 X110.173 Y121.995 E14.49054
G1 X109.804 Y121.423 E14.51318
G1 X109.505 Y120.811 E14.53584
G1 X109.28 Y120.169 E14.55847
G1 X109.131 Y119.504 E14.58113
G1 X109.056 Y118.573 E14.6122
G1 X109.056 Y116.477 E14.68191
G1 X109.096 Y115.797 E14.70457
G1 X109.215 Y115.127 E14.7272
G1 X109.412 Y114.475 E14.74985
G1 X109.684 Y113.851 E14.77249
G1 X110.028 Y113.263 E14.79515
G1 X110.438 Y112.719 E14.81781
G1 X110.909 Y112.228 E14.84044
G0 F6000 X111.301 Y112.412
G1 F1200 X111.821 Y112.011 E14.86228
G1 X112.385 Y111.675 E14.88411
G1 X112.987 Y111.411 E14.90598
G1 X113.616 Y111.221 E14.92783
G1 X114.263 Y111.11 E14.94967
