;FLAVOR:Marlin
;TIME:10203
;Filament used: 10.1604m
;Layer height: 0.2
;Generated with Cura_SteamEngine 4.0.0
M140 S70
M105
M190 S70
M104 S230
M105
M109 S230
M82 ;absolute extrusion mode
; Ender 3 Custom Start G-code
G28 ; Home all axes
G92 E0 ; Reset Extruder
G1 Z2.0 F3000 ; Move Z Axis up little to prevent scratching of Heat Bed
G1 X0.1 Y20 Z0.3 F5000.0 ; Move to start position
G1 X0.1 Y200.0 Z0.3 F1500.0 E15 ; Draw the first line
G1 X0.4 Y200.0 Z0.3 F5000.0 ; Move to side a little
G1 X0.4 Y20 Z0.3 F1500.0 E30 ; Draw the second line
G92 E0 ; Reset Extruder
G1 Z2.0 F3000 ; Move Z Axis up little to prevent scratching of Heat Bed
; End of custom start GCode
G92 E0
G1 F3600 E-6
;LAYER_COUNT:75
;LAYER:0
M107
M204 S5000
M205 X30 Y30
G0 F3600 X38.478 Y63.414 Z0.2
M204 S500
M205 X20 Y20
;TYPE:SKIRT
G1 F3600 E0
G1 F1800 X38.643 Y63.325 E0.00624
G1 X39.29 Y63.021 E0.03001
G1 X39.968 Y62.792 E0.05381
G1 X40.666 Y62.639 E0.07758
G1 X41.643 Y62.558 E0.11019
G1 X51.192 Y62.501 E0.42779
G1 X55.936 Y62.318 E0.5857
G1 X56.183 Y62.313 E0.59391
G1 X172.24 Y62.324 E4.45399
G1 X172.58 Y62.333 E4.4653
G1 X174.699 Y62.446 E4.53588
G1 X179.064 Y62.534 E4.68109
G1 X185.972 Y62.573 E4.91085
G1 X186.686 Y62.617 E4.93464
G1 X187.39 Y62.74 E4.95841
G1 X188.077 Y62.942 E4.98223
G1 X188.736 Y63.218 E5.00599
G1 X189.361 Y63.567 E5.0298
G1 X190.103 Y64.115 E5.06048
G1 X190.511 Y64.465 E5.07836
G1 X191.027 Y64.961 E5.10217
G1 X191.485 Y65.511 E5.12597
G1 X191.878 Y66.108 E5.14974
G1 X192.202 Y66.746 E5.17354
G1 X192.529 Y67.676 E5.20633
G1 X192.611 Y67.984 E5.21693
G1 X192.756 Y68.685 E5.24074
G1 X192.826 Y69.626 E5.27213
G1 X192.867 Y126.324 E7.15791
G1 X192.865 Y126.472 E7.16283
G1 X192.751 Y131.57 E7.33244
G1 X192.79 Y147.906 E7.87577
G1 X192.847 Y151.124 E7.98282
G1 X192.82 Y151.839 E8.00662
G1 X192.713 Y152.546 E8.0304
G1 X192.528 Y153.237 E8.0542
G1 X192.267 Y153.903 E8.07799
G1 X191.938 Y154.527 E8.10145
G1 X191.645 Y155.016 E8.12041
G1 X191.244 Y155.609 E8.14422
G1 X190.779 Y156.152 E8.168
G1 X190.256 Y156.64 E8.19179
G1 X189.682 Y157.067 E8.21558
G1 X188.986 Y157.467 E8.24228
G1 X188.84 Y157.539 E8.2477
G1 X188.181 Y157.819 E8.27151
G1 X187.496 Y158.024 E8.29529
G1 X186.792 Y158.151 E8.31909
G1 X186.03 Y158.199 E8.34448
G1 X169.922 Y158.251 E8.88024
G1 X169.899 Y158.251 E8.881
G1 X41.707 Y158.22 E13.14469
G1 X40.993 Y158.18 E13.16847
G1 X40.288 Y158.06 E13.19226
G1 X39.601 Y157.863 E13.21603
G1 X38.663 Y157.449 E13.25013
G1 X38.347 Y157.278 E13.26208
G1 X37.738 Y156.903 E13.28587
G1 X37.175 Y156.462 E13.30965
G1 X36.664 Y155.961 E13.33345
G1 X36.212 Y155.407 E13.35724
G1 X35.947 Y155.01 E13.37311
G1 X35.781 Y154.741 E13.38362
G1 X35.44 Y154.112 E13.40742
G1 X35.171 Y153.449 E13.43122
G1 X34.978 Y152.761 E13.45499
G1 X34.837 Y151.733 E13.4895
G1 X34.764 Y150.413 E13.53347
G1 X34.756 Y149.909 E13.55023
G1 X34.879 Y144.716 E13.723
G1 X34.839 Y129.07 E14.24339
G1 X34.839 Y129.066 E14.24352
G1 X34.737 Y74.165 E16.06954
G1 X34.656 Y71.316 E16.16434
G1 X34.662 Y70.802 E16.18144
G1 X34.719 Y69.705 E16.21797
G1 X34.846 Y68.725 E16.25084
G1 X34.974 Y68.114 E16.2716
G1 X35.16 Y67.423 E16.2954
G1 X35.421 Y66.757 E16.31919
G1 X35.755 Y66.125 E16.34297
G1 X36.077 Y65.641 E16.3623
G1 X36.355 Y65.262 E16.37794
G1 X36.81 Y64.709 E16.40176
G1 X37.323 Y64.211 E16.42554
G1 X37.889 Y63.774 E16.44932
G1 X38.478 Y63.414 E16.47228
M204 S5000
M205 X30 Y30
G0 F3600 X38.668 Y63.766
M204 S500
M205 X20 Y20
G1 F1800 X38.833 Y63.677 E16.47851
G1 X39.46 Y63.384 E16.50153
G1 X40.117 Y63.165 E16.52457
G1 X40.795 Y63.024 E16.5476
G1 X41.645 Y62.958 E16.57596
G1 X51.179 Y62.901 E16.89306
G1 X55.951 Y62.717 E17.0519
G1 X56.183 Y62.713 E17.05962
G1 X172.24 Y62.724 E20.91969
G1 X172.558 Y62.733 E20.93027
G1 X174.669 Y62.846 E21.00058
G1 X179.052 Y62.934 E21.14639
G1 X185.97 Y62.973 E21.37649
G1 X186.661 Y63.017 E21.39952
G1 X187.342 Y63.14 E21.42253
G1 X188.005 Y63.341 E21.44558
G1 X188.64 Y63.617 E21.4686
G1 X189.239 Y63.964 E21.49163
G1 X189.843 Y64.419 E21.51678
G1 X190.251 Y64.769 E21.53466
G1 X190.749 Y65.25 E21.55769
G1 X191.189 Y65.784 E21.5807
G1 X191.565 Y66.366 E21.60375
G1 X191.871 Y66.987 E21.62677
G1 X192.142 Y67.779 E21.65461
G1 X192.224 Y68.087 E21.66521
G1 X192.363 Y68.766 E21.68827
G1 X192.426 Y69.627 E21.71698
G1 X192.467 Y126.325 E23.60276
G1 X192.466 Y126.463 E23.60735
G1 X192.351 Y131.602 E23.77832
G1 X192.39 Y147.915 E24.32089
G1 X192.447 Y151.132 E24.42791
G1 X192.419 Y151.824 E24.45094
G1 X192.312 Y152.508 E24.47397
G1 X192.127 Y153.175 E24.49699
G1 X191.866 Y153.816 E24.52001
G1 X191.595 Y154.322 E24.5391
G1 X191.302 Y154.811 E24.55806
G1 X190.912 Y155.383 E24.58109
G1 X190.459 Y155.907 E24.60413
G1 X189.949 Y156.375 E24.62715
G1 X189.388 Y156.782 E24.6502
G1 X188.809 Y157.108 E24.6723
G1 X188.663 Y157.18 E24.67772
G1 X188.025 Y157.45 E24.70076
G1 X187.36 Y157.645 E24.72381
G1 X186.678 Y157.762 E24.74682
G1 X186.028 Y157.799 E24.76848
G1 X169.92 Y157.851 E25.30423
G1 X169.9 Y157.851 E25.3049
G1 X41.708 Y157.82 E29.56858
G1 X41.016 Y157.78 E29.59164
G1 X40.334 Y157.66 E29.61467
G1 X39.67 Y157.463 E29.63771
G1 X38.853 Y157.097 E29.66748
G1 X38.537 Y156.926 E29.67943
G1 X37.948 Y156.562 E29.70246
G1 X37.405 Y156.132 E29.7255
G1 X36.915 Y155.643 E29.74852
G1 X36.485 Y155.1 E29.77156
G1 X36.287 Y154.8 E29.78352
G1 X36.121 Y154.531 E29.79403
G1 X35.792 Y153.922 E29.81705
G1 X35.535 Y153.278 E29.84011
G1 X35.354 Y152.61 E29.86313
G1 X35.236 Y151.711 E29.89329
G1 X35.163 Y150.391 E29.93726
G1 X35.156 Y149.918 E29.95299
G1 X35.279 Y144.724 E30.12579
G1 X35.239 Y129.069 E30.64648
G1 X35.239 Y129.065 E30.64662
G1 X35.137 Y74.191 E32.47174
G1 X35.055 Y71.305 E32.56776
G1 X35.061 Y70.823 E32.5838
G1 X35.118 Y69.726 E32.62033
G1 X35.237 Y68.807 E32.65115
G1 X35.365 Y68.196 E32.67192
G1 X35.546 Y67.527 E32.69497
G1 X35.803 Y66.884 E32.718
G1 X36.132 Y66.275 E32.74102
G1 X36.4 Y65.877 E32.75698
G1 X36.678 Y65.498 E32.77261
G1 X37.119 Y64.964 E32.79565
G1 X37.619 Y64.485 E32.81868
G1 X38.17 Y64.066 E32.8417
G1 X38.668 Y63.766 E32.86104
M204 S5000
M205 X30 Y30
G0 F3600 X38.857 Y64.118
M204 S500
M205 X20 Y20
G1 F1800 X39.022 Y64.029 E32.86727
G1 X39.629 Y63.747 E32.88953
G1 X40.265 Y63.54 E32.91178
G1 X40.922 Y63.41 E32.93406
G1 X41.647 Y63.358 E32.95823
G1 X51.198 Y63.301 E33.2759
G1 X55.967 Y63.117 E33.43464
G1 X56.183 Y63.113 E33.44183
G1 X172.24 Y63.124 E37.3019
G1 X172.537 Y63.132 E37.31178
G1 X174.671 Y63.246 E37.38286
G1 X179.042 Y63.334 E37.52827
G1 X185.967 Y63.373 E37.7586
G1 X186.635 Y63.417 E37.78086
G1 X187.293 Y63.54 E37.80313
G1 X187.931 Y63.74 E37.82537
G1 X188.541 Y64.016 E37.84763
G1 X189.113 Y64.362 E37.86987
G1 X189.582 Y64.723 E37.88955
G1 X189.99 Y65.073 E37.90743
G1 X190.471 Y65.538 E37.92968
G1 X190.893 Y66.057 E37.95193
G1 X191.25 Y66.623 E37.97419
G1 X191.537 Y67.227 E37.99643
G1 X191.755 Y67.882 E38.01939
G1 X191.837 Y68.19 E38.02999
G1 X191.971 Y68.846 E38.05226
G1 X192.026 Y69.627 E38.0783
G1 X192.067 Y126.325 E39.96409
G1 X192.066 Y126.454 E39.96838
G1 X191.951 Y131.594 E40.13938
G1 X191.99 Y147.923 E40.68248
G1 X192.047 Y151.139 E40.78946
G1 X192.019 Y151.807 E40.8117
G1 X191.911 Y152.467 E40.83394
G1 X191.726 Y153.11 E40.8562
G1 X191.465 Y153.726 E40.87845
G1 X191.252 Y154.116 E40.89323
G1 X190.959 Y154.605 E40.91219
G1 X190.581 Y155.158 E40.93447
G1 X190.14 Y155.661 E40.95672
G1 X189.643 Y156.108 E40.97895
G1 X189.095 Y156.493 E41.00123
G1 X188.632 Y156.749 E41.01882
G1 X188.486 Y156.821 E41.02424
G1 X187.869 Y157.081 E41.04651
G1 X187.226 Y157.265 E41.06875
G1 X186.565 Y157.371 E41.09102
G1 X186.027 Y157.399 E41.10894
G1 X169.919 Y157.451 E41.64469
G1 X169.9 Y157.451 E41.64532
G1 X41.708 Y157.42 E45.90901
G1 X41.04 Y157.38 E45.93127
G1 X40.382 Y157.26 E45.95351
G1 X39.742 Y157.063 E45.97578
G1 X39.044 Y156.745 E46.00129
G1 X38.728 Y156.574 E46.01325
G1 X38.159 Y156.221 E46.03552
G1 X37.637 Y155.803 E46.05776
G1 X37.169 Y155.325 E46.08001
G1 X36.627 Y154.59 E46.11038
G1 X36.461 Y154.321 E46.1209
G1 X36.145 Y153.732 E46.14313
G1 X35.9 Y153.109 E46.16539
G1 X35.732 Y152.461 E46.18766
G1 X35.636 Y151.689 E46.21353
G1 X35.563 Y150.369 E46.2575
G1 X35.556 Y149.928 E46.27217
G1 X35.679 Y144.733 E46.44501
G1 X35.639 Y129.068 E46.96603
G1 X35.639 Y129.064 E46.96616
G1 X35.537 Y74.178 E48.79168
G1 X35.455 Y71.293 E48.88768
G1 X35.461 Y70.843 E48.90264
G1 X35.518 Y69.746 E48.93918
G1 X35.629 Y68.889 E48.96792
G1 X35.757 Y68.278 E48.98868
G1 X35.933 Y67.632 E49.01095
G1 X36.185 Y67.012 E49.03321
G1 X36.509 Y66.427 E49.05546
G1 X36.723 Y66.114 E49.06807
G1 X37.001 Y65.735 E49.0837
G1 X37.428 Y65.22 E49.10595
G1 X37.913 Y64.76 E49.12818
G1 X38.45 Y64.361 E49.15043
G1 X38.857 Y64.118 E49.1662
M204 S5000
M205 X30 Y30
G0 F3600 X39.047 Y64.47
M204 S500
M205 X20 Y20
G1 F1800 X39.212 Y64.381 E49.17244
G1 X39.798 Y64.111 E49.1939
G1 X40.412 Y63.915 E49.21533
G1 X41.046 Y63.797 E49.23678
G1 X41.65 Y63.758 E49.25691
G1 X51.215 Y63.7 E49.57505
G1 X55.982 Y63.517 E49.73372
G1 X56.182 Y63.513 E49.74037
G1 X172.239 Y63.524 E53.60044
G1 X172.516 Y63.531 E53.60966
G1 X174.672 Y63.646 E53.68147
G1 X179.032 Y63.734 E53.82652
G1 X185.965 Y63.773 E54.05711
G1 X186.608 Y63.817 E54.07855
G1 X187.241 Y63.939 E54.09999
G1 X187.854 Y64.14 E54.12145
G1 X188.437 Y64.414 E54.14287
G1 X188.982 Y64.759 E54.16432
G1 X189.322 Y65.026 E54.1787
G1 X189.73 Y65.376 E54.19658
G1 X190.192 Y65.825 E54.21801
G1 X190.595 Y66.329 E54.23947
G1 X190.933 Y66.878 E54.26092
G1 X191.2 Y67.464 E54.28233
G1 X191.369 Y67.985 E54.30055
G1 X191.451 Y68.293 E54.31115
G1 X191.578 Y68.925 E54.33259
G1 X191.626 Y69.627 E54.356
G1 X191.667 Y126.325 E56.24178
G1 X191.666 Y126.445 E56.24577
G1 X191.551 Y131.586 E56.4168
G1 X191.59 Y147.931 E56.96044
G1 X191.647 Y151.146 E57.06739
G1 X191.619 Y151.79 E57.08883
G1 X191.511 Y152.425 E57.11025
G1 X191.325 Y153.043 E57.13172
G1 X190.909 Y153.911 E57.16373
G1 X190.616 Y154.4 E57.18269
G1 X190.251 Y154.931 E57.20412
G1 X189.823 Y155.413 E57.22556
G1 X189.338 Y155.839 E57.24703
G1 X188.805 Y156.201 E57.26846
G1 X188.455 Y156.391 E57.28171
G1 X188.309 Y156.463 E57.28712
G1 X187.714 Y156.711 E57.30856
G1 X187.093 Y156.885 E57.33001
G1 X186.456 Y156.98 E57.35144
G1 X186.026 Y156.999 E57.36575
G1 X169.918 Y157.051 E57.90151
G1 X169.9 Y157.051 E57.90211
G1 X41.708 Y157.02 E62.16579
G1 X41.064 Y156.98 E62.18725
G1 X40.431 Y156.86 E62.20868
G1 X39.817 Y156.664 E62.23012
G1 X39.234 Y156.393 E62.2515
G1 X38.918 Y156.222 E62.26345
G1 X38.371 Y155.881 E62.28489
G1 X37.871 Y155.475 E62.30631
G1 X37.425 Y155.009 E62.32777
G1 X36.968 Y154.38 E62.35362
G1 X36.802 Y154.111 E62.36414
G1 X36.498 Y153.542 E62.38559
G1 X36.267 Y152.94 E62.40704
G1 X36.112 Y152.315 E62.42846
G1 X36.035 Y151.667 E62.45016
G1 X35.962 Y150.347 E62.49413
G1 X35.955 Y149.937 E62.50777
G1 X36.079 Y144.702 E62.68194
G1 X36.039 Y129.067 E63.20196
G1 X36.039 Y129.064 E63.20206
G1 X35.937 Y74.166 E65.02798
G1 X35.855 Y71.282 E65.12394
G1 X35.86 Y70.864 E65.13784
G1 X35.917 Y69.767 E65.17438
G1 X36.02 Y68.971 E65.20107
G1 X36.148 Y68.36 E65.22184
G1 X36.32 Y67.738 E65.2433
G1 X36.566 Y67.143 E65.26472
G1 X37.045 Y66.35 E65.29553
G1 X37.323 Y65.971 E65.31116
G1 X37.736 Y65.476 E65.33261
G1 X38.207 Y65.036 E65.35404
G1 X38.728 Y64.657 E65.37547
G1 X39.047 Y64.47 E65.38777
M204 S5000
M205 X30 Y30
G0 F3600 X41.683 Y69.16
M204 S500
M205 X20 Y20
;TYPE:SUPPORT
G1 F1800 X41.726 Y69.143 E65.38931
G1 X41.827 Y69.134 E65.39268
G1 X45.603 Y69.128 E65.51827
G1 X55.042 Y69.148 E65.83221
G1 X55.366 Y68.913 E65.84553
G1 X172.174 Y68.914 E69.73058
G1 X172.497 Y69.148 E69.74384
G1 X182.035 Y69.127 E70.06108
G1 X185.806 Y69.134 E70.1865
G1 X185.856 Y69.147 E70.18822
G1 X186.042 Y69.256 E70.19539
G1 X186.167 Y69.393 E70.20156
G1 X186.188 Y69.435 E70.20312
G1 X186.169 Y69.48 E70.20475
G1 X186.289 Y70.119 E70.22637
G1 X186.261 Y70.528 E70.24001
G1 X186.261 Y72.909 E70.3192
G1 X186.272 Y73.278 E70.33148
G1 X186.216 Y74.142 E70.36027
G1 X186.271 Y74.536 E70.37351
G1 X186.215 Y75.36 E70.40097
G1 X186.27 Y75.758 E70.41434
G1 X186.213 Y76.575 E70.44158
G1 X186.271 Y76.982 E70.45525
G1 X186.214 Y77.797 E70.48242
G1 X186.27 Y78.2 E70.49596
G1 X186.214 Y79.011 E70.523
G1 X186.272 Y79.408 E70.53634
G1 X186.217 Y80.25 E70.5644
G1 X186.27 Y80.637 E70.5774
G1 X186.217 Y81.455 E70.60466
G1 X186.272 Y81.846 E70.61779
G1 X186.218 Y82.664 E70.64506
G1 X186.272 Y83.057 E70.65825
G1 X186.213 Y83.905 E70.68653
G1 X186.271 Y84.301 E70.69984
G1 X186.214 Y85.121 E70.72718
G1 X186.27 Y85.521 E70.74061
G1 X186.219 Y86.345 E70.76807
G1 X186.271 Y86.738 E70.78125
G1 X186.215 Y87.56 E70.80866
G1 X186.269 Y87.958 E70.82202
G1 X186.213 Y88.763 E70.84886
G1 X186.269 Y89.165 E70.86235
G1 X186.218 Y89.992 E70.88991
G1 X186.269 Y90.389 E70.90323
G1 X186.218 Y91.213 E70.93068
G1 X186.27 Y91.608 E70.94394
G1 X186.206 Y92.429 E70.97133
G1 X186.271 Y92.825 E70.98467
G1 X186.217 Y93.656 E71.01237
G1 X186.272 Y94.046 E71.02547
G1 X186.217 Y94.886 E71.05347
G1 X186.271 Y95.269 E71.06633
G1 X186.217 Y96.092 E71.09376
G1 X186.271 Y96.486 E71.10699
G1 X186.216 Y97.331 E71.13516
G1 X186.271 Y97.722 E71.14829
G1 X186.217 Y98.549 E71.17585
G1 X186.271 Y98.934 E71.18878
G1 X186.216 Y99.787 E71.21721
G1 X186.272 Y100.18 E71.23042
G1 X186.214 Y100.989 E71.25739
G1 X186.271 Y101.39 E71.27087
G1 X186.215 Y102.174 E71.29701
G1 X186.271 Y102.574 E71.31044
G1 X186.218 Y103.405 E71.33814
G1 X186.271 Y103.794 E71.35119
G1 X186.217 Y104.636 E71.37926
G1 X186.271 Y105.032 E71.39255
G1 X186.218 Y105.866 E71.42034
G1 X186.272 Y106.256 E71.43344
G1 X186.215 Y107.057 E71.46015
G1 X186.272 Y107.444 E71.47316
G1 X186.218 Y108.283 E71.50112
G1 X186.272 Y108.668 E71.51405
G1 X186.217 Y109.515 E71.54228
G1 X186.27 Y109.902 E71.55528
G1 X186.215 Y110.757 E71.58377
G1 X186.272 Y111.129 E71.59629
G1 X186.203 Y111.948 E71.62363
G1 X186.269 Y112.345 E71.63701
G1 X186.218 Y113.17 E71.6645
G1 X186.271 Y113.561 E71.67763
G1 X186.213 Y114.391 E71.7053
G1 X186.27 Y114.8 E71.71903
G1 X186.214 Y115.609 E71.74601
G1 X186.268 Y116.008 E71.7594
G1 X186.216 Y116.827 E71.78669
G1 X186.271 Y117.22 E71.79989
G1 X186.217 Y118.061 E71.82792
G1 X186.271 Y118.446 E71.84085
G1 X186.217 Y119.279 E71.86862
G1 X186.271 Y119.662 E71.88148
G1 X186.217 Y120.492 E71.90914
G1 X186.27 Y120.88 E71.92217
G1 X186.218 Y121.72 E71.95016
G1 X186.271 Y122.109 E71.96322
G1 X186.214 Y122.922 E71.99033
G1 X186.271 Y123.32 E72.0037
G1 X186.214 Y124.131 E72.03074
G1 X186.271 Y124.539 E72.04444
G1 X186.214 Y125.352 E72.07155
G1 X186.273 Y125.754 E72.08506
G1 X186.218 Y126.622 E72.11399
G1 X186.267 Y126.966 E72.12555
G1 X186.239 Y127.428 E72.14094
G1 X186.205 Y127.721 E72.15075
G1 X186.151 Y128.383 E72.17284
G1 X186.15 Y149.298 E72.86848
G1 X186.259 Y149.675 E72.88153
G1 X186.244 Y149.909 E72.88933
G1 X186.286 Y150.312 E72.90281
G1 X186.175 Y151.115 E72.92977
G1 X186.238 Y151.251 E72.93475
G1 X186.169 Y151.407 E72.94043
G1 X186.063 Y151.56 E72.94662
G1 X185.919 Y151.628 E72.95191
G1 X185.846 Y151.633 E72.95435
G1 X185.503 Y151.633 E72.96576
G1 X185.17 Y151.413 E72.97903
G1 X179.972 Y151.405 E73.15192
G1 X179.649 Y151.64 E73.1652
G1 X169.901 Y151.651 E73.48942
G1 X57.73 Y151.65 E77.22024
G1 X48.724 Y151.639 E77.51979
G1 X48.401 Y151.404 E77.53307
G1 X42.566 Y151.413 E77.72714
G1 X42.23 Y151.63 E77.74045
G1 X41.729 Y151.63 E77.75711
G1 X41.685 Y151.619 E77.75862
G1 X41.579 Y151.559 E77.76267
G1 X41.532 Y151.519 E77.76472
G1 X41.467 Y151.43 E77.76839
G1 X41.37 Y151.227 E77.77587
G1 X41.376 Y150.547 E77.79849
G1 X41.341 Y150.298 E77.80685
G1 X41.384 Y149.883 E77.82073
G1 X41.365 Y149.597 E77.83026
G1 X41.479 Y149.226 E77.84317
G1 X41.479 Y128.262 E78.54044
G1 X41.423 Y127.678 E78.55995
G1 X41.382 Y127.363 E78.57052
G1 X41.356 Y127.005 E78.58245
G1 X41.413 Y126.614 E78.5956
G1 X41.36 Y125.768 E78.62379
G1 X41.416 Y125.366 E78.63729
G1 X41.346 Y124.371 E78.67046
G1 X41.403 Y123.972 E78.68387
G1 X41.359 Y123.338 E78.70501
G1 X41.413 Y122.944 E78.71824
G1 X41.358 Y122.099 E78.7464
G1 X41.412 Y121.714 E78.75933
G1 X41.358 Y120.874 E78.78733
G1 X41.415 Y120.476 E78.8007
G1 X41.358 Y119.665 E78.82774
G1 X41.412 Y119.269 E78.84103
