;FLAVOR:Marlin
;TIME:9285
;Filament used: 8.67935m
;Layer height: 0.28
;MINX:91.051
;MINY:52.856
;MINZ:0.2
;MAXX:144.38
;MAXY:182.498
;MAXZ:21.68
;Generated with Cura_SteamEngine 4.2.1
M140 S70
M105
M190 S70
M104 S210
M105
M109 S210
M82 ;absolute extrusion mode
; Ender 3 Custom Start G-code
G28 ; Home all axes
M420 S1
G92 E0 ; Reset Extruder
G1 Z2.0 F3000 ; Move Z Axis up little to prevent scratching of Heat Bed
G1 X0.1 Y20 Z0.3 F5000.0 ; Move to start position
G1 X0.1 Y200.0 Z0.3 F1500.0 E15 ; Draw the first line
G1 X0.4 Y200.0 Z0.3 F5000.0 ; Move to side a little
G1 X0.4 Y20 Z0.3 F1500.0 E30 ; Draw the second line
G92 E0 ; Reset Extruder
G1 Z2.0 F3000 ; Move Z Axis up little to prevent scratching of Heat Bed
G92 E0
G92 E0
G1 F3000 E-8
;LAYER_COUNT:77
;LAYER:0
M107
M204 S500
M205 X8 Y8
G0 F6000 X92.641 Y57 Z0.2
;TYPE:SKIRT
G1 F3000 E0
G1 F1200 X93.059 Y56.329 E0.02629
G1 X93.542 Y55.705 E0.05254
G1 X93.947 Y55.268 E0.07236
G1 X94.066 Y55.149 E0.07795
G1 X94.652 Y54.619 E0.10423
G1 X95.288 Y54.152 E0.13048
G1 X95.968 Y53.751 E0.15673
G1 X96.686 Y53.421 E0.18302
G1 X97.433 Y53.166 E0.20927
G1 X98.202 Y52.987 E0.23553
G1 X98.986 Y52.887 E0.26182
G1 X99.58 Y52.864 E0.28159
G1 X111.285 Y52.862 E0.6709
G1 X113.182 Y52.856 E0.73399
G1 X113.229 Y52.856 E0.73556
G1 X135.958 Y52.92 E1.49153
G1 X136.747 Y52.962 E1.51781
G1 X137.527 Y53.084 E1.54407
G1 X138.291 Y53.284 E1.57033
G1 X139.031 Y53.56 E1.5966
G1 X139.739 Y53.91 E1.62287
G1 X140.408 Y54.329 E1.64913
G1 X141.042 Y54.823 E1.67586
G1 X141.273 Y55.023 E1.68602
G1 X141.843 Y55.57 E1.7123
G1 X142.355 Y56.171 E1.73856
G1 X142.825 Y56.857 E1.76621
G1 X142.969 Y57.093 E1.77541
G1 X143.346 Y57.787 E1.80168
G1 X143.663 Y58.551 E1.82919
G1 X143.759 Y58.822 E1.83875
G1 X143.985 Y59.579 E1.86503
G1 X144.133 Y60.355 E1.8913
G1 X144.202 Y61.142 E1.91758
G1 X144.194 Y61.691 E1.93584
G1 X144.263 Y62.078 E1.94891
G1 X144.361 Y62.862 E1.97519
G1 X144.38 Y63.651 E2.00144
G1 X144.325 Y64.39 E2.02609
G1 X144.175 Y65.611 E2.06701
G1 X144.223 Y66.235 E2.08782
G1 X144.172 Y67.275 E2.12245
G1 X144.223 Y67.921 E2.14401
G1 X144.173 Y68.988 E2.17953
G1 X144.224 Y69.657 E2.20185
G1 X144.174 Y70.661 E2.23528
G1 X144.226 Y71.316 E2.25714
G1 X144.174 Y72.411 E2.2936
G1 X144.224 Y73.092 E2.31631
G1 X144.173 Y74.121 E2.35058
G1 X144.223 Y74.776 E2.37243
G1 X144.172 Y75.825 E2.40736
G1 X144.222 Y76.447 E2.42811
G1 X144.206 Y77.237 E2.45439
G1 X144.175 Y77.553 E2.46495
G1 X144.224 Y78.206 E2.48673
G1 X144.174 Y79.231 E2.52087
G1 X144.223 Y79.953 E2.54493
G1 X144.172 Y80.941 E2.57784
G1 X144.223 Y81.579 E2.59913
G1 X144.206 Y82.369 E2.62541
G1 X144.176 Y82.669 E2.63544
G1 X144.225 Y83.331 E2.65751
G1 X144.173 Y84.358 E2.69172
G1 X144.224 Y85.046 E2.71466
G1 X144.173 Y86.065 E2.7486
G1 X144.224 Y86.738 E2.77104
G1 X144.173 Y87.772 E2.80548
G1 X144.224 Y88.445 E2.82793
G1 X144.173 Y89.482 E2.86246
G1 X144.223 Y90.179 E2.8857
G1 X144.172 Y91.191 E2.9194
G1 X144.223 Y91.833 E2.94082
G1 X144.173 Y92.915 E2.97685
G1 X144.222 Y93.553 E2.99813
G1 X144.173 Y94.592 E3.03273
G1 X144.224 Y95.289 E3.05597
G1 X144.173 Y96.314 E3.0901
G1 X144.224 Y96.993 E3.11275
G1 X144.177 Y97.952 E3.14469
G1 X144.229 Y98.673 E3.16873
G1 X144.179 Y99.722 E3.20366
G1 X144.18 Y99.729 E3.20389
G1 X144.227 Y100.517 E3.23015
G1 X144.175 Y101.429 E3.26053
G1 X144.226 Y102.106 E3.28311
G1 X144.174 Y103.145 E3.31771
G1 X144.225 Y103.814 E3.34003
G1 X144.173 Y104.852 E3.3746
G1 X144.223 Y105.536 E3.39741
G1 X144.172 Y106.557 E3.43141
G1 X144.223 Y107.243 E3.45429
G1 X144.172 Y108.264 E3.48829
G1 X144.223 Y108.867 E3.50842
G1 X144.209 Y109.656 E3.53466
G1 X144.176 Y110.01 E3.54649
G1 X144.224 Y110.636 E3.56737
G1 X144.206 Y111.426 E3.59365
G1 X144.165 Y111.831 E3.60719
G1 X144.095 Y112.382 E3.62566
G1 X144.141 Y112.923 E3.64372
G1 X144.138 Y113.102 E3.64968
G1 X144.154 Y113.187 E3.65255
G1 X144.221 Y113.973 E3.67879
G1 X144.209 Y114.763 E3.70507
G1 X144.174 Y115.128 E3.71727
G1 X144.221 Y115.642 E3.73443
G1 X144.213 Y116.431 E3.76068
G1 X144.176 Y116.831 E3.77404
G1 X144.224 Y117.499 E3.79631
G1 X144.173 Y118.506 E3.82985
G1 X144.224 Y119.2 E3.85299
G1 X144.173 Y120.214 E3.88676
G1 X144.224 Y120.907 E3.90987
G1 X144.173 Y121.929 E3.94391
G1 X144.223 Y122.625 E3.96712
G1 X144.173 Y123.629 E4.00055
G1 X144.224 Y124.312 E4.02333
G1 X144.172 Y125.365 E4.0584
G1 X144.222 Y125.959 E4.07822
G1 X144.208 Y126.749 E4.1045
G1 X144.174 Y127.098 E4.11616
G1 X144.221 Y127.687 E4.13582
G1 X144.205 Y128.477 E4.1621
G1 X144.175 Y128.791 E4.17259
G1 X144.223 Y129.421 E4.1936
G1 X144.172 Y130.468 E4.22847
G1 X144.223 Y131.156 E4.25141
G1 X144.173 Y132.171 E4.28521
G1 X144.224 Y132.813 E4.30663
G1 X144.174 Y133.892 E4.34256
G1 X144.224 Y134.585 E4.36567
G1 X144.174 Y135.589 E4.3991
G1 X144.225 Y136.272 E4.42188
G1 X144.173 Y137.329 E4.45708
G1 X144.222 Y138.072 E4.48185
G1 X144.172 Y139.006 E4.51296
G1 X144.223 Y139.631 E4.53381
G1 X144.208 Y140.42 E4.56006
G1 X144.182 Y140.695 E4.56925
G1 X144.229 Y141.374 E4.59189
G1 X144.176 Y142.451 E4.62775
G1 X144.125 Y142.88 E4.64212
G1 X144.124 Y171.99 E5.61032
G1 X144.205 Y172.729 E5.63505
G1 X144.212 Y173.519 E5.66133
G1 X144.139 Y174.305 E5.68758
G1 X144.018 Y174.948 E5.70934
G1 X143.918 Y175.38 E5.72409
G1 X143.701 Y176.139 E5.75035
G1 X143.369 Y176.958 E5.77974
G1 X143.218 Y177.277 E5.79148
G1 X142.844 Y177.973 E5.81776
G1 X142.403 Y178.627 E5.84399
G1 X141.982 Y179.14 E5.86607
G1 X141.821 Y179.32 E5.8741
G1 X141.265 Y179.881 E5.90037
G1 X140.656 Y180.383 E5.92662
G1 X139.899 Y180.88 E5.95674
G1 X139.701 Y180.994 E5.96434
G1 X138.997 Y181.353 E5.99062
G1 X138.261 Y181.638 E6.01687
G1 X137.5 Y181.848 E6.04313
G1 X136.722 Y181.98 E6.06937
G1 X135.819 Y182.034 E6.09946
G1 X134.224 Y182.036 E6.15251
G1 X134.201 Y182.036 E6.15328
G1 X124.879 Y182.02 E6.46333
G1 X124.158 Y182.247 E6.48847
G1 X123.384 Y182.406 E6.51475
G1 X122.599 Y182.487 E6.541
G1 X122.203 Y182.497 E6.55417
G1 X121 Y182.498 E6.59419
G1 X120.981 Y182.498 E6.59482
G1 X110.564 Y182.48 E6.94129
G1 X98.967 Y182.479 E7.32701
G1 X98.179 Y182.439 E7.35325
G1 X97.398 Y182.319 E7.37953
G1 X96.634 Y182.121 E7.40578
G1 X95.893 Y181.847 E7.43206
G1 X95.184 Y181.5 E7.45831
G1 X94.514 Y181.082 E7.48458
G1 X93.889 Y180.599 E7.51085
G1 X93.453 Y180.194 E7.53064
G1 X93.336 Y180.077 E7.53614
G1 X92.806 Y179.491 E7.56242
G1 X92.339 Y178.855 E7.58867
G1 X91.938 Y178.175 E7.61492
G1 X91.608 Y177.457 E7.64121
G1 X91.353 Y176.71 E7.66746
G1 X91.174 Y175.941 E7.69372
G1 X91.074 Y175.157 E7.72001
G1 X91.051 Y174.562 E7.73981
G1 X91.051 Y174.094 E7.75538
G1 X91.055 Y173.847 E7.76359
G1 X91.065 Y173.519 E7.77451
G1 X91.065 Y173.386 E7.77893
G1 X91.069 Y173.139 E7.78715
G1 X91.078 Y172.855 E7.7966
G1 X91.078 Y171.934 E7.82723
G1 X91.118 Y171.145 E7.85351
G1 X91.237 Y170.365 E7.87975
G1 X91.435 Y169.6 E7.90603
G1 X91.701 Y168.882 E7.9315
G1 X91.7 Y111.847 E9.82849
G1 X91.7 Y73.863 E11.09185
G1 X91.713 Y73.614 E11.10014
G1 X91.685 Y73.347 E11.10907
G1 X91.675 Y72.945 E11.12244
G1 X91.675 Y72.492 E11.13751
G1 X91.666 Y72.219 E11.14659
G1 X91.662 Y71.965 E11.15504
G1 X91.662 Y71.477 E11.17127
G1 X91.653 Y71.213 E11.18006
G1 X91.648 Y70.947 E11.18891
G1 X91.648 Y68.46 E11.27163
G1 X91.653 Y68.194 E11.28048
G1 X91.662 Y67.921 E11.28956
G1 X91.662 Y66.748 E11.32857
G1 X91.666 Y66.494 E11.33702
G1 X91.675 Y66.218 E11.34621
G1 X91.675 Y61.931 E11.48879
G1 X91.666 Y61.668 E11.49755
G1 X91.662 Y61.414 E11.506
G1 X91.662 Y60.783 E11.52698
G1 X91.702 Y59.994 E11.55326
G1 X91.821 Y59.214 E11.5795
G1 X92.019 Y58.449 E11.60578
G1 X92.293 Y57.709 E11.63203
G1 X92.641 Y57 E11.6583
G0 F6000 X93.04 Y57.107
G1 F1200 X93.456 Y56.46 E11.68388
G1 X93.937 Y55.86 E11.70946
G1 X94.229 Y55.55 E11.72362
G1 X94.348 Y55.431 E11.72922
G1 X94.92 Y54.917 E11.7548
G1 X95.542 Y54.464 E11.78039
G1 X96.207 Y54.078 E11.80597
G1 X96.909 Y53.763 E11.83156
G1 X97.64 Y53.523 E11.85715
G1 X98.391 Y53.36 E11.88271
G1 X99.156 Y53.276 E11.9083
G1 X99.58 Y53.264 E11.92241
G1 X111.287 Y53.262 E12.31179
G1 X113.184 Y53.256 E12.37488
G1 X113.228 Y53.256 E12.37635
G1 X135.957 Y53.32 E13.13232
G1 X136.725 Y53.362 E13.1579
G1 X137.484 Y53.484 E13.18347
G1 X138.227 Y53.684 E13.20906
G1 X138.945 Y53.959 E13.23463
G1 X139.631 Y54.308 E13.26023
G1 X140.276 Y54.726 E13.2858
G1 X140.78 Y55.126 E13.3072
G1 X141.011 Y55.326 E13.31736
G1 X141.565 Y55.858 E13.34291
G1 X142.061 Y56.446 E13.36849
G1 X142.484 Y57.066 E13.39346
G1 X142.628 Y57.302 E13.40265
G1 X142.994 Y57.978 E13.42822
G1 X143.286 Y58.685 E13.45366
G1 X143.382 Y58.956 E13.46322
G1 X143.601 Y59.693 E13.4888
G1 X143.742 Y60.45 E13.51441
G1 X143.804 Y61.216 E13.53997
G1 X143.792 Y61.716 E13.5566
G1 X143.869 Y62.148 E13.5712
G1 X143.964 Y62.911 E13.59677
G1 X143.979 Y63.68 E13.62235
G1 X143.928 Y64.341 E13.6444
G1 X143.776 Y65.584 E13.68605
G1 X143.825 Y66.326 E13.71079
G1 X143.774 Y67.267 E13.74213
G1 X143.825 Y68.013 E13.767
G1 X143.775 Y68.977 E13.7991
G1 X143.775 Y68.98 E13.7992
G1 X143.825 Y69.747 E13.82477
G1 X143.776 Y70.653 E13.85495
G1 X143.828 Y71.408 E13.88012
G1 X143.775 Y72.407 E13.91339
G1 X143.776 Y72.413 E13.91359
G1 X143.825 Y73.181 E13.93919
G1 X143.775 Y74.108 E13.97007
G1 X143.825 Y74.867 E13.99537
G1 X143.773 Y75.82 E14.02711
G1 X143.825 Y76.539 E14.05109
G1 X143.774 Y77.52 E14.08376
G1 X143.775 Y77.528 E14.08403
G1 X143.825 Y78.295 E14.10959
G1 X143.774 Y79.246 E14.14127
G1 X143.778 Y79.272 E14.14214
G1 X143.824 Y80.04 E14.16773
G1 X143.773 Y80.934 E14.19751
G1 X143.825 Y81.671 E14.22209
G1 X143.774 Y82.635 E14.2542
G1 X143.777 Y82.652 E14.25477
G1 X143.826 Y83.42 E14.28037
G1 X143.774 Y84.357 E14.31158
G1 X143.776 Y84.367 E14.31192
G1 X143.825 Y85.135 E14.33751
G1 X143.774 Y86.055 E14.36816
G1 X143.775 Y86.061 E14.36836
G1 X143.825 Y86.828 E14.39393
G1 X143.774 Y87.763 E14.42507
G1 X143.775 Y87.768 E14.42524
G1 X143.825 Y88.535 E14.45081
G1 X143.773 Y89.484 E14.48242
G1 X143.776 Y89.5 E14.48296
G1 X143.825 Y90.268 E14.50855
G1 X143.773 Y91.184 E14.53907
G1 X143.825 Y91.925 E14.56378
G1 X143.774 Y92.906 E14.59645
G1 X143.824 Y93.643 E14.62102
G1 X143.774 Y94.596 E14.65276
G1 X143.776 Y94.61 E14.65323
G1 X143.825 Y95.378 E14.67882
G1 X143.774 Y96.311 E14.7099
G1 X143.775 Y96.315 E14.71004
G1 X143.825 Y97.082 E14.7356
G1 X143.777 Y97.966 E14.76505
G1 X143.782 Y97.994 E14.76599
G1 X143.831 Y98.762 E14.79159
G1 X143.779 Y99.713 E14.82327
G1 X143.775 Y99.748 E14.82444
G1 X143.788 Y99.832 E14.82727
G1 X143.827 Y100.6 E14.85284
G1 X143.776 Y101.423 E14.88027
G1 X143.777 Y101.428 E14.88044
G1 X143.827 Y102.195 E14.906
G1 X143.775 Y103.134 E14.93728
G1 X143.776 Y103.137 E14.93739
G1 X143.826 Y103.904 E14.96295
G1 X143.774 Y104.85 E14.99446
G1 X143.775 Y104.858 E14.99473
G1 X143.824 Y105.625 E15.02029
G1 X143.774 Y106.551 E15.05114
G1 X143.776 Y106.565 E15.05161
G1 X143.824 Y107.332 E15.07717
G1 X143.772 Y108.265 E15.10825
G1 X143.825 Y108.96 E15.13143
G1 X143.774 Y109.977 E15.1653
G1 X143.826 Y110.727 E15.1903
G1 X143.768 Y111.781 E15.22541
G1 X143.694 Y112.365 E15.24499
G1 X143.743 Y113.016 E15.26671
G1 X143.737 Y113.14 E15.27084
G1 X143.766 Y113.3 E15.27624
G1 X143.824 Y114.067 E15.30183
G1 X143.772 Y115.1 E15.33623
G1 X143.824 Y115.738 E15.35752
G1 X143.774 Y116.802 E15.39295
G1 X143.777 Y116.82 E15.39355
G1 X143.826 Y117.588 E15.41915
G1 X143.774 Y118.508 E15.4498
G1 X143.776 Y118.521 E15.45024
G1 X143.825 Y119.289 E15.47583
G1 X143.774 Y120.215 E15.50668
G1 X143.776 Y120.228 E15.50711
G1 X143.825 Y120.996 E15.53271
G1 X143.773 Y121.93 E15.56382
G1 X143.776 Y121.946 E15.56436
G1 X143.825 Y122.714 E15.58996
G1 X143.774 Y123.627 E15.62037
G1 X143.775 Y123.634 E15.62061
G1 X143.825 Y124.401 E15.64617
G1 X143.773 Y125.358 E15.67805
G1 X143.824 Y126.052 E15.7012
G1 X143.773 Y127.064 E15.7349
G1 X143.824 Y127.779 E15.75874
G1 X143.774 Y128.744 E15.79088
G1 X143.825 Y129.512 E15.81648
G1 X143.774 Y130.463 E15.84815
G1 X143.776 Y130.478 E15.84866
G1 X143.824 Y131.245 E15.87422
G1 X143.774 Y132.164 E15.90483
G1 X143.826 Y132.905 E15.92954
G1 X143.775 Y133.893 E15.96244
G1 X143.777 Y133.906 E15.96288
G1 X143.826 Y134.674 E15.98847
G1 X143.775 Y135.587 E16.01889
G1 X143.776 Y135.594 E16.01912
G1 X143.826 Y136.361 E16.04469
G1 X143.773 Y137.345 E16.07746
G1 X143.78 Y137.39 E16.07898
G1 X143.823 Y138.158 E16.10456
G1 X143.773 Y139.002 E16.13268
G1 X143.825 Y139.723 E16.15672
G1 X143.778 Y140.658 E16.18786
G1 X143.784 Y140.694 E16.18908
G1 X143.831 Y141.462 E16.21467
G1 X143.779 Y142.403 E16.24601
G1 X143.725 Y142.854 E16.26112
G1 X143.725 Y142.861 E16.26135
G1 X143.724 Y172.018 E17.23112
G1 X143.73 Y172.047 E17.2321
G1 X143.809 Y172.812 E17.25768
G1 X143.809 Y173.582 E17.28329
G1 X143.728 Y174.347 E17.30888
G1 X143.628 Y174.858 E17.3262
G1 X143.528 Y175.29 E17.34095
G1 X143.316 Y176.029 E17.36652
G1 X143.008 Y176.787 E17.39373
G1 X142.857 Y177.106 E17.40547
G1 X142.492 Y177.783 E17.43105
G1 X142.059 Y178.419 E17.45664
G1 X141.684 Y178.873 E17.47623
G1 X141.523 Y179.053 E17.48426
G1 X140.981 Y179.599 E17.50985
G1 X140.385 Y180.086 E17.53544
G1 X139.699 Y180.533 E17.56268
G1 X139.501 Y180.647 E17.57028
G1 X138.816 Y180.996 E17.59585
G1 X138.098 Y181.271 E17.62142
G1 X137.355 Y181.471 E17.64701
G1 X136.595 Y181.592 E17.67261
G1 X135.818 Y181.634 E17.69849
G1 X134.223 Y181.636 E17.75154
G1 X134.201 Y181.636 E17.75227
G1 X124.785 Y181.62 E18.06545
G1 X124.546 Y181.714 E18.07399
G1 X123.804 Y181.92 E18.0996
G1 X123.046 Y182.048 E18.12517
G1 X122.203 Y182.097 E18.15326
G1 X121 Y182.098 E18.19327
G1 X120.981 Y182.098 E18.1939
G1 X110.564 Y182.08 E18.54037
G1 X98.967 Y182.079 E18.92609
G1 X98.199 Y182.039 E18.95167
G1 X97.439 Y181.919 E18.97726
G1 X96.696 Y181.722 E19.00282
G1 X95.977 Y181.448 E19.02842
G1 X95.291 Y181.101 E19.05399
G1 X94.644 Y180.684 E19.07959
G1 X94.044 Y180.203 E19.10516
G1 X93.735 Y179.912 E19.11928
G1 X93.618 Y179.795 E19.12478
G1 X93.104 Y179.223 E19.15036
G1 X92.651 Y178.601 E19.17595
G1 X92.265 Y177.936 E19.20153
G1 X91.95 Y177.234 E19.22712
G1 X91.71 Y176.503 E19.25271
G1 X91.547 Y175.752 E19.27827
G1 X91.463 Y174.987 E19.30387
G1 X91.451 Y174.562 E19.31801
G1 X91.451 Y174.094 E19.33357
G1 X91.455 Y173.859 E19.34139
G1 X91.465 Y173.544 E19.35187
G1 X91.465 Y173.386 E19.35713
G1 X91.469 Y173.151 E19.36495
G1 X91.478 Y172.867 E19.3744
G1 X91.478 Y171.934 E19.40543
G1 X91.518 Y171.166 E19.43101
G1 X91.637 Y170.406 E19.45659
G1 X91.835 Y169.663 E19.48217
G1 X92.101 Y168.965 E19.50701
G1 X92.1 Y111.847 E21.40676
G1 X92.1 Y73.863 E22.67012
G1 X92.113 Y73.608 E22.67861
G1 X92.075 Y72.945 E22.7007
G1 X92.075 Y72.482 E22.7161
G1 X92.066 Y72.206 E22.72528
G1 X92.062 Y71.965 E22.7333
G1 X92.062 Y71.493 E22.749
G1 X92.052 Y71.2 E22.75875
G1 X92.048 Y70.947 E22.76716
G1 X92.048 Y68.46 E22.84988
G1 X92.052 Y68.207 E22.8583
G1 X92.062 Y67.914 E22.86805
G1 X92.062 Y66.748 E22.90683
G1 X92.066 Y66.507 E22.91485
G1 X92.075 Y66.231 E22.92403
G1 X92.075 Y61.931 E23.06705
G1 X92.066 Y61.655 E23.07623
G1 X92.062 Y61.414 E23.08425
G1 X92.062 Y60.783 E23.10524
G1 X92.102 Y60.015 E23.13082
G1 X92.221 Y59.255 E23.1564
G1 X92.419 Y58.512 E23.18198
G1 X92.693 Y57.793 E23.20757
G1 X93.04 Y57.107 E23.23314
G0 F6000 X93.439 Y57.217
G1 F1200 X93.854 Y56.594 E23.25804
G1 X94.512 Y55.833 E23.2915
G1 X94.631 Y55.714 E23.29709
G1 X95.188 Y55.214 E23.32199
G1 X95.794 Y54.777 E23.34684
G1 X96.444 Y54.406 E23.37173
G1 X97.13 Y54.107 E23.39662
G1 X97.844 Y53.883 E23.42151
G1 X98.577 Y53.736 E23.44637
G1 X99.58 Y53.664 E23.47982
G1 X111.288 Y53.662 E23.86923
G1 X113.185 Y53.656 E23.93232
G1 X113.227 Y53.656 E23.93372
G1 X135.956 Y53.72 E24.68969
G1 X136.703 Y53.762 E24.71458
G1 X137.441 Y53.884 E24.73946
G1 X138.162 Y54.083 E24.76433
G1 X138.857 Y54.359 E24.78921
G1 X139.519 Y54.707 E24.81408
G1 X140.141 Y55.123 E24.83897
G1 X140.518 Y55.428 E24.8551
G1 X140.749 Y55.628 E24.86526
G1 X141.287 Y56.147 E24.89012
G1 X141.768 Y56.721 E24.91503
G1 X142.142 Y57.274 E24.93724
G1 X142.286 Y57.51 E24.94643
G1 X142.641 Y58.168 E24.9713
G1 X142.909 Y58.819 E24.99471
G1 X143.005 Y59.09 E25.00428
G1 X143.217 Y59.807 E25.02915
G1 X143.351 Y60.543 E25.05403
G1 X143.406 Y61.289 E25.07891
