;FLAVOR:Marlin
;TIME:9406
;Filament used: 6.61507m
;Layer height: 0.2
;MINX:8.55
;MINY:140.465
;MINZ:0.2
;MAXX:226.457
;MAXY:193.48
;MAXZ:8.8
;Generated with Cura_SteamEngine 4.1.0
M140 S50
M105
M190 S50
M104 S210
M105
M109 S210
M82 ;absolute extrusion mode
; Ender 3 Custom Start G-code
G28 ; Home all axes
M420 S1
G92 E0 ; Reset Extruder
G1 Z2.0 F3000 ; Move Z Axis up little to prevent scratching of Heat Bed
G1 X0.1 Y20 Z0.3 F5000.0 ; Move to start position
G1 X0.1 Y200.0 Z0.3 F1500.0 E15 ; Draw the first line
G1 X0.4 Y200.0 Z0.3 F5000.0 ; Move to side a little
G1 X0.4 Y20 Z0.3 F1500.0 E30 ; Draw the second line
G92 E0 ; Reset Extruder
G1 Z2.0 F3000 ; Move Z Axis up little to prevent scratching of Heat Bed
G92 E0
G92 E0
G1 F3600 E-8
;LAYER_COUNT:44
;LAYER:0
M107
M204 S500
M205 X10 Y10
G0 F3600 X16.354 Y150.102 Z0.2
;TYPE:SKIRT
G1 F3600 E0
G1 F1800 X16.811 Y150.088 E0.01369
G1 X38.409 Y150.079 E0.6602
G1 X38.412 Y150.079 E0.66029
G1 X128.23 Y150.08 E3.34892
G1 X128.22 Y149.881 E3.35488
G1 X128.22 Y148.265 E3.40325
G1 X128.26 Y147.476 E3.4269
G1 X128.379 Y146.696 E3.45052
G1 X128.577 Y145.931 E3.47418
G1 X128.851 Y145.191 E3.4978
G1 X129.199 Y144.482 E3.52144
G1 X129.617 Y143.811 E3.5451
G1 X130.1 Y143.187 E3.56872
G1 X130.643 Y142.614 E3.59235
G1 X131.242 Y142.099 E3.616
G1 X131.89 Y141.648 E3.63963
G1 X132.581 Y141.264 E3.6633
G1 X133.306 Y140.952 E3.68692
G1 X134.059 Y140.715 E3.71055
G1 X134.833 Y140.556 E3.73421
G1 X135.618 Y140.475 E3.75783
G1 X136.02 Y140.465 E3.76987
G1 X192.22 Y140.465 E5.45217
G1 X193.009 Y140.505 E5.47581
G1 X193.789 Y140.624 E5.49943
G1 X194.554 Y140.822 E5.52309
G1 X195.294 Y141.096 E5.54671
G1 X196.003 Y141.444 E5.57035
G1 X196.674 Y141.862 E5.59401
G1 X197.298 Y142.345 E5.61763
G1 X197.871 Y142.888 E5.64126
G1 X198.386 Y143.487 E5.66491
G1 X198.837 Y144.135 E5.68854
G1 X199.221 Y144.826 E5.71221
G1 X199.533 Y145.551 E5.73583
G1 X199.77 Y146.304 E5.75947
G1 X199.929 Y147.078 E5.78312
G1 X200.01 Y147.863 E5.80674
G1 X200.02 Y148.265 E5.81878
G1 X200.02 Y149.881 E5.86715
G1 X200.01 Y150.08 E5.87312
G1 X213.553 Y150.08 E6.27851
G1 X218.199 Y150.088 E6.41759
G1 X218.988 Y150.129 E6.44124
G1 X219.768 Y150.25 E6.46487
G1 X220.533 Y150.449 E6.48853
G1 X221.273 Y150.725 E6.51217
G1 X221.981 Y151.074 E6.5358
G1 X222.651 Y151.492 E6.55944
G1 X223.275 Y151.976 E6.58308
G1 X223.58 Y152.253 E6.59541
G1 X223.697 Y152.365 E6.60026
G1 X224.239 Y152.94 E6.62391
G1 X224.72 Y153.566 E6.64754
G1 X225.135 Y154.237 E6.67116
G1 X225.481 Y154.948 E6.69483
G1 X225.753 Y155.689 E6.71846
G1 X225.948 Y156.454 E6.74209
G1 X226.065 Y157.235 E6.76573
G1 X226.1 Y157.78 E6.78208
G1 X226.278 Y164.09 E6.97104
G1 X226.281 Y164.242 E6.97559
G1 X226.45 Y183.614 E7.55549
G1 X226.45 Y183.646 E7.55645
G1 X226.457 Y185.155 E7.60162
G1 X226.447 Y185.583 E7.61444
G1 X226.428 Y185.961 E7.62577
G1 X226.349 Y186.746 E7.64938
G1 X226.19 Y187.52 E7.67304
G1 X225.954 Y188.273 E7.69666
G1 X225.643 Y188.999 E7.7203
G1 X225.26 Y189.69 E7.74395
G1 X224.81 Y190.339 E7.76759
G1 X224.296 Y190.938 E7.79122
G1 X224.006 Y191.228 E7.80349
G1 X223.889 Y191.339 E7.80832
G1 X223.29 Y191.852 E7.83193
G1 X222.641 Y192.303 E7.85559
G1 X221.95 Y192.686 E7.87923
G1 X221.225 Y192.996 E7.90284
G1 X220.471 Y193.232 E7.92649
G1 X219.697 Y193.391 E7.95014
G1 X218.521 Y193.48 E7.98544
G1 X68.266 Y193.479 E12.4832
G1 X16.477 Y193.48 E14.03345
G1 X15.688 Y193.44 E14.0571
G1 X14.908 Y193.321 E14.08072
G1 X14.143 Y193.123 E14.10437
G1 X13.403 Y192.849 E14.128
G1 X12.694 Y192.501 E14.15164
G1 X12.023 Y192.083 E14.1753
G1 X11.399 Y191.6 E14.19892
G1 X10.985 Y191.219 E14.21576
G1 X10.868 Y191.103 E14.2207
G1 X10.336 Y190.519 E14.24434
G1 X9.866 Y189.885 E14.26797
G1 X9.463 Y189.206 E14.2916
G1 X9.13 Y188.49 E14.31524
G1 X8.871 Y187.744 E14.33888
G1 X8.689 Y186.976 E14.36251
G1 X8.585 Y186.193 E14.38615
G1 X8.56 Y185.606 E14.40374
G1 X8.55 Y183.727 E14.45998
G1 X8.55 Y183.617 E14.46328
G1 X8.719 Y164.248 E15.04309
G1 X8.722 Y164.088 E15.04788
G1 X8.819 Y160.766 E15.14737
G1 X8.9 Y157.79 E15.23648
G1 X8.961 Y157.003 E15.26011
G1 X9.102 Y156.226 E15.28375
G1 X9.32 Y155.467 E15.30739
G1 X9.614 Y154.734 E15.33103
G1 X9.981 Y154.034 E15.35469
G1 X10.416 Y153.376 E15.3783
G1 X10.916 Y152.764 E15.40196
G1 X11.278 Y152.39 E15.41754
G1 X11.395 Y152.277 E15.42241
G1 X11.99 Y151.758 E15.44604
G1 X12.635 Y151.302 E15.46969
G1 X13.322 Y150.913 E15.49332
G1 X14.045 Y150.596 E15.51695
G1 X14.797 Y150.353 E15.54061
G1 X15.569 Y150.188 E15.56424
G1 X16.354 Y150.102 E15.58788
G0 F3600 X16.811 Y150.488
G1 F1800 X38.409 Y150.479 E16.2344
G1 X38.412 Y150.479 E16.23449
G1 X128.65 Y150.48 E18.93568
G1 X128.636 Y150.362 E18.93924
G1 X128.62 Y149.881 E18.95364
G1 X128.62 Y148.265 E19.00202
G1 X128.66 Y147.497 E19.02504
G1 X128.779 Y146.737 E19.04807
G1 X128.977 Y145.994 E19.07108
G1 X129.251 Y145.275 E19.09411
G1 X129.598 Y144.589 E19.11713
G1 X130.014 Y143.942 E19.14015
G1 X130.495 Y143.342 E19.16317
G1 X131.036 Y142.795 E19.1862
G1 X131.631 Y142.307 E19.20924
G1 X132.273 Y141.884 E19.23225
G1 X132.956 Y141.529 E19.25529
G1 X133.671 Y141.248 E19.27829
G1 X134.413 Y141.042 E19.30134
G1 X135.171 Y140.914 E19.32435
G1 X136.02 Y140.865 E19.34981
G1 X192.22 Y140.865 E21.03211
G1 X192.988 Y140.905 E21.05513
G1 X193.748 Y141.024 E21.07815
G1 X194.491 Y141.222 E21.10117
G1 X195.21 Y141.496 E21.1242
G1 X195.896 Y141.843 E21.14722
G1 X196.543 Y142.259 E21.17024
G1 X197.143 Y142.74 E21.19326
G1 X197.69 Y143.281 E21.21629
G1 X198.178 Y143.876 E21.23932
G1 X198.601 Y144.518 E21.26234
G1 X198.956 Y145.201 E21.28538
G1 X199.237 Y145.916 E21.30838
G1 X199.443 Y146.658 E21.33143
G1 X199.571 Y147.416 E21.35444
G1 X199.62 Y148.265 E21.3799
G1 X199.62 Y149.881 E21.42827
G1 X199.589 Y150.48 E21.44622
G1 X213.553 Y150.48 E21.86422
G1 X218.199 Y150.488 E22.0033
G1 X218.967 Y150.529 E22.02632
G1 X219.726 Y150.65 E22.04933
G1 X220.469 Y150.849 E22.07235
G1 X221.188 Y151.124 E22.0954
G1 X221.874 Y151.472 E22.11842
G1 X222.52 Y151.89 E22.14145
G1 X223.303 Y152.542 E22.17195
G1 X223.42 Y152.654 E22.1768
G1 X223.947 Y153.214 E22.19982
G1 X224.414 Y153.826 E22.22287
G1 X224.814 Y154.483 E22.24589
G1 X225.144 Y155.178 E22.26892
G1 X225.4 Y155.903 E22.29194
G1 X225.579 Y156.651 E22.31496
G1 X225.7 Y157.791 E22.34928
G1 X225.878 Y164.101 E22.53823
G1 X225.881 Y164.245 E22.54255
G1 X226.05 Y183.617 E23.12245
G1 X226.05 Y183.648 E23.12338
G1 X226.057 Y185.157 E23.16855
G1 X226.048 Y185.562 E23.18068
G1 X226.029 Y185.94 E23.19201
G1 X225.95 Y186.706 E23.21506
G1 X225.793 Y187.458 E23.23805
G1 X225.558 Y188.191 E23.2611
G1 X225.248 Y188.895 E23.28412
G1 X224.867 Y189.563 E23.30714
G1 X224.419 Y190.188 E23.33016
G1 X223.731 Y190.937 E23.3606
G1 X223.614 Y191.048 E23.36543
G1 X223.029 Y191.548 E23.38847
G1 X222.396 Y191.984 E23.41148
G1 X221.721 Y192.353 E23.4345
G1 X221.011 Y192.649 E23.45753
G1 X220.274 Y192.869 E23.48055
G1 X219.518 Y193.013 E23.50359
G1 X218.521 Y193.08 E23.5335
G1 X68.266 Y193.079 E28.03125
G1 X16.477 Y193.08 E29.58151
G1 X15.709 Y193.04 E29.60453
G1 X14.949 Y192.921 E29.62756
G1 X14.206 Y192.723 E29.65058
G1 X13.487 Y192.449 E29.67361
G1 X12.8 Y192.102 E29.69665
G1 X12.154 Y191.686 E29.71965
G1 X11.554 Y191.205 E29.74267
G1 X11.267 Y190.935 E29.75446
G1 X11.15 Y190.819 E29.75939
G1 X10.633 Y190.25 E29.78241
G1 X10.177 Y189.63 E29.80545
G1 X9.788 Y188.966 E29.82848
G1 X9.471 Y188.266 E29.85148
G1 X9.228 Y187.536 E29.87452
G1 X9.061 Y186.785 E29.89755
G1 X8.974 Y186.021 E29.92056
G1 X8.96 Y185.603 E29.93308
G1 X8.95 Y183.724 E29.98933
G1 X8.95 Y183.62 E29.99244
G1 X9.119 Y164.251 E30.57226
G1 X9.122 Y164.1 E30.57678
G1 X9.219 Y160.778 E30.67626
G1 X9.3 Y157.801 E30.76541
G1 X9.36 Y157.034 E30.78844
G1 X9.5 Y156.278 E30.81145
G1 X9.718 Y155.54 E30.83449
G1 X10.011 Y154.829 E30.85751
G1 X10.377 Y154.152 E30.88055
G1 X10.81 Y153.517 E30.90355
G1 X11.556 Y152.678 E30.93716
G1 X11.673 Y152.565 E30.94203
G1 X12.253 Y152.06 E30.96505
G1 X12.883 Y151.618 E30.98809
G1 X13.555 Y151.244 E31.01111
G1 X14.262 Y150.942 E31.03412
G1 X14.997 Y150.715 E31.05715
G1 X15.751 Y150.565 E31.08016
G1 X16.811 Y150.488 E31.11197
G0 F3600 X16.811 Y150.888
G1 F1800 X38.409 Y150.879 E31.75849
G1 X38.412 Y150.879 E31.75858
G1 X129.096 Y150.88 E34.47313
G1 X129.08 Y150.795 E34.47572
G1 X129.02 Y149.881 E34.50314
G1 X129.02 Y148.265 E34.55151
G1 X129.06 Y147.518 E34.5739
G1 X129.179 Y146.78 E34.59628
G1 X129.377 Y146.058 E34.61869
G1 X129.65 Y145.362 E34.64107
G1 X129.997 Y144.699 E34.66347
G1 X130.412 Y144.076 E34.68588
G1 X130.891 Y143.502 E34.70825
G1 X131.428 Y142.981 E34.73065
G1 X132.018 Y142.522 E34.75303
G1 X132.654 Y142.127 E34.77544
G1 X133.328 Y141.803 E34.79782
G1 X134.033 Y141.553 E34.82022
G1 X134.761 Y141.379 E34.84262
G1 X135.503 Y141.284 E34.86501
G1 X136.02 Y141.265 E34.8805
G1 X192.22 Y141.265 E36.5628
G1 X192.967 Y141.305 E36.58519
G1 X193.705 Y141.424 E36.60757
G1 X194.427 Y141.622 E36.62998
G1 X195.123 Y141.895 E36.65236
G1 X195.786 Y142.242 E36.67476
G1 X196.409 Y142.657 E36.69717
G1 X196.983 Y143.136 E36.71954
G1 X197.504 Y143.673 E36.74194
G1 X197.963 Y144.263 E36.76432
G1 X198.358 Y144.899 E36.78673
G1 X198.682 Y145.573 E36.80911
G1 X198.932 Y146.278 E36.83151
G1 X199.106 Y147.006 E36.85391
G1 X199.201 Y147.748 E36.8763
G1 X199.22 Y148.265 E36.89179
G1 X199.22 Y149.881 E36.94016
G1 X199.18 Y150.628 E36.96256
G1 X199.139 Y150.88 E36.9702
G1 X213.552 Y150.88 E37.40164
G1 X218.198 Y150.888 E37.54071
G1 X218.945 Y150.929 E37.56311
G1 X219.683 Y151.05 E37.58549
G1 X220.404 Y151.249 E37.60788
G1 X221.1 Y151.523 E37.63027
G1 X221.763 Y151.871 E37.65269
G1 X222.384 Y152.287 E37.67506
G1 X223.027 Y152.831 E37.70028
G1 X223.144 Y152.943 E37.70512
G1 X223.655 Y153.489 E37.72751
G1 X224.106 Y154.086 E37.74991
G1 X224.491 Y154.727 E37.77229
G1 X224.805 Y155.406 E37.79468
G1 X225.044 Y156.115 E37.81708
G1 X225.207 Y156.845 E37.83947
G1 X225.3 Y157.803 E37.86828
G1 X225.478 Y164.113 E38.05724
G1 X225.481 Y164.249 E38.06131
G1 X225.65 Y183.621 E38.64122
G1 X225.65 Y183.65 E38.64209
G1 X225.657 Y185.159 E38.68726
G1 X225.648 Y185.542 E38.69872
G1 X225.629 Y185.92 E38.71005
G1 X225.552 Y186.664 E38.73244
G1 X225.395 Y187.396 E38.75485
G1 X225.162 Y188.107 E38.77725
G1 X224.854 Y188.788 E38.79962
G1 X224.475 Y189.433 E38.82202
G1 X224.029 Y190.034 E38.84442
G1 X223.456 Y190.647 E38.86954
G1 X223.339 Y190.758 E38.87437
G1 X222.769 Y191.243 E38.89677
G1 X222.151 Y191.665 E38.91917
G1 X221.492 Y192.018 E38.94155
G1 X220.799 Y192.299 E38.96393
G1 X220.079 Y192.504 E38.98634
G1 X219.342 Y192.632 E39.00873
G1 X218.521 Y192.68 E39.03335
G1 X68.266 Y192.679 E43.5311
G1 X16.477 Y192.68 E45.08136
G1 X15.73 Y192.64 E45.10376
G1 X14.991 Y192.521 E45.12616
G1 X14.27 Y192.323 E45.14854
G1 X13.574 Y192.05 E45.17092
G1 X12.911 Y191.703 E45.19332
G1 X12.288 Y191.288 E45.21573
G1 X11.549 Y190.651 E45.24494
G1 X11.432 Y190.535 E45.24987
G1 X10.929 Y189.981 E45.27227
G1 X10.489 Y189.376 E45.29466
G1 X10.116 Y188.728 E45.31704
G1 X9.814 Y188.043 E45.33945
G1 X9.587 Y187.33 E45.36185
G1 X9.437 Y186.598 E45.38422
G1 X9.36 Y185.601 E45.41415
G1 X9.35 Y183.722 E45.4704
G1 X9.35 Y183.624 E45.47333
G1 X9.519 Y164.255 E46.05315
G1 X9.522 Y164.112 E46.05743
G1 X9.619 Y160.79 E46.15691
G1 X9.7 Y157.812 E46.24609
G1 X9.76 Y157.066 E46.26849
G1 X9.899 Y156.331 E46.29088
G1 X10.116 Y155.615 E46.31328
G1 X10.408 Y154.926 E46.33568
G1 X10.772 Y154.273 E46.35806
G1 X11.204 Y153.662 E46.38046
G1 X11.834 Y152.966 E46.40856
G1 X11.951 Y152.853 E46.41343
G1 X12.516 Y152.363 E46.43581
G1 X13.13 Y151.936 E46.4582
G1 X13.787 Y151.577 E46.48061
G1 X14.477 Y151.29 E46.50298
G1 X15.195 Y151.078 E46.52539
G1 X15.931 Y150.944 E46.54779
G1 X16.811 Y150.888 E46.57418
G0 F3600 X16.107 Y151.326
G1 F1800 X16.811 Y151.288 E46.59529
G1 X38.409 Y151.279 E47.2418
G1 X38.412 Y151.279 E47.24189
G1 X129.575 Y151.28 E49.97078
G1 X129.551 Y151.189 E49.97359
G1 X129.446 Y150.471 E49.99532
G1 X129.42 Y149.881 E50.01299
G1 X129.42 Y148.265 E50.06137
G1 X129.46 Y147.54 E50.0831
G1 X129.579 Y146.823 E50.10486
G1 X129.777 Y146.124 E50.12661
G1 X130.05 Y145.451 E50.14835
G1 X130.395 Y144.812 E50.17008
G1 X130.809 Y144.215 E50.19183
G1 X131.285 Y143.667 E50.21356
G1 X131.819 Y143.174 E50.23531
G1 X132.404 Y142.744 E50.25705
G1 X133.033 Y142.38 E50.2788
G1 X133.698 Y142.087 E50.30055
G1 X134.391 Y141.869 E50.3223
G1 X135.103 Y141.729 E50.34402
G1 X136.02 Y141.665 E50.37154
G1 X192.22 Y141.665 E52.05384
G1 X192.945 Y141.705 E52.07557
G1 X193.662 Y141.824 E52.09733
G1 X194.361 Y142.022 E52.11908
G1 X195.034 Y142.295 E52.14082
G1 X195.673 Y142.64 E52.16255
G1 X196.27 Y143.054 E52.1843
G1 X196.818 Y143.53 E52.20603
G1 X197.311 Y144.064 E52.22778
G1 X197.741 Y144.649 E52.24952
G1 X198.105 Y145.278 E52.27127
G1 X198.398 Y145.943 E52.29302
G1 X198.616 Y146.636 E52.31477
G1 X198.756 Y147.348 E52.33649
G1 X198.82 Y148.265 E52.36401
G1 X198.82 Y149.881 E52.41238
G1 X198.78 Y150.606 E52.43412
G1 X198.668 Y151.28 E52.45457
G1 X213.551 Y151.28 E52.90008
G1 X218.197 Y151.288 E53.03915
G1 X218.923 Y151.329 E53.06092
G1 X219.639 Y151.45 E53.08266
G1 X220.337 Y151.649 E53.10438
G1 X221.01 Y151.923 E53.12613
G1 X221.649 Y152.269 E53.14789
G1 X222.245 Y152.684 E53.16963
G1 X222.75 Y153.12 E53.1896
G1 X222.867 Y153.232 E53.19445
G1 X223.363 Y153.763 E53.2162
G1 X223.798 Y154.344 E53.23792
G1 X224.167 Y154.97 E53.25967
G1 X224.464 Y155.633 E53.28142
G1 X224.687 Y156.324 E53.30316
G1 X224.832 Y157.036 E53.32491
G1 X224.9 Y157.814 E53.34828
G1 X225.078 Y164.124 E53.53724
G1 X225.081 Y164.252 E53.54108
G1 X225.25 Y183.624 E54.12098
G1 X225.25 Y183.651 E54.12179
G1 X225.257 Y185.16 E54.16696
G1 X225.249 Y185.522 E54.1778
G1 X225.23 Y185.9 E54.18913
G1 X225.153 Y186.623 E54.21089
G1 X224.998 Y187.332 E54.23262
G1 X224.766 Y188.02 E54.25435
G1 X224.459 Y188.679 E54.27611
G1 X224.082 Y189.3 E54.29786
G1 X223.639 Y189.876 E54.31961
G1 X223.181 Y190.357 E54.33949
G1 X223.064 Y190.468 E54.34432
G1 X222.51 Y190.938 E54.36607
G1 X221.908 Y191.345 E54.38782
G1 X221.265 Y191.683 E54.40957
G1 X220.589 Y191.948 E54.4313
G1 X219.887 Y192.137 E54.45306
G1 X219.17 Y192.248 E54.47478
G1 X218.521 Y192.28 E54.49423
G1 X68.266 Y192.279 E58.99198
G1 X16.477 Y192.28 E60.54224
G1 X15.752 Y192.24 E60.56398
G1 X15.035 Y192.121 E60.58573
G1 X14.336 Y191.923 E60.60748
G1 X13.663 Y191.65 E60.62922
G1 X13.024 Y191.305 E60.65096
G1 X12.427 Y190.891 E60.67271
G1 X11.83 Y190.367 E60.69648
G1 X11.713 Y190.251 E60.70142
G1 X11.226 Y189.712 E60.72316
G1 X10.802 Y189.123 E60.74489
G1 X10.444 Y188.49 E60.76665
G1 X10.158 Y187.822 E60.78841
G1 X9.948 Y187.127 E60.81014
G1 X9.815 Y186.413 E60.83188
G1 X9.76 Y185.599 E60.8563
G1 X9.75 Y183.72 E60.91255
G1 X9.75 Y183.627 E60.91533
G1 X9.919 Y164.258 E61.49515
G1 X9.922 Y164.123 E61.49919
G1 X10.019 Y160.815 E61.59826
G1 X10.018 Y160.815 E61.59829
G1 X10.099 Y157.822 E61.68791
G1 X10.159 Y157.099 E61.70963
G1 X10.298 Y156.386 E61.73137
G1 X10.514 Y155.692 E61.75313
G1 X10.805 Y155.027 E61.77486
G1 X11.168 Y154.397 E61.79662
G1 X11.597 Y153.811 E61.81836
G1 X12.112 Y153.254 E61.84107
G1 X12.229 Y153.141 E61.84594
G1 X12.778 Y152.666 E61.86767
G1 X13.377 Y152.254 E61.88943
G1 X14.017 Y151.91 E61.91118
G1 X14.691 Y151.639 E61.93293
G1 X15.39 Y151.443 E61.95466
G1 X16.107 Y151.326 E61.97641
G0 F3600 X16.279 Y151.711
G1 F1800 X16.811 Y151.688 E61.99235
G1 X38.409 Y151.679 E62.63886
G1 X38.412 Y151.679 E62.63895
G1 X130.094 Y151.68 E65.38337
G1 X130.047 Y151.542 E65.38774
G1 X129.897 Y150.854 E65.40882
G1 X129.82 Y149.881 E65.43803
G1 X129.82 Y148.265 E65.48641
G1 X129.86 Y147.562 E65.50748
G1 X129.979 Y146.868 E65.52856
G1 X130.177 Y146.193 E65.54962
G1 X130.449 Y145.544 E65.57068
G1 X130.794 Y144.93 E65.59176
G1 X131.205 Y144.359 E65.61282
G1 X131.679 Y143.838 E65.63391
G1 X132.209 Y143.374 E65.65499
G1 X132.788 Y142.974 E65.67606
G1 X133.409 Y142.642 E65.69714
G1 X134.063 Y142.382 E65.71821
G1 X134.743 Y142.198 E65.73929
G1 X135.439 Y142.092 E65.76037
G1 X136.02 Y142.065 E65.77778
G1 X192.22 Y142.065 E67.46008
G1 X192.923 Y142.105 E67.48115
G1 X193.617 Y142.224 E67.50223
