;FLAVOR:Marlin
;TIME:1672
;Filament used: 0.967085m
;Layer height: 0.12
;MINX:96.873
;MINY:42.482
;MINZ:0.24
;MAXX:159.08
;MAXY:92.458
;MAXZ:4.73
;Generated with Cura_SteamEngine 4.5.0
M140 S60
M105
M190 S60
M104 S200
M105
M109 S200
M82 ;absolute extrusion mode
; Ender 3 Custom Start G-code
G28 ; Home all axes
M420 S1
G92 E0 ; Reset Extruder
G1 Z2.0 F3000 ; Move Z Axis up little to prevent scratching of Heat Bed
G1 X0.1 Y20 Z0.3 F5000.0 ; Move to start position
G1 X0.1 Y200.0 Z0.3 F1500.0 E15 ; Draw the first line
G1 X0.4 Y200.0 Z0.3 F5000.0 ; Move to side a little
G1 X0.4 Y20 Z0.3 F1500.0 E30 ; Draw the second line
G92 E0 ; Reset Extruder
G1 Z2.0 F3000 ; Move Z Axis up little to prevent scratching of Heat Bed
G92 E0
G92 E0
G1 F3000 E-8
;LAYER_COUNT:32
;LAYER:-7
M107
M204 S500
M205 X8 Y8
G0 F9000 X99.718 Y51.404 Z0.24
;TYPE:SUPPORT-INTERFACE
G1 F3000 E0
G1 F1350 X100.294 Y50.423 E0.09081
G1 X100.797 Y49.688 E0.1619
G1 X101.347 Y48.977 E0.23366
G1 X101.494 Y48.8 E0.25202
G1 X102.071 Y48.157 E0.32099
G1 X102.202 Y48.022 E0.336
G1 X102.826 Y47.421 E0.40516
G1 X102.965 Y47.296 E0.42008
G1 X103.376 Y46.943 E0.46333
G1 X103.475 Y46.865 E0.47339
G1 X104.205 Y46.309 E0.54664
G1 X104.344 Y46.211 E0.56021
G1 X105.072 Y45.737 E0.62956
G1 X105.265 Y45.622 E0.64749
G1 X106.416 Y45.006 E0.7517
G1 X107.267 Y44.632 E0.8259
G1 X107.466 Y44.553 E0.84299
G1 X108.299 Y44.259 E0.91351
G1 X108.456 Y44.209 E0.92666
G1 X109.382 Y43.955 E1.00331
G1 X110.481 Y43.736 E1.09276
G1 X111.38 Y43.62 E1.16511
G1 X111.553 Y43.604 E1.17898
G1 X112.881 Y43.547 E1.28509
G1 X140.822 Y43.548 E3.51546
G1 X141.812 Y43.584 E3.59454
G1 X141.992 Y43.597 E3.60894
G1 X142.758 Y43.677 E3.67042
G1 X143.831 Y43.858 E3.75728
G1 X144.727 Y44.073 E3.83084
G1 X144.898 Y44.123 E3.84506
G1 X146.317 Y44.606 E3.96471
G1 X147.318 Y45.046 E4.05199
G1 X148.154 Y45.486 E4.1274
G1 X148.27 Y45.553 E4.1381
G1 X149.04 Y46.034 E4.21057
G1 X149.178 Y46.127 E4.22385
G1 X149.899 Y46.653 E4.29509
G1 X150.05 Y46.772 E4.31044
G1 X150.91 Y47.51 E4.4009
G1 X150.982 Y47.579 E4.40886
G1 X151.639 Y48.233 E4.48286
G1 X151.762 Y48.364 E4.4972
G1 X152.354 Y49.045 E4.56923
G1 X152.452 Y49.166 E4.58166
G1 X152.988 Y49.885 E4.65325
G1 X153.089 Y50.031 E4.66742
G1 X153.578 Y50.796 E4.7399
G1 X153.651 Y50.92 E4.75138
G1 X154.178 Y51.903 E4.84041
G1 X154.573 Y52.78 E4.91719
G1 X154.634 Y52.93 E4.93012
G1 X154.947 Y53.789 E5.0031
G1 X154.995 Y53.937 E5.01552
G1 X155.287 Y54.978 E5.10182
G1 X155.413 Y55.561 E5.14943
G1 X155.57 Y56.499 E5.22535
G1 X155.591 Y56.671 E5.23918
G1 X155.704 Y58.17 E5.35918
G1 X155.7 Y59.135 E5.43621
G1 X155.693 Y59.322 E5.45115
G1 X155.626 Y60.198 E5.52128
G1 X155.605 Y60.386 E5.53638
G1 X155.472 Y61.263 E5.60719
G1 X155.437 Y61.447 E5.62214
G1 X155.347 Y61.852 E5.65525
G1 X155.242 Y62.512 E5.7086
G1 X155.22 Y63.005 E5.74799
G1 X155.22 Y64.335 E5.85416
G1 X155.262 Y65.003 E5.90759
G1 X155.391 Y65.674 E5.96213
G1 X155.604 Y66.322 E6.01658
G1 X155.896 Y66.939 E6.07107
G1 X156.576 Y68.275 E6.19073
G1 X157.031 Y69.397 E6.28738
G1 X157.059 Y69.48 E6.29437
G1 X157.492 Y70.88 E6.41135
G1 X157.526 Y71.025 E6.42324
G1 X157.783 Y72.237 E6.52214
G1 X157.801 Y72.348 E6.53111
G1 X157.959 Y73.627 E6.63398
G1 X158.019 Y75.009 E6.7444
G1 X158.016 Y75.125 E6.75367
G1 X157.951 Y76.496 E6.86323
G1 X157.941 Y76.579 E6.8699
G1 X157.784 Y77.769 E6.96572
G1 X157.765 Y77.87 E6.97392
G1 X157.493 Y79.124 E7.07635
G1 X157.464 Y79.227 E7.08489
G1 X157.024 Y80.632 E7.20241
G1 X156.991 Y80.718 E7.20977
G1 X156.505 Y81.884 E7.3106
G1 X155.84 Y83.174 E7.42645
G1 X155.792 Y83.253 E7.43383
G1 X155.174 Y84.234 E7.52638
G1 X155.084 Y84.362 E7.53887
G1 X154.397 Y85.285 E7.63072
G1 X154.328 Y85.368 E7.63934
G1 X153.257 Y86.56 E7.76725
G1 X152.311 Y87.441 E7.87044
G1 X152.214 Y87.522 E7.88053
G1 X151.257 Y88.275 E7.97773
G1 X151.136 Y88.36 E7.98954
G1 X149.909 Y89.153 E8.10616
G1 X148.819 Y89.739 E8.20494
G1 X148.707 Y89.791 E8.2148
G1 X147.439 Y90.336 E8.32497
G1 X147.327 Y90.377 E8.33449
G1 X146.177 Y90.758 E8.43119
G1 X146.084 Y90.783 E8.43888
G1 X144.581 Y91.133 E8.56207
G1 X143.414 Y91.305 E8.65623
G1 X143.287 Y91.315 E8.6664
G1 X141.833 Y91.4 E8.78266
G1 X140.581 Y91.37 E8.88263
G1 X140.403 Y91.354 E8.8969
G1 X139.174 Y91.218 E8.9956
G1 X139.053 Y91.199 E9.00538
G1 X137.791 Y90.951 E9.10804
G1 X137.701 Y90.927 E9.11548
G1 X136.454 Y90.569 E9.21904
G1 X136.289 Y90.509 E9.23305
G1 X135.053 Y90.031 E9.33884
G1 X134.965 Y89.991 E9.34655
G1 X133.853 Y89.447 E9.44537
G1 X133.675 Y89.345 E9.46175
G1 X133.08 Y89.04 E9.51512
G1 X132.438 Y88.808 E9.56961
G1 X131.769 Y88.658 E9.62434
G1 X130.943 Y88.593 E9.69048
G1 X113.016 Y88.591 E11.12149
G1 X111.892 Y88.546 E11.21128
G1 X110.975 Y88.444 E11.28493
G1 X110.8 Y88.419 E11.29904
G1 X109.911 Y88.255 E11.3712
G1 X109.788 Y88.227 E11.38127
G1 X108.894 Y87.993 E11.45504
G1 X108.731 Y87.944 E11.46863
G1 X107.879 Y87.654 E11.54047
G1 X107.734 Y87.599 E11.55285
G1 X106.899 Y87.243 E11.62531
G1 X106.744 Y87.17 E11.63898
G1 X105.953 Y86.764 E11.70995
G1 X105.801 Y86.68 E11.72382
G1 X105.044 Y86.217 E11.79465
G1 X104.889 Y86.114 E11.80951
G1 X104.163 Y85.595 E11.88074
G1 X104.031 Y85.492 E11.89411
G1 X103.338 Y84.916 E11.96604
G1 X103.225 Y84.815 E11.97814
G1 X102.558 Y84.171 E12.05215
G1 X102.456 Y84.064 E12.06395
G1 X101.856 Y83.395 E12.13568
G1 X101.742 Y83.258 E12.14991
G1 X101.106 Y82.427 E12.23344
G1 X100.595 Y81.654 E12.30741
G1 X100.527 Y81.542 E12.31787
G1 X100.005 Y80.602 E12.4037
G1 X99.623 Y79.786 E12.47562
G1 X99.549 Y79.612 E12.49071
G1 X99.236 Y78.797 E12.5604
G1 X99.175 Y78.619 E12.57542
G1 X98.92 Y77.769 E12.64626
G1 X98.88 Y77.616 E12.65888
G1 X98.679 Y76.715 E12.73257
G1 X98.653 Y76.571 E12.74425
G1 X98.52 Y75.669 E12.81703
G1 X98.503 Y75.509 E12.82988
G1 X98.428 Y74.436 E12.91574
G1 X98.42 Y73.936 E12.95565
G1 X98.42 Y63.006 E13.82813
G1 X98.378 Y62.34 E13.8814
G1 X98.277 Y61.781 E13.92675
G1 X98.198 Y61.43 E13.95547
G1 X98.053 Y60.529 E14.02831
G1 X98.032 Y60.358 E14.04207
G1 X97.953 Y59.461 E14.11395
G1 X97.946 Y59.32 E14.12521
G1 X97.943 Y57.953 E14.23433
G1 X98.013 Y56.974 E14.31268
G1 X98.031 Y56.799 E14.32673
G1 X98.164 Y55.891 E14.39998
G1 X98.19 Y55.749 E14.4115
G1 X98.489 Y54.465 E14.51674
G1 X98.778 Y53.543 E14.59387
G1 X98.833 Y53.388 E14.607
G1 X99.16 Y52.564 E14.67776
G1 X99.23 Y52.402 E14.69185
G1 X99.718 Y51.404 E14.78053
G0 F9000 X99.2 Y52.471
G1 F1350 X99.2 Y78.691 E16.87352
G0 F9000 X100.8 Y81.964
G1 F1350 X100.8 Y49.684 E19.45025
G0 F9000 X102.4 Y47.831
G1 F1350 X102.4 Y84.001 E22.3375
G0 F9000 X104 Y85.466
G1 F1350 X104 Y46.465 E25.45073
G0 F9000 X105.6 Y45.442
G1 F1350 X105.6 Y86.557 E28.7327
G0 F9000 X107.2 Y87.371
G1 F1350 X107.2 Y44.661 E32.142
G0 F9000 X108.8 Y44.114
G1 F1350 X108.8 Y87.964 E35.6423
G0 F9000 X110.4 Y88.345
G1 F1350 X110.4 Y43.752 E39.2019
G0 F9000 X112 Y43.584
G1 F1350 X112 Y88.55 E42.79128
G0 F9000 X113.6 Y88.591
G1 F1350 X113.6 Y43.548 E46.38681
G0 F9000 X115.2 Y43.548
G1 F1350 X115.2 Y88.591 E49.98234
G0 F9000 X116.8 Y88.591
G1 F1350 X116.8 Y43.548 E53.57786
G0 F9000 X118.4 Y43.548
G1 F1350 X118.4 Y88.591 E57.17339
G0 F9000 X120 Y88.591
G1 F1350 X120 Y43.548 E60.76892
G0 F9000 X121.6 Y43.548
G1 F1350 X121.6 Y88.591 E64.36444
G0 F9000 X123.2 Y88.592
G1 F1350 X123.2 Y43.548 E67.96005
G0 F9000 X124.8 Y43.548
G1 F1350 X124.8 Y88.592 E71.55566
G0 F9000 X126.4 Y88.592
G1 F1350 X126.4 Y43.548 E75.15127
G0 F9000 X128 Y43.548
G1 F1350 X128 Y88.592 E78.74687
G0 F9000 X129.6 Y88.592
G1 F1350 X129.6 Y43.548 E82.34248
G0 F9000 X131.2 Y43.548
G1 F1350 X131.2 Y88.613 E85.93976
G0 F9000 X132.8 Y88.938
G1 F1350 X132.8 Y43.548 E89.56299
G0 F9000 X134.4 Y43.548
G1 F1350 X134.4 Y89.714 E93.24816
G0 F9000 X136 Y90.397
G1 F1350 X136 Y43.548 E96.98785
G0 F9000 X137.6 Y43.548
G1 F1350 X137.6 Y90.898 E100.76753
G0 F9000 X139.2 Y91.22
G1 F1350 X139.2 Y43.548 E104.57291
G0 F9000 X140.8 Y43.548
G1 F1350 X140.8 Y91.375 E108.39067
G0 F9000 X142.4 Y91.367
G1 F1350 X142.4 Y43.64 E112.20045
G0 F9000 X144 Y43.899
G1 F1350 X144 Y91.219 E115.97773
G0 F9000 X145.6 Y90.896
G1 F1350 X145.6 Y44.362 E119.69228
G0 F9000 X147.2 Y44.995
G1 F1350 X147.2 Y90.42 E123.3183
G0 F9000 X148.8 Y89.748
G1 F1350 X148.8 Y45.885 E126.81963
G0 F9000 X150.4 Y47.073
G1 F1350 X150.4 Y88.836 E130.15334
G0 F9000 X152 Y87.691
G1 F1350 X152 Y48.638 E133.27072
G0 F9000 X153.6 Y50.834
G1 F1350 X153.6 Y86.179 E136.09211
G0 F9000 X155.2 Y84.193
G1 F1350 X155.2 Y54.668 E138.44892
G1 F3000 E130.44892
G0 F9000 X156.321 Y54.728
G0 X156.588 Y56.221
G0 X157.555 Y67.86
G0 X156.8 Y68.828
G1 F3000 E138.44892
G1 F1350 X156.8 Y81.177 E139.43467
G1 F3000 E131.43467
G0 F300 X156.8 Y81.177 Z0.42
G0 F9000 X157.567 Y82.122
G0 X156.697 Y83.815
G0 X155.943 Y84.99
G0 X155.484 Y85.6
G0 X154.188 Y87.128
G0 X153.256 Y86.56
;TIME_ELAPSED:88.483995
;LAYER:-6
M140 S60
;TYPE:SUPPORT
G1 F3000 E139.43467
G1 F1350 X153.817 Y85.935 E139.48495
G1 X111.492 Y43.61 E143.06846
G1 X111.552 Y43.603 E143.07208
G1 X112.845 Y43.549 E143.14955
G1 X154.475 Y85.178 E146.67418
G1 X155.079 Y84.368 E146.73467
G1 X114.258 Y43.547 E150.19084
G1 X115.672 Y43.547 E150.27549
G1 X155.632 Y83.507 E153.65877
G1 X155.791 Y83.253 E153.67671
G1 X155.839 Y83.174 E153.68224
G1 X156.136 Y82.597 E153.72109
G1 X117.086 Y43.547 E157.02732
G1 X118.501 Y43.547 E157.11203
G1 X156.602 Y81.649 E160.33795
G1 X156.99 Y80.717 E160.39839
G1 X157.017 Y80.649 E160.40277
G1 X119.915 Y43.547 E163.54407
G1 X121.329 Y43.547 E163.62872
G1 X157.355 Y79.573 E166.67891
G1 X157.462 Y79.227 E166.7006
G1 X157.492 Y79.123 E166.70708
G1 X157.64 Y78.444 E166.74868
G1 X122.743 Y43.547 E169.70329
G1 X124.158 Y43.547 E169.788
G1 X157.853 Y77.242 E172.64084
G1 X157.94 Y76.578 E172.68093
G1 X157.95 Y76.496 E172.68588
G1 X157.976 Y75.952 E172.71848
G1 X125.572 Y43.547 E175.46206
G1 X126.986 Y43.547 E175.54671
G1 X157.998 Y74.56 E178.17243
G1 X157.958 Y73.627 E178.22834
G1 X157.884 Y73.032 E178.26423
G1 X128.4 Y43.547 E180.76058
G1 X129.814 Y43.547 E180.84524
G1 X157.587 Y71.32 E183.19668
G1 X157.525 Y71.024 E183.21478
G1 X157.491 Y70.88 E183.22364
G1 X157.058 Y69.48 E183.31138
G1 X157.03 Y69.396 E183.31668
G1 X156.997 Y69.316 E183.32186
G1 X131.229 Y43.547 E185.50359
G1 X132.643 Y43.547 E185.58824
G1 X155.77 Y66.675 E187.54636
G1 X155.603 Y66.322 E187.56974
G1 X155.39 Y65.673 E187.61064
G1 X155.26 Y65.002 E187.65155
G1 X155.244 Y64.734 E187.66763
G1 X134.057 Y43.547 E189.46146
G1 X135.471 Y43.547 E189.54611
G1 X155.219 Y63.295 E191.2181
G1 X155.219 Y63.005 E191.23547
G1 X155.241 Y62.511 E191.26507
G1 X155.325 Y61.987 E191.29684
G1 X136.885 Y43.547 E192.85809
G1 X138.3 Y43.547 E192.94281
G1 X155.542 Y60.79 E194.40267
G1 X155.604 Y60.385 E194.4272
G1 X155.625 Y60.198 E194.43846
G1 X155.678 Y59.511 E194.47971
G1 X139.714 Y43.547 E195.83133
G1 X140.821 Y43.547 E195.8976
G1 X141.14 Y43.559 E195.91671
G1 X155.699 Y58.118 E197.14937
G1 X155.59 Y56.67 E197.23631
G1 X155.579 Y56.584 E197.2415
G1 X142.663 Y43.668 E198.33505
G1 X142.757 Y43.677 E198.3407
G1 X143.83 Y43.858 E198.40585
G1 X144.405 Y43.996 E198.44125
G1 X155.247 Y54.838 E199.35921
G1 X154.994 Y53.937 E199.41523
G1 X154.946 Y53.788 E199.42461
G1 X154.632 Y52.929 E199.47936
G1 X154.572 Y52.779 E199.48903
G1 X154.546 Y52.723 E199.49273
G1 X146.518 Y44.694 E200.17247
G1 X147.317 Y45.045 E200.22472
G1 X148.153 Y45.486 E200.28131
G1 X148.268 Y45.553 E200.28928
G1 X149.039 Y46.034 E200.34368
G1 X149.177 Y46.126 E200.35361
G1 X149.871 Y46.634 E200.4051
G1 X152.591 Y49.353 E200.63535
G0 F9000 X152.451 Y49.165
G1 F1350 X152.353 Y49.044 E200.64467
G1 X151.761 Y48.363 E200.69869
G1 X151.638 Y48.232 E200.70945
G1 X150.98 Y47.579 E200.76495
G1 X150.909 Y47.51 E200.77088
G1 X150.049 Y46.772 E200.83872
G1 X149.898 Y46.653 E200.85023
G1 X149.871 Y46.634 E200.85221
G1 F3000 E192.85221
G0 F9000 X150.719 Y45.945
G0 X151.723 Y46.815
G0 X153.174 Y48.366
G0 X153.972 Y49.435
G0 X155.108 Y51.382
G0 X155.63 Y52.555
G0 X156.276 Y54.545
G0 X156.651 Y56.572
G0 X159.022 Y73.569
G0 X159.08 Y75.166
G0 X158.998 Y76.709
G0 X158.808 Y78.085
G0 X158.483 Y79.534
G0 X157.979 Y81.114
G0 X157.456 Y82.361
G0 X156.697 Y83.815
G0 X155.943 Y84.99
G0 X155.484 Y85.6
G0 X154.188 Y87.128
G0 X153.256 Y86.56
G1 F3000 E200.85221
G1 F1350 X153.138 Y86.67 E200.86187
G1 X110.249 Y43.781 E204.49313
G1 X109.38 Y43.955 E204.54619
G1 X109.089 Y44.035 E204.56426
G1 X152.405 Y87.351 E208.23167
G1 X152.31 Y87.44 E208.23946
G1 X152.213 Y87.521 E208.24703
G1 X151.624 Y87.984 E208.29188
G1 X108.002 Y44.363 E211.98516
G1 X107.465 Y44.552 E212.01924
G1 X107.265 Y44.631 E212.03212
G1 X106.982 Y44.757 E212.05066
G1 X150.801 Y88.575 E215.76062
G1 X149.941 Y89.13 E215.8219
G1 X106.026 Y45.215 E219.54003
G1 X105.264 Y45.622 E219.59175
G1 X105.111 Y45.714 E219.60243
G1 X149.024 Y89.627 E223.32039
G1 X148.817 Y89.738 E223.33445
G1 X148.705 Y89.791 E223.34187
G1 X148.054 Y90.071 E223.3843
G1 X104.255 Y46.273 E227.09256
G1 X104.204 Y46.309 E227.0963
G1 X103.474 Y46.864 E227.1512
G1 X103.451 Y46.883 E227.15299
G1 X147.04 Y90.471 E230.84347
G1 X146.176 Y90.757 E230.89796
G1 X146.083 Y90.783 E230.90374
G1 X145.964 Y90.81 E230.91105
G1 X102.698 Y47.543 E234.57427
G1 X102.201 Y48.021 E234.61555
G1 X102.07 Y48.157 E234.62686
G1 X101.988 Y48.248 E234.63419
G1 X144.816 Y91.076 E238.26029
G1 X144.58 Y91.132 E238.27481
G1 X143.602 Y91.276 E238.33399
G1 X101.326 Y49.001 E241.91331
G1 X100.795 Y49.687 E241.96524
G1 X100.716 Y49.804 E241.97369
G1 X142.284 Y91.373 E245.49315
G1 X141.832 Y91.399 E245.52026
G1 X140.874 Y91.376 E245.57763
G1 X100.155 Y50.657 E249.02516
G1 X99.717 Y51.403 E249.07695
G1 X99.641 Y51.557 E249.08723
G1 X139.316 Y91.233 E252.44642
G1 X139.173 Y91.217 E252.45503
G1 X139.051 Y91.199 E252.46242
G1 X137.79 Y90.951 E252.53936
G1 X137.7 Y90.926 E252.54495
G1 X137.553 Y90.884 E252.5541
G1 X99.181 Y52.512 E255.80292
G1 X99.159 Y52.564 E255.8063
G1 X98.832 Y53.387 E255.85932
G1 X98.782 Y53.527 E255.86822
G1 X135.432 Y90.178 E258.97129
G1 X135.052 Y90.03 E258.99571
G1 X134.964 Y89.99 E259.00149
G1 X133.851 Y89.446 E259.07566
G1 X133.674 Y89.344 E259.08789
G1 X133.078 Y89.04 E259.12795
G1 X132.767 Y88.927 E259.14776
G1 X98.453 Y54.612 E262.05304
G1 X98.189 Y55.749 E262.12292
G1 X98.186 Y55.76 E262.12361
G1 X131.026 Y88.599 E264.90401
G1 X130.942 Y88.593 E264.90905
G1 X129.604 Y88.592 E264.98916
G1 X98.009 Y56.997 E267.6642
G1 X97.942 Y57.953 E267.72157
G1 X97.942 Y58.344 E267.74498
G1 X128.19 Y88.592 E270.30597
G1 X126.776 Y88.592 E270.39062
G1 X97.981 Y59.797 E272.82859
G1 X98.031 Y60.357 E272.86225
G1 X98.052 Y60.529 E272.87263
G1 X98.196 Y61.427 E272.92708
G1 X125.361 Y88.591 E275.227
G1 X123.947 Y88.591 E275.31165
G1 X98.419 Y63.064 E277.47298
G1 X98.419 Y64.478 E277.55763
G1 X122.533 Y88.591 E279.59924
G1 X121.118 Y88.591 E279.68395
G1 X98.419 Y65.892 E281.60579
G1 X98.419 Y67.306 E281.69045
G1 X119.703 Y88.591 E283.49253
G1 X118.289 Y88.591 E283.57718
G1 X98.419 Y68.72 E285.25955
G1 X98.419 Y70.135 E285.34426
G1 X116.874 Y88.59 E286.90678
G1 X115.46 Y88.59 E286.99144
G1 X98.419 Y71.549 E288.43424
G1 X98.419 Y72.963 E288.51889
G1 X114.046 Y88.59 E289.84198
G1 X113.015 Y88.59 E289.9037
G1 X112.615 Y88.574 E289.92767
G1 X98.425 Y74.384 E291.12908
G1 X98.427 Y74.436 E291.1322
G1 X98.502 Y75.509 E291.19659
G1 X98.519 Y75.668 E291.20617
G1 X98.557 Y75.93 E291.22202
G1 X111.083 Y88.456 E292.28255
G1 X110.974 Y88.444 E292.28911
G1 X110.799 Y88.419 E292.2997
G1 X109.91 Y88.254 E292.35383
G1 X109.786 Y88.227 E292.36143
G1 X109.316 Y88.103 E292.39053
G1 X98.896 Y77.683 E293.27275
G1 X98.919 Y77.768 E293.27802
G1 X99.174 Y78.618 E293.33115
G1 X99.235 Y78.797 E293.34248
G1 X99.547 Y79.611 E293.39466
G1 X99.622 Y79.786 E293.40606
G1 X99.653 Y79.854 E293.41054
G1 X107.149 Y87.35 E294.0452
G1 X106.898 Y87.243 E294.06153
G1 X106.742 Y87.17 E294.07184
G1 X105.952 Y86.764 E294.12502
G1 X105.8 Y86.679 E294.13545
G1 X105.042 Y86.216 E294.18862
G1 X104.887 Y86.114 E294.19973
G1 X104.162 Y85.595 E294.25311
G1 X104.03 Y85.491 E294.26317
G1 X103.337 Y84.915 E294.31712
G1 X103.224 Y84.815 E294.32615
G1 X102.557 Y84.171 E294.38166
G1 X102.455 Y84.063 E294.39056
G1 X101.855 Y83.395 E294.44431
