;FLAVOR:Marlin
;TIME:2112
;Filament used: 1.93987m
;Layer height: 0.2
;MINX:18.736
;MINY:16.687
;MINZ:0.24
;MAXX:134.958
;MAXY:68.068
;MAXZ:2.09
;Generated with Cura_SteamEngine 4.5.0
M82 ;absolute extrusion mode
; Ender 3 Custom Start G-code
M117 Getting the bed up to temp!
M140 S60.0 ; Set Heat Bed temperature
M190 S60.0 ; Wait for Heat Bed temperature
M117 Pre-heating the extruder!
M104 S190.0/2
G28 ; Home all axes
M420 S1; Auto bed-level (BL-Touch)
G92 E0 ; Reset Extruder
M117 Getting the extruder up to temp!
M104 S190.0 ; Set Extruder temperature
M109 S190.0 ; Wait for Extruder temperature
G1 Z1.0 F3000 ; move z up little to prevent scratching of surface
G1 X0.1 Y20 Z0.3 F5000.0 ; move to start-line position
M117 LET THE PURGE BEGIN!
G1 X0.1 Y200.0 Z0.3 F1500.0 E15 ; draw 1st line
G1 X0.4 Y200.0 Z0.3 F5000.0 ; move to side a little
G1 X0.4 Y20 Z0.3 F1500.0 E30 ; draw 2nd line
G92 E0 ; reset extruder
G1 Z1.0 F3000 ; move z up little to prevent scratching of surface
M117 Autobots! Roll Out!
G92 E0
G92 E0
G1 F3600 E-6
;LAYER_COUNT:5
;LAYER:-6
M107
G0 F9000 X24.167 Y22.947 Z0.24
;TYPE:SUPPORT-INTERFACE
G1 F3600 E0
G1 F1125 X24.292 Y22.827 E0.01383
G1 X24.963 Y22.224 E0.08584
G1 X25.079 Y22.128 E0.09786
G1 X25.791 Y21.578 E0.16968
G1 X25.95 Y21.465 E0.18525
G1 X26.688 Y20.975 E0.25596
G1 X26.814 Y20.899 E0.26771
G1 X27.608 Y20.453 E0.34041
G1 X27.758 Y20.375 E0.3539
G1 X28.573 Y19.992 E0.42578
G1 X28.716 Y19.932 E0.43816
G1 X29.575 Y19.603 E0.51159
G1 X29.725 Y19.551 E0.52426
G1 X30.575 Y19.296 E0.5951
G1 X30.748 Y19.25 E0.60939
G1 X31.643 Y19.049 E0.68261
G1 X31.773 Y19.026 E0.69315
G1 X32.678 Y18.892 E0.76618
G1 X32.847 Y18.874 E0.77975
G1 X33.92 Y18.799 E0.86561
G1 X34.425 Y18.791 E0.90592
G1 X39.368 Y18.792 E1.30049
G1 X40.369 Y18.828 E1.38045
G1 X40.504 Y18.838 E1.39126
G1 X40.874 Y18.879 E1.42097
G1 X41.544 Y18.911 E1.47451
G1 X42.24 Y18.854 E1.53026
G1 X42.403 Y18.83 E1.54341
G1 X42.574 Y18.811 E1.55714
G1 X43.646 Y18.736 E1.64292
G1 X44.151 Y18.728 E1.68324
G1 X49.094 Y18.729 E2.07781
G1 X50.215 Y18.774 E2.16737
G1 X50.838 Y18.843 E2.2174
G1 X51.795 Y18.859 E2.2938
G1 X52.513 Y18.811 E2.35125
G1 X53.018 Y18.803 E2.39156
G1 X57.251 Y18.803 E2.72946
G1 X57.916 Y18.761 E2.78265
G1 X58.406 Y18.675 E2.82236
G1 X59.031 Y18.535 E2.87349
G1 X59.19 Y18.507 E2.88637
G1 X60.081 Y18.375 E2.95827
G1 X60.25 Y18.357 E2.97184
G1 X61.323 Y18.282 E3.0577
G1 X61.828 Y18.274 E3.09802
G1 X66.771 Y18.275 E3.49259
G1 X67.765 Y18.311 E3.57199
G1 X67.899 Y18.321 E3.58271
G1 X68.309 Y18.366 E3.61564
G1 X69.262 Y18.382 E3.69172
G1 X69.384 Y18.373 E3.70149
G1 X69.58 Y18.364 E3.71715
G1 X70.083 Y18.356 E3.7573
G1 X75.025 Y18.357 E4.1518
G1 X76.009 Y18.393 E4.2304
G1 X76.266 Y18.412 E4.25097
G1 X76.933 Y18.419 E4.30421
G1 X77.445 Y18.368 E4.34528
G1 X77.618 Y18.343 E4.35924
G1 X77.81 Y18.322 E4.37465
G1 X78.873 Y18.248 E4.45971
G1 X79.378 Y18.24 E4.50003
G1 X84.325 Y18.241 E4.89492
G1 X84.65 Y18.252 E4.92088
G1 X85.317 Y18.234 E4.97414
G1 X85.855 Y18.158 E5.01751
G1 X86.74 Y18.027 E5.08893
G1 X86.906 Y18.009 E5.10226
G1 X87.979 Y17.934 E5.18812
G1 X88.484 Y17.926 E5.22843
G1 X93.426 Y17.927 E5.62292
G1 X94.409 Y17.963 E5.70144
G1 X94.581 Y17.975 E5.71521
G1 X95.105 Y18.033 E5.75729
G1 X96.056 Y18.049 E5.83321
G1 X96.509 Y18.021 E5.86944
G1 X97.019 Y18.013 E5.91016
G1 X101.964 Y18.014 E6.30489
G1 X102.624 Y18.037 E6.35761
G1 X103.574 Y17.984 E6.43356
G1 X104 Y17.921 E6.46793
G1 X104.203 Y17.899 E6.48423
G1 X105.258 Y17.826 E6.56865
G1 X105.763 Y17.818 E6.60896
G1 X110.702 Y17.819 E7.00322
G1 X110.92 Y17.826 E7.02063
G1 X111.873 Y17.773 E7.09682
G1 X112.606 Y17.665 E7.15596
G1 X112.776 Y17.647 E7.16961
G1 X113.849 Y17.572 E7.25547
G1 X114.354 Y17.564 E7.29578
G1 X119.297 Y17.565 E7.69035
G1 X120.421 Y17.61 E7.78015
G1 X121.338 Y17.712 E7.8538
G1 X121.513 Y17.737 E7.86791
G1 X122.402 Y17.901 E7.94007
G1 X122.525 Y17.929 E7.95014
G1 X123.419 Y18.163 E8.02391
G1 X123.582 Y18.212 E8.03749
G1 X124.424 Y18.499 E8.1085
G1 X124.59 Y18.562 E8.12268
G1 X125.393 Y18.903 E8.19232
G1 X125.582 Y18.991 E8.20896
G1 X126.493 Y19.465 E8.29093
G1 X127.272 Y19.94 E8.36376
G1 X127.423 Y20.04 E8.37822
G1 X128.137 Y20.551 E8.44831
G1 X128.285 Y20.664 E8.46317
G1 X128.976 Y21.24 E8.53498
G1 X129.089 Y21.341 E8.54708
G1 X129.738 Y21.966 E8.619
G1 X129.858 Y22.091 E8.63283
G1 X130.461 Y22.762 E8.70485
G1 X130.557 Y22.878 E8.71687
G1 X131.107 Y23.59 E8.78868
G1 X131.22 Y23.749 E8.80425
G1 X131.71 Y24.487 E8.87497
G1 X131.786 Y24.613 E8.88671
G1 X132.232 Y25.407 E8.95941
G1 X132.31 Y25.557 E8.9729
G1 X132.689 Y26.363 E9.044
G1 X132.753 Y26.515 E9.05716
G1 X133.082 Y27.374 E9.13059
G1 X133.134 Y27.524 E9.14326
G1 X133.389 Y28.374 E9.2141
G1 X133.435 Y28.547 E9.22839
G1 X133.634 Y29.433 E9.30088
G1 X133.659 Y29.572 E9.31215
G1 X133.792 Y30.471 E9.38469
G1 X133.81 Y30.633 E9.39771
G1 X133.886 Y31.719 E9.48461
G1 X133.894 Y32.22 E9.5246
G1 X133.894 Y51.15 E11.03568
G1 X133.858 Y52.156 E11.11603
G1 X133.848 Y52.291 E11.12684
G1 X133.746 Y53.208 E11.20049
G1 X133.721 Y53.383 E11.2146
G1 X133.559 Y54.261 E11.28587
G1 X133.529 Y54.395 E11.29683
G1 X133.298 Y55.28 E11.36984
G1 X133.246 Y55.452 E11.38418
G1 X132.959 Y56.294 E11.45519
G1 X132.896 Y56.46 E11.46937
G1 X132.555 Y57.263 E11.53901
G1 X132.474 Y57.438 E11.5544
G1 X132.058 Y58.246 E11.62694
G1 X131.518 Y59.142 E11.71045
G1 X131.418 Y59.293 E11.72491
G1 X130.907 Y60.007 E11.795
G1 X130.801 Y60.146 E11.80895
G1 X130.218 Y60.846 E11.88167
G1 X130.117 Y60.959 E11.89377
G1 X129.492 Y61.608 E11.96569
G1 X129.367 Y61.728 E11.97952
G1 X128.697 Y62.33 E12.05142
G1 X128.58 Y62.427 E12.06355
G1 X127.868 Y62.977 E12.13537
G1 X127.709 Y63.09 E12.15094
G1 X126.971 Y63.58 E12.22165
G1 X126.845 Y63.656 E12.2334
G1 X126.051 Y64.102 E12.30609
G1 X125.9 Y64.18 E12.31966
G1 X125.086 Y64.563 E12.39147
G1 X124.943 Y64.623 E12.40385
G1 X124.084 Y64.952 E12.47728
G1 X123.934 Y65.004 E12.48995
G1 X123.084 Y65.259 E12.56079
G1 X122.911 Y65.305 E12.57508
G1 X122.016 Y65.506 E12.6483
G1 X121.886 Y65.529 E12.65884
G1 X120.981 Y65.663 E12.73187
G1 X120.813 Y65.681 E12.74535
G1 X119.739 Y65.756 E12.83129
G1 X119.234 Y65.764 E12.87161
G1 X114.295 Y65.763 E13.26586
G1 X114.077 Y65.756 E13.28327
G1 X113.124 Y65.809 E13.35946
G1 X112.391 Y65.917 E13.41861
G1 X112.222 Y65.935 E13.43217
G1 X111.148 Y66.01 E13.51811
G1 X110.643 Y66.018 E13.55843
G1 X105.698 Y66.017 E13.95316
G1 X105.038 Y65.994 E14.00588
G1 X104.088 Y66.047 E14.08183
G1 X103.662 Y66.11 E14.1162
G1 X103.459 Y66.132 E14.1325
G1 X102.404 Y66.205 E14.21692
G1 X101.899 Y66.213 E14.25723
G1 X96.957 Y66.212 E14.65173
G1 X95.974 Y66.176 E14.73025
G1 X95.802 Y66.164 E14.74401
G1 X95.278 Y66.106 E14.78609
G1 X94.327 Y66.09 E14.86202
G1 X93.874 Y66.118 E14.89824
G1 X93.364 Y66.126 E14.93896
G1 X88.417 Y66.125 E15.33385
G1 X88.092 Y66.114 E15.35981
G1 X87.425 Y66.132 E15.41307
G1 X86.887 Y66.208 E15.45644
G1 X86.002 Y66.339 E15.52786
G1 X85.837 Y66.357 E15.54111
G1 X84.763 Y66.432 E15.62705
G1 X84.258 Y66.44 E15.66736
G1 X79.316 Y66.439 E16.06185
G1 X78.332 Y66.403 E16.14045
G1 X78.075 Y66.384 E16.16103
G1 X77.408 Y66.377 E16.21427
G1 X76.896 Y66.428 E16.25534
G1 X76.723 Y66.453 E16.2693
G1 X76.531 Y66.474 E16.28471
G1 X75.468 Y66.548 E16.36977
G1 X74.963 Y66.556 E16.41009
G1 X70.02 Y66.555 E16.80466
G1 X69.026 Y66.519 E16.88406
G1 X68.892 Y66.509 E16.89478
G1 X68.482 Y66.464 E16.92771
G1 X67.529 Y66.448 E17.00379
G1 X67.407 Y66.457 E17.01356
G1 X67.211 Y66.466 E17.02922
G1 X66.708 Y66.474 E17.06938
G1 X62.475 Y66.474 E17.40727
G1 X61.81 Y66.516 E17.46046
G1 X61.32 Y66.602 E17.50017
G1 X60.695 Y66.742 E17.5513
G1 X60.534 Y66.77 E17.56434
G1 X59.645 Y66.902 E17.63609
G1 X59.477 Y66.92 E17.64957
G1 X58.403 Y66.995 E17.73551
G1 X57.898 Y67.003 E17.77583
G1 X52.955 Y67.002 E18.1704
G1 X51.834 Y66.957 E18.25996
G1 X51.211 Y66.888 E18.30999
G1 X50.254 Y66.872 E18.38639
G1 X49.536 Y66.92 E18.44384
G1 X49.031 Y66.928 E18.48415
G1 X44.088 Y66.927 E18.87872
G1 X43.087 Y66.891 E18.95868
G1 X42.952 Y66.881 E18.96949
G1 X42.582 Y66.84 E18.9992
G1 X41.912 Y66.808 E19.05274
G1 X41.216 Y66.865 E19.10849
G1 X41.053 Y66.889 E19.12164
G1 X40.882 Y66.908 E19.13537
G1 X39.81 Y66.983 E19.22115
G1 X39.305 Y66.991 E19.26147
G1 X34.362 Y66.99 E19.65604
G1 X33.238 Y66.945 E19.74584
G1 X32.321 Y66.843 E19.81949
G1 X32.146 Y66.818 E19.8336
G1 X31.257 Y66.654 E19.90576
G1 X31.134 Y66.626 E19.91583
G1 X30.24 Y66.392 E19.9896
G1 X30.077 Y66.343 E20.00318
G1 X29.235 Y66.056 E20.07419
G1 X29.069 Y65.993 E20.08836
G1 X28.266 Y65.652 E20.158
G1 X28.077 Y65.564 E20.17465
G1 X27.166 Y65.09 E20.25662
G1 X26.387 Y64.615 E20.32945
G1 X26.236 Y64.515 E20.34391
G1 X25.522 Y64.004 E20.414
G1 X25.374 Y63.891 E20.42886
G1 X24.683 Y63.315 E20.50067
G1 X24.57 Y63.214 E20.51277
G1 X23.921 Y62.589 E20.58469
G1 X23.801 Y62.464 E20.59852
G1 X23.198 Y61.793 E20.67053
G1 X23.101 Y61.675 E20.68273
G1 X22.543 Y60.953 E20.75557
G1 X22.435 Y60.801 E20.77045
G1 X21.946 Y60.063 E20.84112
G1 X21.873 Y59.942 E20.8524
G1 X21.421 Y59.137 E20.92609
G1 X21.349 Y58.998 E20.93859
G1 X20.966 Y58.182 E21.01055
G1 X20.901 Y58.028 E21.02389
G1 X20.577 Y57.181 E21.09628
G1 X20.52 Y57.016 E21.11021
G1 X20.27 Y56.181 E21.17979
G1 X20.224 Y56.008 E21.19408
G1 X20.022 Y55.107 E21.26779
G1 X20 Y54.983 E21.27784
G1 X19.865 Y54.069 E21.35159
G1 X19.848 Y53.909 E21.36443
G1 X19.773 Y52.836 E21.45029
G1 X19.765 Y52.335 E21.49029
G1 X19.765 Y50.415 E21.64355
G1 X19.801 Y49.409 E21.72391
G1 X19.811 Y49.274 E21.73471
G1 X19.913 Y48.357 E21.80836
G1 X19.938 Y48.182 E21.82248
G1 X20.1 Y47.304 E21.89374
G1 X20.13 Y47.17 E21.90471
G1 X20.361 Y46.285 E21.97772
G1 X20.413 Y46.113 E21.99206
G1 X20.693 Y45.29 E22.06145
G1 X20.798 Y45.014 E22.08503
G1 X20.997 Y44.375 E22.13845
G1 X21.116 Y43.703 E22.19293
G1 X21.151 Y43.021 E22.24744
G1 X21.098 Y42.34 E22.30196
G1 X20.96 Y41.674 E22.35625
G1 X20.797 Y41.177 E22.39801
G1 X20.57 Y40.582 E22.44884
G1 X20.521 Y40.437 E22.46106
G1 X20.259 Y39.567 E22.53359
G1 X20.219 Y39.412 E22.54636
G1 X19.996 Y38.379 E22.63072
G1 X19.866 Y37.498 E22.70181
G1 X19.845 Y37.284 E22.71897
G1 X19.765 Y35.758 E22.84095
G1 X19.765 Y33.405 E23.02878
G1 X19.801 Y32.399 E23.10913
G1 X19.811 Y32.264 E23.11994
G1 X19.913 Y31.347 E23.19359
G1 X19.938 Y31.172 E23.2077
G1 X20.1 Y30.294 E23.27897
G1 X20.13 Y30.16 E23.28993
G1 X20.361 Y29.275 E23.36294
G1 X20.413 Y29.103 E23.37729
G1 X20.7 Y28.261 E23.4483
G1 X20.763 Y28.095 E23.46247
G1 X21.104 Y27.292 E23.53211
G1 X21.185 Y27.117 E23.5475
G1 X21.597 Y26.317 E23.61933
G1 X21.667 Y26.192 E23.63077
G1 X22.141 Y25.413 E23.70356
G1 X22.241 Y25.262 E23.71801
G1 X22.752 Y24.548 E23.7881
G1 X22.865 Y24.4 E23.80297
G1 X23.441 Y23.709 E23.87477
G1 X23.542 Y23.596 E23.88687
G1 X24.167 Y22.947 E23.9588
G0 F9000 X24 Y23.12
G1 F1125 X24 Y62.665 E27.11545
G0 F9000 X25.6 Y64.059
G1 F1125 X25.6 Y21.725 E30.49473
G0 F9000 X27.2 Y20.682
G1 F1125 X27.2 Y65.107 E34.04093
G0 F9000 X28.8 Y65.878
G1 F1125 X28.8 Y19.899 E37.71117
G0 F9000 X30.4 Y19.348
G1 F1125 X30.4 Y66.433 E41.4697
G0 F9000 X32 Y66.791
G1 F1125 X32 Y18.992 E45.28522
G0 F9000 X33.6 Y18.821
G1 F1125 X33.6 Y66.959 E49.1278
G0 F9000 X35.2 Y66.99
G1 F1125 X35.2 Y18.792 E52.97518
G0 F9000 X36.8 Y18.792
G1 F1125 X36.8 Y66.99 E56.82255
G0 F9000 X38.4 Y66.99
G1 F1125 X38.4 Y18.792 E60.66992
G0 F9000 X40 Y18.815
G1 F1125 X40 Y66.97 E64.51386
G0 F9000 X41.6 Y66.834
G1 F1125 X41.6 Y18.906 E68.33968
G0 F9000 X43.2 Y18.767
G1 F1125 X43.2 Y66.895 E72.18147
G0 F9000 X44.8 Y66.927
G1 F1125 X44.8 Y18.729 E76.02884
G0 F9000 X46.4 Y18.729
G1 F1125 X46.4 Y66.927 E79.87621
G0 F9000 X48 Y66.927
G1 F1125 X48 Y18.729 E83.72359
G0 F9000 X49.6 Y18.75
G1 F1125 X49.6 Y66.916 E87.5684
G0 F9000 X51.2 Y66.887
G1 F1125 X51.2 Y18.85 E91.40293
G0 F9000 X52.8 Y18.806
G1 F1125 X52.8 Y66.995 E95.24958
G0 F9000 X54.4 Y67.002
G1 F1125 X54.4 Y18.803 E99.09703
G0 F9000 X56 Y18.803
G1 F1125 X56 Y67.002 E102.94449
G0 F9000 X57.6 Y67.002
G1 F1125 X57.6 Y18.78 E106.79377
G0 F9000 X59.2 Y18.505
G1 F1125 X59.2 Y66.94 E110.66007
G0 F9000 X60.8 Y66.719
G1 F1125 X60.8 Y18.318 E114.52364
G0 F9000 X62.4 Y18.275
G1 F1125 X62.4 Y66.479 E118.37149
G0 F9000 X64 Y66.474
G1 F1125 X64 Y18.275 E122.21895
G0 F9000 X65.6 Y18.275
G1 F1125 X65.6 Y66.474 E126.0664
G0 F9000 X67.2 Y66.467
G1 F1125 X67.2 Y18.291 E129.91202
G0 F9000 X68.8 Y18.375
G1 F1125 X68.8 Y66.498 E133.7534
G0 F9000 X70.4 Y66.555
G1 F1125 X70.4 Y18.357 E137.60077
G0 F9000 X72 Y18.357
G1 F1125 X72 Y66.555 E141.44815
G0 F9000 X73.6 Y66.555
G1 F1125 X73.6 Y18.357 E145.29552
G0 F9000 X75.2 Y18.364
G1 F1125 X75.2 Y66.553 E149.14217
G0 F9000 X76.8 Y66.442
G1 F1125 X76.8 Y18.418 E152.97566
G0 F9000 X78.4 Y18.28
G1 F1125 X78.4 Y66.405 E156.8172
G0 F9000 X80 Y66.439
G1 F1125 X80 Y18.241 E160.66458
G0 F9000 X81.6 Y18.241
G1 F1125 X81.6 Y66.439 E164.51195
G0 F9000 X83.2 Y66.439
G1 F1125 X83.2 Y18.241 E168.35932
G0 F9000 X84.8 Y18.247
G1 F1125 X84.8 Y66.43 E172.2055
G0 F9000 X86.4 Y66.281
G1 F1125 X86.4 Y18.077 E176.05335
G0 F9000 X88 Y17.933
G1 F1125 X88 Y66.117 E179.8996
G0 F9000 X89.6 Y66.125
G1 F1125 X89.6 Y17.927 E183.74698
G0 F9000 X91.2 Y17.927
G1 F1125 X91.2 Y66.125 E187.59435
G0 F9000 X92.8 Y66.125
G1 F1125 X92.8 Y17.927 E191.44172
G0 F9000 X94.4 Y17.963
G1 F1125 X94.4 Y66.091 E195.28351
G0 F9000 X96 Y66.176
G1 F1125 X96 Y18.049 E199.12521
G0 F9000 X97.6 Y18.014
G1 F1125 X97.6 Y66.212 E202.97259
G0 F9000 X99.2 Y66.212
G1 F1125 X99.2 Y18.014 E206.81996
G0 F9000 X100.8 Y18.014
G1 F1125 X100.8 Y66.212 E210.66733
G0 F9000 X102.4 Y66.206
G1 F1125 X102.4 Y18.03 E214.51295
G0 F9000 X104 Y17.921
G1 F1125 X104 Y66.061 E218.35569
G0 F9000 X105.6 Y66.013
G1 F1125 X105.6 Y17.82 E222.20266
G0 F9000 X107.2 Y17.819
G1 F1125 X107.2 Y66.017 E226.05004
G0 F9000 X108.8 Y66.017
G1 F1125 X108.8 Y17.819 E229.89741
G0 F9000 X110.4 Y17.819
G1 F1125 X110.4 Y66.017 E233.74478
G0 F9000 X112 Y65.951
G1 F1125 X112 Y17.754 E237.59208
G0 F9000 X113.6 Y17.589
G1 F1125 X113.6 Y65.783 E241.43913
G0 F9000 X115.2 Y65.763
G1 F1125 X115.2 Y17.565 E245.2865
G0 F9000 X116.8 Y17.565
G1 F1125 X116.8 Y65.763 E249.13387
G0 F9000 X118.4 Y65.763
G1 F1125 X118.4 Y17.565 E252.98125
G0 F9000 X120 Y17.594
G1 F1125 X120 Y65.738 E256.82431
G0 F9000 X121.6 Y65.572
G1 F1125 X121.6 Y17.754 E260.64135
G0 F9000 X123.2 Y18.106
G1 F1125 X123.2 Y65.225 E264.40259
G0 F9000 X124.8 Y64.678
G1 F1125 X124.8 Y18.652 E268.07659
G0 F9000 X126.4 Y19.417
G1 F1125 X126.4 Y63.906 E271.62789
G0 F9000 X128 Y62.876
G1 F1125 X128 Y20.453 E275.01428
G0 F9000 X129.6 Y21.834
G1 F1125 X129.6 Y61.496 E278.18027
G0 F9000 X131.2 Y59.598
G1 F1125 X131.2 Y23.721 E281.04413
G0 F9000 X132.8 Y26.638
G1 F1125 X132.8 Y56.687 E283.44277
G1 F3600 E277.44277
G0 F9000 X133.78 Y57.102
G0 X132.907 Y58.907
G0 X131.76 Y60.644
G0 X130.902 Y61.678
G0 X129.397 Y63.132
G0 X128.317 Y63.963
G0 X126.551 Y65.042
G0 X125.333 Y65.614
G0 X123.367 Y66.285
G0 X122.052 Y66.581
G0 X119.984 Y66.81
G0 X101.906 Y67.278
G0 X57.905 Y68.068
G0 X33.308 Y68.017
G0 X31.982 Y67.87
G0 X29.955 Y67.418
G0 X28.665 Y66.978
G0 X26.785 Y66.096
G0 X25.626 Y65.387
G0 X23.982 Y64.116
G0 X23.025 Y63.193
G0 X21.692 Y61.593
G0 X22.4 Y60.748
G1 F3600 E283.44277
G1 F1125 X22.4 Y25.039 E286.29321
G0 F9000 X20.8 Y28.007
G1 F1125 X20.8 Y41.186 E287.34522
G0 F9000 X20.8 Y45.007
M104 S190
G1 F1125 X20.8 Y57.763 E288.36346
G0 F300 X20.8 Y57.763 Z0.54
G0 F9000 X22.079 Y60.263
;TIME_ELAPSED:207.404842
;LAYER:-5
M140 S60
;TYPE:SUPPORT
G1 F1125 X26.498 Y64.682 E288.98703
G1 X26.387 Y64.614 E289.00002
G1 X26.235 Y64.514 E289.01817
G1 X25.522 Y64.003 E289.1057
G1 X25.373 Y63.889 E289.12442
G1 X24.682 Y63.313 E289.21418
G1 X24.569 Y63.213 E289.22924
G1 X23.92 Y62.588 E289.31914
G1 X23.801 Y62.462 E289.33643
G1 X23.198 Y61.791 E289.42645
G1 X23.101 Y61.673 E289.44169
G1 X22.543 Y60.951 E289.53274
G1 X22.435 Y60.799 E289.55134
G1 F3600 E283.55134
G0 F9000 X21.692 Y61.593
G0 X23.025 Y63.193
G0 X23.982 Y64.116
G0 X25.626 Y65.387
G0 X26.498 Y64.682
G1 F3600 E289.55134
G1 F1125 X27.165 Y65.089 E289.62931
G1 X28.077 Y65.563 E289.73187
G1 X28.266 Y65.651 E289.75267
G1 X29.068 Y65.992 E289.83963
