;FLAVOR:Marlin
;TIME:19804
;Filament used: 17.5359m
;Layer height: 0.24
;MINX:1.199
;MINY:83.973
;MINZ:0.24
;MAXX:233.8
;MAXY:150.831
;MAXZ:10.03
;Generated with Cura_SteamEngine 4.2.1
M140 S70
M105
M190 S70
M104 S210
M105
M109 S210
M82 ;absolute extrusion mode
; Ender 3 Custom Start G-code
G28 ; Home all axes
M420 S1
G92 E0 ; Reset Extruder
G1 Z2.0 F3000 ; Move Z Axis up little to prevent scratching of Heat Bed
G1 X0.1 Y20 Z0.3 F5000.0 ; Move to start position
G1 X0.1 Y200.0 Z0.3 F1500.0 E15 ; Draw the first line
G1 X0.4 Y200.0 Z0.3 F5000.0 ; Move to side a little
G1 X0.4 Y20 Z0.3 F1500.0 E30 ; Draw the second line
G92 E0 ; Reset Extruder
G1 Z2.0 F3000 ; Move Z Axis up little to prevent scratching of Heat Bed
G92 E0
G92 E0
G1 F3000 E-8
;LAYER_COUNT:36
;LAYER:-5
M107
M204 S500
M205 X8 Y8
G0 F9000 X14.454 Y84.347 Z0.24
;TYPE:SUPPORT-INTERFACE
G1 F3000 E0
G1 F1350 X14.592 Y84.329 E0.01111
G1 X15.502 Y84.226 E0.08421
G1 X15.669 Y84.214 E0.09758
G1 X16.709 Y84.175 E0.18065
G1 X214.358 Y84.174 E15.95785
G1 X218.304 Y84.176 E16.27284
G1 X219.45 Y84.222 E16.36439
G1 X220.24 Y84.305 E16.4278
G1 X221.142 Y84.446 E16.50067
G1 X221.358 Y84.488 E16.51824
G1 X222.184 Y84.681 E16.58595
G1 X222.382 Y84.737 E16.60238
G1 X223.966 Y85.271 E16.73581
G1 X224.868 Y85.662 E16.81428
G1 X225.001 Y85.726 E16.82607
G1 X225.786 Y86.137 E16.8968
G1 X225.958 Y86.235 E16.9126
G1 X226.84 Y86.787 E16.99566
G1 X227.504 Y87.264 E17.06092
G1 X228.231 Y87.843 E17.13511
G1 X228.358 Y87.952 E17.14847
G1 X229.019 Y88.563 E17.22032
G1 X229.142 Y88.686 E17.2342
G1 X229.859 Y89.461 E17.31848
G1 X230.323 Y90.026 E17.37684
G1 X230.906 Y90.813 E17.45502
G1 X230.992 Y90.94 E17.46727
G1 X231.461 Y91.682 E17.53734
G1 X231.555 Y91.842 E17.55215
G1 X231.978 Y92.634 E17.62382
G1 X232.058 Y92.796 E17.63825
G1 X232.374 Y93.496 E17.69955
G1 X232.717 Y94.369 E17.77442
G1 X232.773 Y94.53 E17.78803
G1 X233.037 Y95.38 E17.85908
G1 X233.081 Y95.542 E17.87248
G1 X233.315 Y96.563 E17.95609
G1 X233.445 Y97.367 E18.02111
G1 X233.547 Y98.267 E18.09341
G1 X233.56 Y98.443 E18.10749
G1 X233.599 Y99.479 E18.19025
G1 X233.6 Y126.224 E20.32515
G1 X233.564 Y127.23 E20.40551
G1 X233.554 Y127.365 E20.41631
G1 X233.432 Y128.433 E20.50212
G1 X233.269 Y129.323 E20.57435
G1 X233.24 Y129.453 E20.58498
G1 X233.135 Y130.114 E20.6384
G1 X233.115 Y130.797 E20.69295
G1 X233.181 Y131.471 E20.74701
G1 X233.317 Y132.124 E20.80025
G1 X233.465 Y133.016 E20.87243
G1 X233.489 Y133.202 E20.8874
G1 X233.579 Y134.238 E20.97041
G1 X233.6 Y134.971 E21.02894
G1 X233.6 Y135.355 E21.05959
G1 X233.564 Y136.361 E21.13995
G1 X233.554 Y136.496 E21.15075
G1 X233.452 Y137.413 E21.2244
G1 X233.427 Y137.588 E21.23852
G1 X233.265 Y138.466 E21.30978
G1 X233.235 Y138.6 E21.32075
G1 X233.004 Y139.485 E21.39376
G1 X232.952 Y139.657 E21.4081
G1 X232.665 Y140.499 E21.47911
G1 X232.602 Y140.665 E21.49328
G1 X232.261 Y141.468 E21.56292
G1 X232.18 Y141.643 E21.57831
G1 X231.776 Y142.429 E21.64886
G1 X231.224 Y143.347 E21.73437
G1 X231.124 Y143.498 E21.74882
G1 X230.613 Y144.212 E21.81891
G1 X230.5 Y144.36 E21.83377
G1 X229.827 Y145.16 E21.91722
G1 X229.188 Y145.828 E21.99102
G1 X228.503 Y146.464 E22.06563
G1 X228.355 Y146.591 E22.0812
G1 X227.662 Y147.147 E22.15212
G1 X227.523 Y147.251 E22.16598
G1 X226.808 Y147.744 E22.2353
G1 X226.624 Y147.86 E22.25267
G1 X225.868 Y148.303 E22.32261
G1 X225.726 Y148.38 E22.3355
G1 X224.781 Y148.839 E22.41937
G1 X223.926 Y149.184 E22.49296
G1 X223.763 Y149.243 E22.5068
G1 X222.921 Y149.513 E22.57738
G1 X222.755 Y149.56 E22.59116
G1 X222.266 Y149.679 E22.63133
G1 X221.829 Y149.806 E22.66766
G1 X221.63 Y149.873 E22.68442
G1 X220.79 Y150.126 E22.75444
G1 X220.617 Y150.172 E22.76873
G1 X219.722 Y150.373 E22.84196
G1 X219.592 Y150.396 E22.85249
G1 X218.687 Y150.53 E22.92552
G1 X218.519 Y150.548 E22.93901
G1 X217.445 Y150.623 E23.02495
G1 X216.939 Y150.631 E23.06535
G1 X204.614 Y150.63 E24.04918
G1 X18.032 Y150.631 E38.94296
G1 X17.997 Y150.63 E38.94576
G1 X16.874 Y150.585 E39.03547
G1 X15.956 Y150.483 E39.1092
G1 X15.781 Y150.458 E39.12331
G1 X14.892 Y150.294 E39.19547
G1 X14.769 Y150.266 E39.20554
G1 X13.863 Y150.029 E39.2803
G1 X13.73 Y149.989 E39.29138
G1 X13.313 Y149.847 E39.32655
G1 X12.946 Y149.737 E39.35713
G1 X12.006 Y149.491 E39.43469
G1 X11.827 Y149.437 E39.44962
G1 X10.987 Y149.151 E39.52045
G1 X10.821 Y149.088 E39.53462
G1 X10.018 Y148.747 E39.60426
G1 X9.829 Y148.659 E39.6209
G1 X8.918 Y148.185 E39.70288
G1 X8.139 Y147.71 E39.77571
G1 X7.988 Y147.61 E39.79017
G1 X7.274 Y147.099 E39.86025
G1 X7.126 Y146.986 E39.87512
G1 X6.326 Y146.313 E39.95857
G1 X5.654 Y145.67 E40.03281
G1 X5.01 Y144.976 E40.10839
G1 X4.893 Y144.839 E40.12277
G1 X4.343 Y144.153 E40.19295
G1 X4.227 Y143.997 E40.20847
G1 X3.742 Y143.294 E40.27665
G1 X3.626 Y143.11 E40.29401
G1 X3.183 Y142.354 E40.36396
G1 X3.106 Y142.212 E40.37685
G1 X2.647 Y141.267 E40.46071
G1 X2.298 Y140.403 E40.53509
G1 X2.242 Y140.245 E40.54847
G1 X1.97 Y139.397 E40.61956
G1 X1.928 Y139.247 E40.632
G1 X1.712 Y138.359 E40.70495
G1 X1.683 Y138.216 E40.71659
G1 X1.533 Y137.31 E40.7899
G1 X1.511 Y137.138 E40.80374
G1 X1.428 Y136.239 E40.87581
G1 X1.421 Y136.102 E40.88676
G1 X1.4 Y135.369 E40.94529
G1 X1.4 Y134.985 E40.97595
G1 X1.436 Y133.979 E41.0563
G1 X1.446 Y133.844 E41.06711
G1 X1.547 Y132.929 E41.14059
G1 X1.573 Y132.754 E41.15471
G1 X1.761 Y131.762 E41.23531
G1 X1.865 Y131.099 E41.28888
G1 X1.886 Y130.417 E41.34334
G1 X1.82 Y129.742 E41.39748
G1 X1.683 Y129.085 E41.45106
G1 X1.533 Y128.179 E41.52436
G1 X1.511 Y128.007 E41.5382
G1 X1.428 Y127.108 E41.61027
G1 X1.421 Y126.971 E41.62122
G1 X1.4 Y126.238 E41.67976
G1 X1.4 Y99.495 E43.8145
G1 X1.444 Y98.359 E43.90525
G1 X1.54 Y97.47 E43.97662
G1 X1.685 Y96.56 E44.05018
G1 X1.72 Y96.384 E44.0645
G1 X1.918 Y95.547 E44.13316
G1 X1.972 Y95.356 E44.149
G1 X2.476 Y93.86 E44.27502
G1 X2.514 Y93.768 E44.28296
G1 X2.887 Y92.909 E44.35772
G1 X2.965 Y92.745 E44.37221
G1 X3.38 Y91.957 E44.4433
G1 X3.488 Y91.769 E44.46061
G1 X4.025 Y90.916 E44.54107
G1 X4.49 Y90.27 E44.60461
G1 X5.06 Y89.554 E44.67766
G1 X5.183 Y89.411 E44.69272
G1 X5.8 Y88.744 E44.76525
G1 X5.912 Y88.632 E44.77789
G1 X6.686 Y87.916 E44.86206
G1 X7.252 Y87.451 E44.92053
G1 X8.039 Y86.868 E44.99871
G1 X8.166 Y86.782 E45.01095
G1 X8.907 Y86.314 E45.08091
G1 X9.076 Y86.216 E45.09651
G1 X9.872 Y85.79 E45.16857
G1 X10.022 Y85.716 E45.18193
G1 X10.73 Y85.397 E45.24391
G1 X11.595 Y85.057 E45.3181
G1 X11.756 Y85.001 E45.33171
G1 X12.615 Y84.735 E45.40349
G1 X12.768 Y84.693 E45.41616
G1 X13.801 Y84.457 E45.50074
G1 X14.454 Y84.347 E45.5536
G0 F9000 X14.4 Y84.356
G1 F1350 X14.4 Y150.169 E50.80708
G1 F3000 E42.80708
G1 F600 Z0.44
G0 F9000 X16 Y150.487 Z0.44
G1 F600 Z0.24
G1 F3000 E50.80708
G1 F1350 X16 Y84.201 E56.09831
G1 F3000 E48.09831
G1 F600 Z0.44
G0 F9000 X17.6 Y84.174 Z0.44
G1 F600 Z0.24
G1 F3000 E56.09831
G1 F1350 X17.6 Y150.614 E61.40184
G1 F3000 E53.40184
G1 F600 Z0.44
G0 F9000 X19.2 Y150.631 Z0.44
G1 F600 Z0.24
G1 F3000 E61.40184
G1 F1350 X19.2 Y84.174 E66.70673
G1 F3000 E58.70673
G1 F600 Z0.44
G0 F9000 X20.8 Y84.174 Z0.44
G1 F600 Z0.24
G1 F3000 E66.70673
G1 F1350 X20.8 Y150.631 E72.01161
G1 F3000 E64.01161
G1 F600 Z0.44
G0 F9000 X22.4 Y150.631 Z0.44
G1 F600 Z0.24
G1 F3000 E72.01161
G1 F1350 X22.4 Y84.174 E77.3165
G1 F3000 E69.3165
G1 F600 Z0.44
G0 F9000 X24 Y84.174 Z0.44
G1 F600 Z0.24
G1 F3000 E77.3165
G1 F1350 X24 Y150.631 E82.62138
G1 F3000 E74.62138
G1 F600 Z0.44
G0 F9000 X25.6 Y150.631 Z0.44
G1 F600 Z0.24
G1 F3000 E82.62138
G1 F1350 X25.6 Y84.174 E87.92627
G1 F3000 E79.92627
G1 F600 Z0.44
G0 F9000 X27.2 Y84.174 Z0.44
G1 F600 Z0.24
G1 F3000 E87.92627
G1 F1350 X27.2 Y150.631 E93.23115
G1 F3000 E85.23115
G1 F600 Z0.44
G0 F9000 X28.8 Y150.631 Z0.44
G1 F600 Z0.24
G1 F3000 E93.23115
G1 F1350 X28.8 Y84.174 E98.53604
G1 F3000 E90.53604
G1 F600 Z0.44
G0 F9000 X30.4 Y84.174 Z0.44
G1 F600 Z0.24
G1 F3000 E98.53604
G1 F1350 X30.4 Y150.631 E103.84092
G1 F3000 E95.84092
G1 F600 Z0.44
G0 F9000 X32 Y150.631 Z0.44
G1 F600 Z0.24
G1 F3000 E103.84092
G1 F1350 X32 Y84.174 E109.14581
G1 F3000 E101.14581
G1 F600 Z0.44
G0 F9000 X33.6 Y84.174 Z0.44
G1 F600 Z0.24
G1 F3000 E109.14581
G1 F1350 X33.6 Y150.631 E114.45069
G1 F3000 E106.45069
G1 F600 Z0.44
G0 F9000 X35.2 Y150.631 Z0.44
G1 F600 Z0.24
G1 F3000 E114.45069
G1 F1350 X35.2 Y84.174 E119.75558
G1 F3000 E111.75558
G1 F600 Z0.44
G0 F9000 X36.8 Y84.174 Z0.44
G1 F600 Z0.24
G1 F3000 E119.75558
G1 F1350 X36.8 Y150.631 E125.06046
G1 F3000 E117.06046
G1 F600 Z0.44
G0 F9000 X38.4 Y150.631 Z0.44
G1 F600 Z0.24
G1 F3000 E125.06046
G1 F1350 X38.4 Y84.174 E130.36535
G1 F3000 E122.36535
G1 F600 Z0.44
G0 F9000 X40 Y84.174 Z0.44
G1 F600 Z0.24
G1 F3000 E130.36535
G1 F1350 X40 Y150.631 E135.67023
G1 F3000 E127.67023
G1 F600 Z0.44
G0 F9000 X41.6 Y150.631 Z0.44
G1 F600 Z0.24
G1 F3000 E135.67023
G1 F1350 X41.6 Y84.174 E140.97512
G1 F3000 E132.97512
G1 F600 Z0.44
G0 F9000 X43.2 Y84.174 Z0.44
G1 F600 Z0.24
G1 F3000 E140.97512
G1 F1350 X43.2 Y150.631 E146.28
G1 F3000 E138.28
G1 F600 Z0.44
G0 F9000 X44.8 Y150.631 Z0.44
G1 F600 Z0.24
G1 F3000 E146.28
G1 F1350 X44.8 Y84.174 E151.58489
G1 F3000 E143.58489
G1 F600 Z0.44
G0 F9000 X46.4 Y84.174 Z0.44
G1 F600 Z0.24
G1 F3000 E151.58489
G1 F1350 X46.4 Y150.631 E156.88977
G1 F3000 E148.88977
G1 F600 Z0.44
G0 F9000 X48 Y150.631 Z0.44
G1 F600 Z0.24
G1 F3000 E156.88977
G1 F1350 X48 Y84.174 E162.19466
G1 F3000 E154.19466
G1 F600 Z0.44
G0 F9000 X49.6 Y84.174 Z0.44
G1 F600 Z0.24
G1 F3000 E162.19466
G1 F1350 X49.6 Y150.631 E167.49954
G1 F3000 E159.49954
G1 F600 Z0.44
G0 F9000 X51.2 Y150.631 Z0.44
G1 F600 Z0.24
G1 F3000 E167.49954
G1 F1350 X51.2 Y84.174 E172.80443
G1 F3000 E164.80443
G1 F600 Z0.44
G0 F9000 X52.8 Y84.174 Z0.44
G1 F600 Z0.24
G1 F3000 E172.80443
G1 F1350 X52.8 Y150.631 E178.10931
G1 F3000 E170.10931
G1 F600 Z0.44
G0 F9000 X54.4 Y150.631 Z0.44
G1 F600 Z0.24
G1 F3000 E178.10931
G1 F1350 X54.4 Y84.174 E183.4142
G1 F3000 E175.4142
G1 F600 Z0.44
G0 F9000 X56 Y84.174 Z0.44
G1 F600 Z0.24
G1 F3000 E183.4142
G1 F1350 X56 Y150.631 E188.71908
G1 F3000 E180.71908
G1 F600 Z0.44
G0 F9000 X57.6 Y150.631 Z0.44
G1 F600 Z0.24
G1 F3000 E188.71908
G1 F1350 X57.6 Y84.174 E194.02397
G1 F3000 E186.02397
G1 F600 Z0.44
G0 F9000 X59.2 Y84.174 Z0.44
G1 F600 Z0.24
G1 F3000 E194.02397
G1 F1350 X59.2 Y150.631 E199.32885
G1 F3000 E191.32885
G1 F600 Z0.44
G0 F9000 X60.8 Y150.631 Z0.44
G1 F600 Z0.24
G1 F3000 E199.32885
G1 F1350 X60.8 Y84.174 E204.63374
G1 F3000 E196.63374
G1 F600 Z0.44
G0 F9000 X62.4 Y84.174 Z0.44
G1 F600 Z0.24
G1 F3000 E204.63374
G1 F1350 X62.4 Y150.631 E209.93862
G1 F3000 E201.93862
G1 F600 Z0.44
G0 F9000 X64 Y150.631 Z0.44
G1 F600 Z0.24
G1 F3000 E209.93862
G1 F1350 X64 Y84.174 E215.24351
G1 F3000 E207.24351
G1 F600 Z0.44
G0 F9000 X65.6 Y84.174 Z0.44
G1 F600 Z0.24
G1 F3000 E215.24351
G1 F1350 X65.6 Y150.631 E220.54839
G1 F3000 E212.54839
G1 F600 Z0.44
G0 F9000 X67.2 Y150.631 Z0.44
G1 F600 Z0.24
G1 F3000 E220.54839
G1 F1350 X67.2 Y84.174 E225.85328
G1 F3000 E217.85328
G1 F600 Z0.44
G0 F9000 X68.8 Y84.174 Z0.44
G1 F600 Z0.24
G1 F3000 E225.85328
G1 F1350 X68.8 Y150.631 E231.15816
G1 F3000 E223.15816
G1 F600 Z0.44
G0 F9000 X70.4 Y150.631 Z0.44
G1 F600 Z0.24
G1 F3000 E231.15816
G1 F1350 X70.4 Y84.174 E236.46305
G1 F3000 E228.46305
G1 F600 Z0.44
G0 F9000 X72 Y84.174 Z0.44
G1 F600 Z0.24
G1 F3000 E236.46305
G1 F1350 X72 Y150.631 E241.76793
G1 F3000 E233.76793
G1 F600 Z0.44
G0 F9000 X73.6 Y150.631 Z0.44
G1 F600 Z0.24
G1 F3000 E241.76793
G1 F1350 X73.6 Y84.174 E247.07282
G1 F3000 E239.07282
G1 F600 Z0.44
G0 F9000 X75.2 Y84.174 Z0.44
G1 F600 Z0.24
G1 F3000 E247.07282
G1 F1350 X75.2 Y150.631 E252.37771
G1 F3000 E244.37771
G1 F600 Z0.44
G0 F9000 X76.8 Y150.631 Z0.44
G1 F600 Z0.24
G1 F3000 E252.37771
G1 F1350 X76.8 Y84.174 E257.68259
G1 F3000 E249.68259
G1 F600 Z0.44
G0 F9000 X78.4 Y84.174 Z0.44
G1 F600 Z0.24
G1 F3000 E257.68259
G1 F1350 X78.4 Y150.631 E262.98748
G1 F3000 E254.98748
G1 F600 Z0.44
G0 F9000 X80 Y150.631 Z0.44
G1 F600 Z0.24
G1 F3000 E262.98748
G1 F1350 X80 Y84.174 E268.29236
G1 F3000 E260.29236
G1 F600 Z0.44
G0 F9000 X81.6 Y84.174 Z0.44
G1 F600 Z0.24
G1 F3000 E268.29236
G1 F1350 X81.6 Y150.631 E273.59725
G1 F3000 E265.59725
G1 F600 Z0.44
G0 F9000 X83.2 Y150.631 Z0.44
G1 F600 Z0.24
G1 F3000 E273.59725
G1 F1350 X83.2 Y84.174 E278.90213
G1 F3000 E270.90213
G1 F600 Z0.44
G0 F9000 X84.8 Y84.174 Z0.44
G1 F600 Z0.24
G1 F3000 E278.90213
G1 F1350 X84.8 Y150.631 E284.20702
G1 F3000 E276.20702
G1 F600 Z0.44
G0 F9000 X86.4 Y150.631 Z0.44
G1 F600 Z0.24
G1 F3000 E284.20702
G1 F1350 X86.4 Y84.174 E289.5119
G1 F3000 E281.5119
G1 F600 Z0.44
G0 F9000 X88 Y84.174 Z0.44
G1 F600 Z0.24
G1 F3000 E289.5119
G1 F1350 X88 Y150.631 E294.81679
G1 F3000 E286.81679
G1 F600 Z0.44
G0 F9000 X89.6 Y150.631 Z0.44
G1 F600 Z0.24
G1 F3000 E294.81679
G1 F1350 X89.6 Y84.174 E300.12167
G1 F3000 E292.12167
G1 F600 Z0.44
G0 F9000 X91.2 Y84.174 Z0.44
G1 F600 Z0.24
G1 F3000 E300.12167
G1 F1350 X91.2 Y150.631 E305.42656
G1 F3000 E297.42656
G1 F600 Z0.44
G0 F9000 X92.8 Y150.631 Z0.44
G1 F600 Z0.24
G1 F3000 E305.42656
G1 F1350 X92.8 Y84.174 E310.73144
G1 F3000 E302.73144
G1 F600 Z0.44
G0 F9000 X94.4 Y84.174 Z0.44
G1 F600 Z0.24
G1 F3000 E310.73144
G1 F1350 X94.4 Y150.631 E316.03633
G1 F3000 E308.03633
G1 F600 Z0.44
G0 F9000 X96 Y150.631 Z0.44
G1 F600 Z0.24
G1 F3000 E316.03633
G1 F1350 X96 Y84.174 E321.34121
G1 F3000 E313.34121
G1 F600 Z0.44
G0 F9000 X97.6 Y84.174 Z0.44
G1 F600 Z0.24
G1 F3000 E321.34121
G1 F1350 X97.6 Y150.631 E326.6461
G1 F3000 E318.6461
G1 F600 Z0.44
G0 F9000 X99.2 Y150.631 Z0.44
G1 F600 Z0.24
G1 F3000 E326.6461
G1 F1350 X99.2 Y84.174 E331.95098
G1 F3000 E323.95098
G1 F600 Z0.44
G0 F9000 X100.8 Y84.174 Z0.44
G1 F600 Z0.24
G1 F3000 E331.95098
G1 F1350 X100.8 Y150.631 E337.25587
G1 F3000 E329.25587
G1 F600 Z0.44
G0 F9000 X102.4 Y150.631 Z0.44
G1 F600 Z0.24
G1 F3000 E337.25587
G1 F1350 X102.4 Y84.174 E342.56075
G1 F3000 E334.56075
G1 F600 Z0.44
G0 F9000 X104 Y84.174 Z0.44
G1 F600 Z0.24
G1 F3000 E342.56075
G1 F1350 X104 Y150.631 E347.86564
G1 F3000 E339.86564
G1 F600 Z0.44
G0 F9000 X105.6 Y150.631 Z0.44
G1 F600 Z0.24
G1 F3000 E347.86564
G1 F1350 X105.6 Y84.174 E353.17052
G1 F3000 E345.17052
G1 F600 Z0.44
G0 F9000 X107.2 Y84.174 Z0.44
G1 F600 Z0.24
G1 F3000 E353.17052
G1 F1350 X107.2 Y150.631 E358.47541
G1 F3000 E350.47541
G1 F600 Z0.44
G0 F9000 X108.8 Y150.631 Z0.44
G1 F600 Z0.24
G1 F3000 E358.47541
G1 F1350 X108.8 Y84.174 E363.78029
G1 F3000 E355.78029
G1 F600 Z0.44
G0 F9000 X110.4 Y84.174 Z0.44
G1 F600 Z0.24
G1 F3000 E363.78029
G1 F1350 X110.4 Y150.631 E369.08518
G1 F3000 E361.08518
G1 F600 Z0.44
G0 F9000 X112 Y150.631 Z0.44
G1 F600 Z0.24
G1 F3000 E369.08518
G1 F1350 X112 Y84.174 E374.39006
G1 F3000 E366.39006
G1 F600 Z0.44
G0 F9000 X113.6 Y84.174 Z0.44
G1 F600 Z0.24
G1 F3000 E374.39006
G1 F1350 X113.6 Y150.631 E379.69495
G1 F3000 E371.69495
G1 F600 Z0.44
G0 F9000 X115.2 Y150.631 Z0.44
G1 F600 Z0.24
G1 F3000 E379.69495
G1 F1350 X115.2 Y84.174 E384.99983
G1 F3000 E376.99983
G1 F600 Z0.44
G0 F9000 X116.8 Y84.174 Z0.44
G1 F600 Z0.24
G1 F3000 E384.99983
G1 F1350 X116.8 Y150.631 E390.30472
G1 F3000 E382.30472
G1 F600 Z0.44
G0 F9000 X118.4 Y150.631 Z0.44
G1 F600 Z0.24
G1 F3000 E390.30472
G1 F1350 X118.4 Y84.174 E395.6096
G1 F3000 E387.6096
G1 F600 Z0.44
G0 F9000 X120 Y84.174 Z0.44
G1 F600 Z0.24
G1 F3000 E395.6096
G1 F1350 X120 Y150.631 E400.91449
G1 F3000 E392.91449
G1 F600 Z0.44
G0 F9000 X121.6 Y150.631 Z0.44
G1 F600 Z0.24
G1 F3000 E400.91449
G1 F1350 X121.6 Y84.174 E406.21937
G1 F3000 E398.21937
G1 F600 Z0.44
G0 F9000 X123.2 Y84.174 Z0.44
G1 F600 Z0.24
G1 F3000 E406.21937
G1 F1350 X123.2 Y150.631 E411.52426
G1 F3000 E403.52426
G1 F600 Z0.44
G0 F9000 X124.8 Y150.631 Z0.44
G1 F600 Z0.24
G1 F3000 E411.52426
G1 F1350 X124.8 Y84.174 E416.82914
G1 F3000 E408.82914
G1 F600 Z0.44
G0 F9000 X126.4 Y84.174 Z0.44
G1 F600 Z0.24
G1 F3000 E416.82914
G1 F1350 X126.4 Y150.631 E422.13403
G1 F3000 E414.13403
G1 F600 Z0.44
G0 F9000 X128 Y150.631 Z0.44
G1 F600 Z0.24
G1 F3000 E422.13403
G1 F1350 X128 Y84.174 E427.43891
G1 F3000 E419.43891
G1 F600 Z0.44
G0 F9000 X129.6 Y84.174 Z0.44
G1 F600 Z0.24
G1 F3000 E427.43891
