;FLAVOR:Marlin
;TIME:21898
;Filament used: 14.2013m
;Layer height: 0.2
;MINX:9.711
;MINY:66.743
;MINZ:0.2
;MAXX:229.027
;MAXY:170.097
;MAXZ:10.8
;Generated with Cura_SteamEngine 4.2.1
M140 S70
M105
M190 S70
M104 S210
M105
M109 S210
M82 ;absolute extrusion mode
; Ender 3 Custom Start G-code
G28 ; Home all axes
M420 S1
G92 E0 ; Reset Extruder
G1 Z2.0 F3000 ; Move Z Axis up little to prevent scratching of Heat Bed
G1 X0.1 Y20 Z0.3 F5000.0 ; Move to start position
G1 X0.1 Y200.0 Z0.3 F1500.0 E15 ; Draw the first line
G1 X0.4 Y200.0 Z0.3 F5000.0 ; Move to side a little
G1 X0.4 Y20 Z0.3 F1500.0 E30 ; Draw the second line
G92 E0 ; Reset Extruder
G1 Z2.0 F3000 ; Move Z Axis up little to prevent scratching of Heat Bed
G92 E0
G92 E0
G1 F3000 E-8
;LAYER_COUNT:53
;LAYER:0
M107
M204 S500
M205 X8 Y8
G0 F6000 X41.979 Y94.605 Z0.2
;TYPE:SKIRT
G1 F3000 E0
G1 F1200 X41.979 Y143.195 E1.61611
G1 X196.759 Y143.195 E6.76411
G1 X196.759 Y94.605 E8.38022
G1 X41.979 Y94.605 E13.52823
G0 F6000 X41.579 Y94.205
G1 F1200 X41.579 Y143.595 E15.17095
G1 X197.159 Y143.595 E20.34556
G1 X197.159 Y94.205 E21.98828
G1 X41.579 Y94.205 E27.16289
G0 F6000 X41.179 Y93.805
G1 F1200 X41.179 Y143.995 E28.83221
G1 X197.559 Y143.995 E34.03343
G1 X197.559 Y93.805 E35.70276
G1 X41.179 Y93.805 E40.90398
G0 F6000 X40.779 Y93.405
G1 F1200 X40.779 Y144.395 E42.59991
G1 X197.959 Y144.395 E47.82774
G1 X197.959 Y93.405 E49.52368
G1 X40.779 Y93.405 E54.7515
G0 F6000 X40.379 Y93.005
G1 F1200 X40.379 Y144.795 E56.47405
G1 X198.359 Y144.795 E61.72848
G1 X198.359 Y93.005 E63.45102
G1 X40.379 Y93.005 E68.70546
G0 F6000 X39.979 Y92.605
G1 F1200 X39.979 Y145.195 E70.45461
G1 X198.759 Y145.195 E75.73566
G1 X198.759 Y92.605 E77.48481
G1 X39.979 Y92.605 E82.76585
G0 F6000 X39.579 Y92.205
G1 F1200 X39.579 Y145.595 E84.54161
G1 X199.159 Y145.595 E89.84926
G1 X199.159 Y92.205 E91.62502
G1 X39.579 Y92.205 E96.93267
G0 F6000 X39.179 Y91.805
G1 F1200 X39.179 Y145.995 E98.73504
G1 X199.559 Y145.995 E104.0693
G1 X199.559 Y91.805 E105.87167
G1 X39.179 Y91.805 E111.20593
G0 F6000 X38.779 Y91.405
G1 F1200 X38.779 Y146.395 E113.0349
G1 X199.959 Y146.395 E118.39577
G1 X199.959 Y91.405 E120.22474
G1 X38.779 Y91.405 E125.58561
G0 F6000 X38.379 Y91.005
G1 F1200 X38.379 Y146.795 E127.4412
G1 X200.359 Y146.795 E132.82867
G1 X200.359 Y91.005 E134.68426
G1 X38.379 Y91.005 E140.07173
G0 F6000 X37.979 Y90.605
G1 F1200 X37.979 Y147.195 E141.95392
G1 X200.759 Y147.195 E147.36801
G1 X200.759 Y90.605 E149.2502
G1 X37.979 Y90.605 E154.66428
G0 F6000 X37.579 Y90.205
G1 F1200 X37.579 Y147.595 E156.57308
G1 X201.159 Y147.595 E162.01378
G1 X201.159 Y90.205 E163.92258
G1 X37.579 Y90.205 E169.36327
G0 F6000 X37.179 Y89.805
G1 F1200 X37.179 Y147.995 E171.29868
G1 X201.559 Y147.995 E176.76598
G1 X201.559 Y89.805 E178.70138
G1 X37.179 Y89.805 E184.16868
G0 F6000 X36.779 Y89.405
G1 F1200 X36.779 Y148.395 E186.1307
G1 X201.959 Y148.395 E191.62461
G1 X201.959 Y89.405 E193.58662
G1 X36.779 Y89.405 E199.08053
G0 F6000 X36.379 Y89.005
G1 F1200 X36.379 Y148.795 E201.06916
G1 X202.359 Y148.795 E206.58967
G1 X202.359 Y89.005 E208.5783
G1 X36.379 Y89.005 E214.09882
G0 F6000 X35.979 Y88.605
G1 F1200 X35.979 Y149.195 E216.11405
G1 X202.759 Y149.195 E221.66117
G1 X202.759 Y88.605 E223.6764
G1 X35.979 Y88.605 E229.22353
G0 F6000 X35.579 Y88.205
G1 F1200 X35.579 Y149.595 E231.26537
G1 X203.159 Y149.595 E236.8391
G1 X203.159 Y88.205 E238.88094
G1 X35.579 Y88.205 E244.45468
G0 F6000 X35.179 Y87.805
G1 F1200 X35.179 Y149.995 E246.52312
G1 X203.559 Y149.995 E252.12346
G1 X203.559 Y87.805 E254.19191
G1 X35.179 Y87.805 E259.79225
G0 F6000 X34.779 Y87.405
G1 F1200 X34.779 Y150.395 E261.88731
G1 X203.959 Y150.395 E267.51426
G1 X203.959 Y87.405 E269.60932
G1 X34.779 Y87.405 E275.23627
G0 F6000 X34.543 Y87.005
G1 F1200 X34.379 Y87.169 E275.24398
G1 X34.379 Y150.631 E277.35473
G1 X34.543 Y150.795 E277.36245
G1 X204.195 Y150.795 E283.0051
G1 X204.359 Y150.631 E283.01281
G1 X204.359 Y87.169 E285.12357
G1 X204.195 Y87.005 E285.13128
G1 X34.543 Y87.005 E290.77393
G0 F6000 X34.461 Y86.605
G1 F1200 X34.32 Y86.664 E290.77901
G1 X34.038 Y86.946 E290.79228
G1 X33.979 Y87.087 E290.79736
G1 X33.979 Y150.713 E292.91357
G1 X34.038 Y150.854 E292.91865
G1 X34.32 Y151.136 E292.93192
G1 X34.461 Y151.195 E292.937
G1 X204.277 Y151.195 E298.5851
G1 X204.418 Y151.136 E298.59019
G1 X204.7 Y150.854 E298.60345
G1 X204.759 Y150.713 E298.60854
G1 X204.759 Y87.087 E300.72474
G1 X204.7 Y86.946 E300.72983
G1 X204.418 Y86.664 E300.74309
G1 X204.277 Y86.605 E300.74818
G1 X34.461 Y86.605 E306.39628
G0 F6000 X34.461 Y86.205
G1 F1200 X34.246 Y86.245 E306.40355
G1 X34.037 Y86.381 E306.41185
G1 X33.755 Y86.663 E306.42511
G1 X33.631 Y86.842 E306.43235
G1 X33.579 Y87.087 E306.44068
G1 X33.579 Y150.713 E308.55689
G1 X33.619 Y150.928 E308.56417
G1 X33.755 Y151.137 E308.57246
G1 X34.037 Y151.419 E308.58572
G1 X34.216 Y151.543 E308.59297
G1 X34.461 Y151.595 E308.6013
G1 X204.277 Y151.595 E314.2494
G1 X204.492 Y151.555 E314.25667
G1 X204.701 Y151.419 E314.26497
G1 X204.983 Y151.137 E314.27823
G1 X205.107 Y150.958 E314.28547
G1 X205.159 Y150.713 E314.29381
G1 X205.159 Y87.087 E316.41001
G1 X205.119 Y86.872 E316.41729
G1 X204.983 Y86.663 E316.42558
G1 X204.701 Y86.381 E316.43885
G1 X204.522 Y86.257 E316.44609
G1 X204.277 Y86.205 E316.45442
G1 X34.461 Y86.205 E322.10252
G0 F6000 X34.461 Y85.805
G1 F1200 X34.182 Y85.845 E322.1119
G1 X33.925 Y85.961 E322.12127
G1 X33.754 Y86.098 E322.12856
G1 X33.472 Y86.38 E322.14183
G1 X33.303 Y86.606 E322.15121
G1 X33.203 Y86.87 E322.1606
G1 X33.179 Y87.087 E322.16786
G1 X33.179 Y150.713 E324.28407
G1 X33.219 Y150.992 E324.29345
G1 X33.335 Y151.249 E324.30283
G1 X33.472 Y151.42 E324.31011
G1 X33.754 Y151.702 E324.32338
G1 X33.98 Y151.871 E324.33276
G1 X34.244 Y151.971 E324.34215
G1 X34.461 Y151.995 E324.34941
G1 X204.277 Y151.995 E329.99752
G1 X204.556 Y151.955 E330.00689
G1 X204.813 Y151.839 E330.01627
G1 X204.984 Y151.702 E330.02356
G1 X205.266 Y151.42 E330.03682
G1 X205.435 Y151.194 E330.04621
G1 X205.535 Y150.93 E330.0556
G1 X205.559 Y150.713 E330.06286
G1 X205.559 Y87.087 E332.17907
G1 X205.519 Y86.808 E332.18844
G1 X205.403 Y86.551 E332.19782
G1 X205.266 Y86.38 E332.20511
G1 X204.984 Y86.098 E332.21837
G1 X204.758 Y85.929 E332.22776
G1 X204.494 Y85.829 E332.23715
G1 X204.277 Y85.805 E332.24441
G1 X34.461 Y85.805 E337.89251
G0 F6000 X34.461 Y85.405
G1 F1200 X34.129 Y85.445 E337.90364
G1 X33.817 Y85.562 E337.91472
G1 X33.471 Y85.815 E337.92898
G1 X33.189 Y86.097 E337.94224
G1 X32.983 Y86.36 E337.95335
G1 X32.844 Y86.664 E337.96447
G1 X32.779 Y87.087 E337.9787
G1 X32.779 Y150.713 E340.09491
G1 X32.819 Y151.045 E340.10603
G1 X32.936 Y151.357 E340.11712
G1 X33.189 Y151.703 E340.13137
G1 X33.471 Y151.985 E340.14464
G1 X33.734 Y152.191 E340.15575
G1 X34.038 Y152.33 E340.16687
G1 X34.461 Y152.395 E340.1811
G1 X204.277 Y152.395 E345.8292
G1 X204.609 Y152.355 E345.84033
G1 X204.921 Y152.238 E345.85141
G1 X205.267 Y151.985 E345.86567
G1 X205.549 Y151.703 E345.87893
G1 X205.755 Y151.44 E345.89004
G1 X205.894 Y151.136 E345.90116
G1 X205.959 Y150.713 E345.91539
G1 X205.959 Y87.087 E348.0316
G1 X205.919 Y86.755 E348.04273
G1 X205.802 Y86.443 E348.05381
G1 X205.549 Y86.097 E348.06806
G1 X205.267 Y85.815 E348.08133
G1 X205.004 Y85.609 E348.09244
G1 X204.7 Y85.47 E348.10356
G1 X204.277 Y85.405 E348.11779
G1 X34.461 Y85.405 E353.7659
G0 F6000 X34.461 Y85.005
G1 F1200 X34.084 Y85.045 E353.77851
G1 X33.724 Y85.163 E353.79111
G1 X33.397 Y85.353 E353.80368
G1 X33.188 Y85.532 E353.81284
G1 X32.906 Y85.814 E353.8261
G1 X32.668 Y86.109 E353.83871
G1 X32.497 Y86.447 E353.85131
G1 X32.4 Y86.813 E353.8639
G1 X32.379 Y87.087 E353.87304
G1 X32.379 Y150.713 E355.98925
G1 X32.419 Y151.09 E356.00186
G1 X32.537 Y151.45 E356.01446
G1 X32.727 Y151.777 E356.02704
G1 X32.906 Y151.986 E356.03619
G1 X33.188 Y152.268 E356.04945
G1 X33.483 Y152.506 E356.06206
G1 X33.821 Y152.677 E356.07466
G1 X34.187 Y152.774 E356.08725
G1 X34.461 Y152.795 E356.09639
G1 X204.277 Y152.795 E361.7445
G1 X204.654 Y152.755 E361.75711
G1 X205.014 Y152.637 E361.76971
G1 X205.341 Y152.447 E361.78229
G1 X205.55 Y152.268 E361.79144
G1 X205.832 Y151.986 E361.8047
G1 X206.07 Y151.691 E361.81731
G1 X206.241 Y151.353 E361.82991
G1 X206.338 Y150.987 E361.8425
G1 X206.359 Y150.713 E361.85164
G1 X206.359 Y87.087 E363.96785
G1 X206.319 Y86.71 E363.98046
G1 X206.201 Y86.35 E363.99306
G1 X206.011 Y86.023 E364.00564
G1 X205.832 Y85.814 E364.01479
G1 X205.55 Y85.532 E364.02806
G1 X205.255 Y85.294 E364.04066
G1 X204.917 Y85.123 E364.05326
G1 X204.551 Y85.026 E364.06586
G1 X204.277 Y85.005 E364.075
G1 X34.461 Y85.005 E369.7231
G0 F6000 X34.461 Y84.605
G1 F1200 X34.044 Y84.645 E369.73703
G1 X33.642 Y84.763 E369.75097
G1 X33.27 Y84.956 E369.76491
G1 X32.905 Y85.249 E369.78047
G1 X32.623 Y85.531 E369.79374
G1 X32.357 Y85.855 E369.80768
G1 X32.156 Y86.222 E369.8216
G1 X32.029 Y86.622 E369.83556
G1 X31.979 Y87.087 E369.85111
G1 X31.979 Y150.713 E371.96732
G1 X32.019 Y151.13 E371.98125
G1 X32.137 Y151.532 E371.99519
G1 X32.33 Y151.904 E372.00913
G1 X32.623 Y152.269 E372.02469
G1 X32.905 Y152.551 E372.03796
G1 X33.229 Y152.817 E372.0519
G1 X33.596 Y153.018 E372.06582
G1 X33.996 Y153.145 E372.07978
G1 X34.461 Y153.195 E372.09533
G1 X204.277 Y153.195 E377.74344
G1 X204.694 Y153.155 E377.75737
G1 X205.096 Y153.037 E377.7713
G1 X205.468 Y152.844 E377.78524
G1 X205.833 Y152.551 E377.80081
G1 X206.115 Y152.269 E377.81407
G1 X206.381 Y151.945 E377.82802
G1 X206.582 Y151.578 E377.84193
G1 X206.709 Y151.178 E377.85589
G1 X206.759 Y150.713 E377.87145
G1 X206.759 Y87.087 E379.98766
G1 X206.719 Y86.67 E380.00159
G1 X206.601 Y86.268 E380.01553
G1 X206.408 Y85.896 E380.02946
G1 X206.115 Y85.531 E380.04503
G1 X205.833 Y85.249 E380.0583
G1 X205.509 Y84.983 E380.07224
G1 X205.142 Y84.782 E380.08616
G1 X204.742 Y84.655 E380.10011
G1 X204.277 Y84.605 E380.11567
G1 X34.461 Y84.605 E385.76377
G0 F6000 X34.461 Y84.205
G1 F1200 X34.007 Y84.245 E385.77893
G1 X33.567 Y84.363 E385.79408
G1 X33.155 Y84.557 E385.80923
G1 X32.623 Y84.967 E385.83157
G1 X32.341 Y85.249 E385.84483
G1 X32.048 Y85.598 E385.85999
G1 X31.821 Y85.993 E385.87514
G1 X31.666 Y86.421 E385.89028
G1 X31.579 Y87.087 E385.91262
G1 X31.579 Y150.713 E388.02883
G1 X31.619 Y151.167 E388.04399
G1 X31.737 Y151.607 E388.05914
G1 X31.931 Y152.019 E388.07429
G1 X32.341 Y152.551 E388.09663
G1 X32.623 Y152.833 E388.10989
G1 X32.972 Y153.126 E388.12505
G1 X33.367 Y153.353 E388.1402
G1 X33.795 Y153.508 E388.15534
G1 X34.461 Y153.595 E388.17768
G1 X204.277 Y153.595 E393.82578
G1 X204.731 Y153.555 E393.84094
G1 X205.171 Y153.437 E393.85609
G1 X205.583 Y153.243 E393.87124
G1 X206.115 Y152.833 E393.89358
G1 X206.397 Y152.551 E393.90684
G1 X206.69 Y152.202 E393.922
G1 X206.917 Y151.807 E393.93715
G1 X207.072 Y151.379 E393.95229
G1 X207.159 Y150.713 E393.97463
G1 X207.159 Y87.087 E396.09084
G1 X207.119 Y86.633 E396.106
G1 X207.001 Y86.193 E396.12115
G1 X206.807 Y85.781 E396.1363
G1 X206.397 Y85.249 E396.15864
G1 X206.115 Y84.967 E396.1719
G1 X205.766 Y84.674 E396.18706
G1 X205.371 Y84.447 E396.20221
G1 X204.943 Y84.292 E396.21735
G1 X204.277 Y84.205 E396.23969
G1 X34.461 Y84.205 E401.88779
G0 F6000 X34.461 Y83.805
G1 F1200 X33.973 Y83.845 E401.90408
G1 X33.498 Y83.964 E401.92036
G1 X33.049 Y84.158 E401.93663
G1 X32.637 Y84.423 E401.95293
G1 X32.34 Y84.684 E401.96608
G1 X32.058 Y84.966 E401.97934
G1 X31.741 Y85.339 E401.99562
G1 X31.489 Y85.759 E402.01191
G1 X31.309 Y86.214 E402.02819
G1 X31.205 Y86.692 E402.04446
G1 X31.179 Y87.087 E402.05762
G1 X31.179 Y150.713 E404.17383
G1 X31.219 Y151.201 E404.19012
G1 X31.338 Y151.676 E404.20641
G1 X31.532 Y152.125 E404.22267
G1 X31.797 Y152.537 E404.23897
G1 X32.058 Y152.834 E404.25212
G1 X32.34 Y153.116 E404.26538
G1 X32.713 Y153.433 E404.28166
G1 X33.133 Y153.685 E404.29795
G1 X33.588 Y153.865 E404.31423
G1 X34.066 Y153.969 E404.3305
G1 X34.461 Y153.995 E404.34366
G1 X204.277 Y153.995 E409.99177
G1 X204.765 Y153.955 E410.00805
G1 X205.24 Y153.836 E410.02434
G1 X205.689 Y153.642 E410.04061
G1 X206.101 Y153.377 E410.0569
G1 X206.398 Y153.116 E410.07005
G1 X206.68 Y152.834 E410.08332
G1 X206.997 Y152.461 E410.0996
G1 X207.249 Y152.041 E410.11589
G1 X207.429 Y151.586 E410.13216
G1 X207.533 Y151.108 E410.14843
G1 X207.559 Y150.713 E410.1616
G1 X207.559 Y87.087 E412.27781
G1 X207.519 Y86.599 E412.29409
G1 X207.4 Y86.124 E412.31038
G1 X207.206 Y85.675 E412.32665
G1 X206.941 Y85.263 E412.34294
G1 X206.68 Y84.966 E412.35609
G1 X206.398 Y84.684 E412.36936
G1 X206.025 Y84.367 E412.38564
G1 X205.605 Y84.115 E412.40193
G1 X205.15 Y83.935 E412.4182
G1 X204.672 Y83.831 E412.43447
G1 X204.277 Y83.805 E412.44764
G1 X34.461 Y83.805 E418.09574
G0 F6000 X34.461 Y83.405
G1 F1200 X33.941 Y83.445 E418.11309
G1 X33.434 Y83.564 E418.13041
G1 X32.951 Y83.759 E418.14773
G1 X32.503 Y84.025 E418.16506
G1 X32.057 Y84.401 E418.18447
G1 X31.775 Y84.683 E418.19773
G1 X31.436 Y85.079 E418.21507
G1 X31.161 Y85.521 E418.23238
G1 X30.957 Y86.001 E418.24973
G1 X30.829 Y86.506 E418.26706
G1 X30.779 Y87.087 E418.28645
G1 X30.779 Y150.05 E420.38061
G1 X30.712 Y149.945 E420.38475
G1 X30.696 Y149.922 E420.38568
G1 X30.672 Y149.888 E420.38707
G1 X30.602 Y149.79 E420.39107
G1 X30.598 Y149.793 E420.39124
G1 X30.475 Y149.62 E420.3983
G1 X30.078 Y149.126 E420.41938
G1 X29.937 Y148.962 E420.42657
G1 X29.905 Y148.927 E420.42815
G1 X29.681 Y148.703 E420.43869
G1 X29.185 Y148.253 E420.46096
G1 X29.139 Y148.219 E420.46286
G1 X29.141 Y148.216 E420.46298
G1 X29.113 Y148.191 E420.46423
G1 X28.984 Y147.979 E420.47249
G1 X28.649 Y147.58 E420.48981
G1 X28.256 Y147.238 E420.50714
G1 X27.815 Y146.959 E420.5245
G1 X27.143 Y146.691 E420.54856
G1 X25.772 Y146.306 E420.59592
G1 X25.249 Y146.202 E420.61366
G1 X24.421 Y146.105 E420.64139
G1 X23.903 Y146.084 E420.65863
G1 X23.093 Y146.113 E420.68559
G1 X22.564 Y146.174 E420.7033
G1 X21.759 Y146.331 E420.73058
G1 X21.269 Y146.465 E420.74748
G1 X21.269 Y84.943 E422.79371
G1 X21.229 Y84.423 E422.81105
G1 X21.11 Y83.916 E422.82837
G1 X20.915 Y83.432 E422.84573
G1 X20.911 Y83.425 E422.846
G1 X20.911 Y81.795 E422.90021
G1 X20.929 Y81.791 E422.90082
G1 X21.412 Y81.596 E422.91815
G1 X21.86 Y81.328 E422.93551
G1 X22.301 Y80.956 E422.9547
G1 X22.583 Y80.674 E422.96796
G1 X22.922 Y80.278 E422.9853
G1 X23.197 Y79.836 E423.00262
G1 X23.401 Y79.356 E423.01996
G1 X23.529 Y78.851 E423.03729
G1 X23.579 Y78.27 E423.05669
G1 X23.579 Y77.944 E423.06753
G1 X208.644 Y77.943 E429.22282
G1 X215.159 Y77.944 E429.43951
G1 X215.159 Y78.273 E429.45045
G1 X215.199 Y78.793 E429.4678
G1 X215.318 Y79.3 E429.48512
G1 X215.513 Y79.783 E429.50244
G1 X215.779 Y80.231 E429.51977
G1 X216.155 Y80.677 E429.53917
G1 X216.437 Y80.959 E429.55244
G1 X216.833 Y81.298 E429.56977
G1 X217.275 Y81.573 E429.58709
G1 X217.755 Y81.777 E429.60444
G1 X217.827 Y81.795 E429.6069
G1 X217.827 Y83.432 E429.66135
G1 X217.647 Y83.856 E429.67667
G1 X217.519 Y84.361 E429.694
G1 X217.469 Y84.942 E429.71339
G1 X217.469 Y114.115 E430.68369
G1 X217.468 Y146.495 E431.76066
G1 X216.56 Y146.247 E431.79196
G1 X216.048 Y146.149 E431.8093
G1 X215.725 Y146.128 E431.82007
G1 X214.418 Y146.105 E431.86354
G1 X213.898 Y146.135 E431.88087
G1 X213.592 Y146.191 E431.89121
G1 X211.823 Y146.6 E431.9516
G1 X211.326 Y146.756 E431.96893
G1 X210.858 Y146.986 E431.98627
G1 X210.431 Y147.285 E432.00361
G1 X210.055 Y147.646 E432.02095
G1 X209.738 Y148.06 E432.03829
G1 X209.673 Y148.178 E432.04277
G1 X209.024 Y148.75 E432.07154
G1 X208.729 Y149.043 E432.08537
G1 X208.681 Y149.097 E432.08778
G1 X208.429 Y149.417 E432.10132
G1 X207.959 Y150.094 E432.12873
G1 X207.959 Y87.087 E434.22436
G1 X207.919 Y86.567 E434.2417
G1 X207.8 Y86.06 E434.25902
G1 X207.605 Y85.577 E434.27635
G1 X207.339 Y85.129 E434.29368
G1 X206.963 Y84.683 E434.31308
G1 X206.681 Y84.401 E434.32634
G1 X206.285 Y84.062 E434.34368
G1 X205.843 Y83.787 E434.361
G1 X205.363 Y83.583 E434.37834
G1 X204.858 Y83.455 E434.39567
G1 X204.277 Y83.405 E434.41507
G1 X34.461 Y83.405 E440.06317
G0 F6000 X34.461 Y83.005
G1 F1200 X33.911 Y83.045 E440.08151
G1 X33.373 Y83.164 E440.09984
