;FLAVOR:Marlin
;TIME:3530
;Filament used: 2.60531m
;Layer height: 0.2
;MINX:57.931
;MINY:31.995
;MINZ:0.24
;MAXX:120.724
;MAXY:103.334
;MAXZ:8.85
;Generated with Cura_SteamEngine 4.4.1
M82 ;absolute extrusion mode
; Ender 3 Custom Start G-code
M104 S200.0 ; Start heating hot end without waiting
M140 S60.0 ; Start heating bed without waiting
G28 ; Home all axes
M420 S1
M109 S200.0 ; Wait for hot end to reach temp before proceeding
M190 S60.0 ; Wait for bed to reach temp before proceeding
G92 E0 ; Reset Extruder
G1 Z2.0 F3000 ; Move Z Axis up little to prevent scratching of Heat Bed
G1 X0.1 Y20 Z0.3 F5000.0 ; Move to start position
G1 X0.1 Y200.0 Z0.3 F1500.0 E15 ; Draw the first line
G1 X0.4 Y200.0 Z0.3 F5000.0 ; Move to side a little
G1 X0.4 Y20 Z0.3 F1500.0 E30 ; Draw the second line
G92 E0 ; Reset Extruder
G1 Z2.0 F3000 ; Move Z Axis up little to prevent scratching of Heat Bed
G92 E0
G92 E0
G1 F3000 E-6
;LAYER_COUNT:37
;LAYER:-6
M107
M204 S500
M205 X8 Y8
G0 F9000 X61.508 Y39.746 Z0.24
;TYPE:SUPPORT-INTERFACE
G1 F3000 E0
G1 F1125 X61.575 Y39.649 E0.00941
G1 X62.102 Y38.913 E0.08167
G1 X62.207 Y38.777 E0.09538
G1 X62.772 Y38.095 E0.16608
G1 X62.885 Y37.969 E0.17959
G1 X63.506 Y37.323 E0.25112
G1 X63.625 Y37.209 E0.26427
G1 X64.302 Y36.601 E0.33691
G1 X64.437 Y36.49 E0.35086
G1 X65.526 Y35.671 E0.45963
G1 X65.597 Y35.625 E0.46638
G1 X66.367 Y35.139 E0.53907
G1 X66.524 Y35.048 E0.55355
G1 X67.328 Y34.618 E0.62633
G1 X67.473 Y34.548 E0.63918
G1 X68.285 Y34.188 E0.71009
G1 X68.435 Y34.128 E0.72298
G1 X69.288 Y33.822 E0.79532
G1 X69.469 Y33.764 E0.81049
G1 X70.33 Y33.525 E0.88182
G1 X70.462 Y33.494 E0.89264
G1 X71.367 Y33.313 E0.96632
G1 X71.53 Y33.286 E0.9795
G1 X72.406 Y33.177 E1.04997
G1 X72.59 Y33.161 E1.06471
G1 X73.866 Y33.107 E1.16666
G1 X84.999 Y33.108 E2.05534
G1 X86.123 Y33.153 E2.14514
G1 X87.04 Y33.255 E2.21879
G1 X87.215 Y33.28 E2.2329
G1 X88.175 Y33.46 E2.31087
G1 X88.836 Y33.563 E2.36427
G1 X89.519 Y33.583 E2.41881
G1 X90.194 Y33.515 E2.47296
G1 X90.623 Y33.427 E2.50792
G1 X90.744 Y33.397 E2.51787
G1 X90.897 Y33.365 E2.53035
G1 X91.94 Y33.188 E2.6148
G1 X92.842 Y33.097 E2.68717
G1 X93.031 Y33.085 E2.70228
G1 X93.904 Y33.059 E2.772
G1 X105.063 Y33.06 E3.66276
G1 X106.187 Y33.105 E3.75255
G1 X107.104 Y33.207 E3.8262
G1 X107.279 Y33.232 E3.84032
G1 X108.168 Y33.396 E3.91248
G1 X108.291 Y33.424 E3.92255
G1 X109.185 Y33.658 E3.99631
G1 X109.348 Y33.707 E4.0099
G1 X110.19 Y33.994 E4.08091
G1 X110.356 Y34.057 E4.09508
G1 X111.159 Y34.398 E4.16472
G1 X111.348 Y34.486 E4.18136
G1 X112.259 Y34.96 E4.26334
G1 X113.038 Y35.435 E4.33617
G1 X113.189 Y35.535 E4.35063
G1 X113.903 Y36.046 E4.42071
G1 X114.051 Y36.159 E4.43558
G1 X114.742 Y36.735 E4.50739
G1 X114.855 Y36.836 E4.51948
G1 X115.504 Y37.461 E4.59141
G1 X115.624 Y37.586 E4.60524
G1 X116.227 Y38.257 E4.67725
G1 X116.323 Y38.373 E4.68927
G1 X116.873 Y39.085 E4.76109
G1 X116.986 Y39.244 E4.77666
G1 X117.476 Y39.982 E4.84737
G1 X117.552 Y40.108 E4.85912
G1 X117.998 Y40.902 E4.93181
G1 X118.076 Y41.052 E4.94531
G1 X118.466 Y41.882 E5.01851
G1 X118.517 Y42.004 E5.02907
G1 X118.848 Y42.869 E5.103
G1 X118.9 Y43.019 E5.11567
G1 X119.156 Y43.87 E5.18661
G1 X119.201 Y44.037 E5.20041
G1 X119.4 Y44.928 E5.27329
G1 X119.425 Y45.067 E5.28456
G1 X119.558 Y45.966 E5.35711
G1 X119.576 Y46.128 E5.37012
G1 X119.652 Y47.214 E5.45702
G1 X119.66 Y47.715 E5.49702
G1 X119.66 Y61.979 E6.63563
G1 X119.624 Y62.985 E6.71599
G1 X119.614 Y63.12 E6.72679
G1 X119.512 Y64.037 E6.80044
G1 X119.487 Y64.212 E6.81455
G1 X119.324 Y65.09 E6.88584
G1 X119.291 Y65.239 E6.89802
G1 X119.064 Y66.108 E6.96971
G1 X119.017 Y66.264 E6.98272
G1 X118.742 Y67.073 E7.05093
G1 X118.567 Y67.72 E7.10443
G1 X118.473 Y68.396 E7.15891
G1 X118.466 Y69.083 E7.21375
G1 X118.585 Y69.958 E7.28424
G1 X118.657 Y70.28 E7.31058
G1 X118.687 Y70.444 E7.32389
G1 X118.82 Y71.343 E7.39643
G1 X118.838 Y71.505 E7.40944
G1 X118.914 Y72.591 E7.49634
G1 X118.922 Y73.092 E7.53634
G1 X118.922 Y87.356 E8.67495
G1 X118.886 Y88.362 E8.75531
G1 X118.876 Y88.497 E8.76611
G1 X118.774 Y89.414 E8.83976
G1 X118.749 Y89.589 E8.85387
G1 X118.587 Y90.467 E8.92514
G1 X118.557 Y90.601 E8.9361
G1 X118.331 Y91.469 E9.0077
G1 X118.274 Y91.658 E9.02346
G1 X117.987 Y92.5 E9.09447
G1 X117.924 Y92.666 E9.10864
G1 X117.583 Y93.469 E9.17828
G1 X117.502 Y93.644 E9.19367
G1 X117.086 Y94.452 E9.26622
G1 X116.546 Y95.348 E9.34973
G1 X116.446 Y95.499 E9.36418
G1 X115.935 Y96.213 E9.43427
G1 X115.822 Y96.361 E9.44913
G1 X115.246 Y97.052 E9.52094
G1 X115.145 Y97.165 E9.53304
G1 X114.52 Y97.814 E9.60496
G1 X114.395 Y97.934 E9.6188
G1 X113.725 Y98.536 E9.6907
G1 X113.608 Y98.633 E9.70283
G1 X112.896 Y99.183 E9.77464
G1 X112.737 Y99.296 E9.79022
G1 X111.999 Y99.786 E9.86093
G1 X111.873 Y99.862 E9.87267
G1 X111.079 Y100.308 E9.94537
G1 X110.928 Y100.386 E9.95894
G1 X110.114 Y100.769 E10.03075
G1 X109.971 Y100.829 E10.04313
G1 X109.112 Y101.158 E10.11655
G1 X108.962 Y101.21 E10.12922
G1 X108.112 Y101.465 E10.20006
G1 X107.939 Y101.511 E10.21435
G1 X107.044 Y101.712 E10.28757
G1 X106.914 Y101.735 E10.29811
G1 X106.009 Y101.869 E10.37114
G1 X105.841 Y101.887 E10.38463
G1 X104.767 Y101.962 E10.47057
G1 X104.261 Y101.97 E10.51096
G1 X93.118 Y101.968 E11.40045
G1 X91.994 Y101.923 E11.49024
G1 X90.914 Y101.798 E11.57703
G1 X90.788 Y101.774 E11.58727
G1 X90.122 Y101.695 E11.6408
G1 X89.436 Y101.699 E11.69556
G1 X88.653 Y101.814 E11.75874
G1 X87.803 Y102.005 E11.82828
G1 X87.633 Y102.036 E11.84207
G1 X86.739 Y102.168 E11.91421
G1 X86.571 Y102.186 E11.9277
G1 X85.497 Y102.261 E12.01364
G1 X84.991 Y102.269 E12.05403
G1 X73.848 Y102.267 E12.94351
G1 X72.724 Y102.222 E13.03331
G1 X71.806 Y102.12 E13.10704
G1 X71.631 Y102.095 E13.12115
G1 X70.751 Y101.932 E13.19259
G1 X70.599 Y101.898 E13.20502
G1 X69.739 Y101.673 E13.27598
G1 X69.552 Y101.617 E13.29156
G1 X68.53 Y101.262 E13.37793
G1 X67.526 Y100.829 E13.46521
G1 X66.702 Y100.403 E13.53925
G1 X66.561 Y100.323 E13.55219
G1 X65.795 Y99.854 E13.62389
G1 X65.655 Y99.761 E13.6373
G1 X64.919 Y99.233 E13.70961
G1 X64.797 Y99.138 E13.72195
G1 X64.107 Y98.561 E13.79375
G1 X63.978 Y98.444 E13.80765
G1 X63.005 Y97.476 E13.91721
G1 X62.393 Y96.764 E13.99216
G1 X62.273 Y96.611 E14.00768
G1 X61.752 Y95.907 E14.07759
G1 X61.639 Y95.741 E14.09362
G1 X61.186 Y95.023 E14.16139
G1 X61.085 Y94.85 E14.17738
G1 X60.693 Y94.121 E14.24345
G1 X60.643 Y94.016 E14.25273
G1 X60.041 Y92.627 E14.37357
G1 X59.734 Y91.724 E14.44971
G1 X59.681 Y91.548 E14.46438
G1 X59.419 Y90.526 E14.5486
G1 X59.228 Y89.467 E14.6345
G1 X59.144 Y88.78 E14.68974
G1 X59.131 Y88.616 E14.70288
G1 X59.058 Y87.299 E14.80817
G1 X59.052 Y86.79 E14.8488
G1 X59.06 Y73.768 E15.88827
G1 X59.158 Y72.088 E16.02261
G1 X59.174 Y71.969 E16.03219
G1 X59.382 Y70.657 E16.13823
G1 X59.401 Y70.574 E16.14502
G1 X59.775 Y69.132 E16.26394
G1 X59.903 Y68.474 E16.31745
G1 X59.947 Y67.794 E16.37184
G1 X59.904 Y67.108 E16.42671
G1 X59.717 Y66.23 E16.49837
G1 X59.67 Y66.075 E16.5113
G1 X59.364 Y64.903 E16.60799
G1 X59.171 Y63.84 E16.69423
G1 X59.087 Y63.152 E16.74955
G1 X59.077 Y63.027 E16.75956
G1 X59.001 Y61.693 E16.86622
G1 X58.996 Y61.164 E16.90845
G1 X59.003 Y48.141 E17.948
G1 X59.09 Y46.564 E18.07408
G1 X59.117 Y46.342 E18.09193
G1 X59.34 Y44.961 E18.20359
G1 X59.744 Y43.423 E18.33053
G1 X60.073 Y42.506 E18.4083
G1 X60.134 Y42.355 E18.4213
G1 X60.542 Y41.438 E18.50141
G1 X60.59 Y41.346 E18.5097
G1 X61.108 Y40.389 E18.59656
G1 X61.508 Y39.746 E18.65701
G0 F9000 X60.8 Y40.958
G1 F1125 X60.8 Y94.319 E22.91652
G0 F9000 X62.4 Y96.772
G1 F1125 X62.4 Y38.544 E27.56453
G0 F9000 X64 Y36.872
G1 F1125 X64 Y98.463 E32.48099
G0 F9000 X65.6 Y99.721
G1 F1125 X65.6 Y35.623 E37.59757
G0 F9000 X67.2 Y34.686
G1 F1125 X67.2 Y100.66 E42.8639
G0 F9000 X68.8 Y101.355
G1 F1125 X68.8 Y33.997 E48.2407
G0 F9000 X70.4 Y33.508
G1 F1125 X70.4 Y101.845 E53.69566
G0 F9000 X72 Y102.141
G1 F1125 X72 Y33.227 E59.19667
G0 F9000 X73.6 Y33.118
G1 F1125 X73.6 Y102.257 E64.71564
G0 F9000 X75.2 Y102.267
G1 F1125 X75.2 Y33.108 E70.23622
G0 F9000 X76.8 Y33.108
G1 F1125 X76.8 Y102.267 E75.75679
G0 F9000 X78.4 Y102.267
G1 F1125 X78.4 Y33.108 E81.27736
G0 F9000 X80 Y33.108
G1 F1125 X80 Y102.268 E86.79801
G0 F9000 X81.6 Y102.268
G1 F1125 X81.6 Y33.108 E92.31866
G0 F9000 X83.2 Y33.108
G1 F1125 X83.2 Y102.268 E97.83931
G0 F9000 X84.8 Y102.268
G1 F1125 X84.8 Y33.108 E103.35996
G0 F9000 X86.4 Y33.184
G1 F1125 X86.4 Y102.198 E108.86895
G0 F9000 X88 Y101.961
G1 F1125 X88 Y33.428 E114.33955
G0 F9000 X89.6 Y33.574
G1 F1125 X89.6 Y101.699 E119.77759
G0 F9000 X91.2 Y101.831
G1 F1125 X91.2 Y33.313 E125.24699
G0 F9000 X92.8 Y33.101
G1 F1125 X92.8 Y101.955 E130.74321
G0 F9000 X94.4 Y101.968
G1 F1125 X94.4 Y33.06 E136.24375
G0 F9000 X96 Y33.06
G1 F1125 X96 Y101.968 E141.74428
G0 F9000 X97.6 Y101.968
G1 F1125 X97.6 Y33.06 E147.24482
G0 F9000 X99.2 Y33.06
G1 F1125 X99.2 Y101.969 E152.74543
G0 F9000 X100.8 Y101.969
G1 F1125 X100.8 Y33.06 E158.24604
G0 F9000 X102.4 Y33.06
G1 F1125 X102.4 Y101.969 E163.74666
G0 F9000 X104 Y101.969
G1 F1125 X104 Y33.06 E169.24727
G0 F9000 X105.6 Y33.082
G1 F1125 X105.6 Y101.904 E174.74094
G0 F9000 X107.2 Y101.677
G1 F1125 X107.2 Y33.221 E180.2054
G0 F9000 X108.8 Y33.558
G1 F1125 X108.8 Y101.259 E185.60958
G0 F9000 X110.4 Y100.635
G1 F1125 X110.4 Y34.076 E190.92261
G0 F9000 X112 Y34.826
G1 F1125 X112 Y99.786 E196.108
G0 F9000 X113.6 Y98.64
G1 F1125 X113.6 Y35.83 E201.12176
G0 F9000 X115.2 Y37.169
G1 F1125 X115.2 Y97.104 E205.90604
G0 F9000 X116.8 Y94.927
G1 F1125 X116.8 Y38.991 E210.37109
G0 F9000 X118.4 Y41.742
G1 F1125 X118.4 Y91.204 E214.31936
G1 F3000 E208.31936
G0 F9000 X119.43 Y91.472
G0 X118.909 Y93.07
G0 X118.027 Y94.95
G0 X117.318 Y96.109
G0 X116.047 Y97.753
G0 X115.124 Y98.71
G0 X113.523 Y100.043
G0 X112.404 Y100.785
G0 X110.539 Y101.745
G0 X109.28 Y102.226
G0 X107.256 Y102.755
G0 X105.943 Y102.946
G0 X104.268 Y103.035
G0 X84.998 Y103.334
G0 X72.794 Y103.294
G0 X71.467 Y103.147
G0 X69.454 Y102.699
G0 X68.117 Y102.243
G0 X66.195 Y101.339
G0 X65.046 Y100.634
G0 X63.413 Y99.369
G0 X62.206 Y98.18
G0 X60.888 Y96.53
G0 X59.742 Y94.599
G0 X59.035 Y92.976
G0 X58.458 Y91.039
G0 X58.143 Y89.372
G0 X59.2 Y89.238
G1 F3000 E214.31936
G1 F1125 X59.2 Y71.805 E215.71094
G1 F3000 E209.71094
G0 F9000 X58.148 Y71.642
G0 X58.151 Y64.193
G0 X59.2 Y63.999
M104 S200
G1 F3000 E215.71094
G1 F1125 X59.2 Y45.827 E217.1615
G1 F3000 E211.1615
G0 F300 X59.2 Y45.827 Z0.54
G0 F9000 X58.065 Y46.185
G0 X57.936 Y48.219
G0 X58.002 Y87.539
G0 X58.19 Y89.729
G0 X58.658 Y91.842
G0 X59.123 Y93.201
G0 X59.701 Y94.501
G0 X60.738 Y96.308
G0 X61.639 Y95.74
;TIME_ELAPSED:157.861285
;LAYER:-5
M140 S60
;TYPE:SUPPORT
G1 F3000 E217.1615
G1 F1125 X61.751 Y95.906 E217.18149
G1 X62.272 Y96.609 E217.2688
G1 X62.392 Y96.762 E217.2882
G1 X63.005 Y97.475 E217.38202
G1 X63.977 Y98.443 E217.5189
G1 X64.107 Y98.56 E217.53635
G1 X64.797 Y99.137 E217.6261
G1 X64.918 Y99.231 E217.64139
G1 X65.654 Y99.76 E217.73182
G1 X65.794 Y99.853 E217.7486
G1 X66.097 Y100.038 E217.78402
G1 X61.364 Y95.305 E218.4519
G1 X61.185 Y95.022 E218.48531
G1 X61.084 Y94.849 E218.5053
G1 X60.693 Y94.12 E218.58784
G1 X60.642 Y94.015 E218.59949
G1 X60.041 Y92.626 E218.7505
G1 X60.01 Y92.537 E218.7599
G1 X68.843 Y101.37 E220.00633
G1 X69.551 Y101.616 E220.08112
G1 X69.739 Y101.672 E220.10069
G1 X70.598 Y101.896 E220.18927
G1 X70.75 Y101.931 E220.20484
G1 X70.833 Y101.946 E220.21325
G1 X59.421 Y90.534 E221.82361
G1 X59.419 Y90.525 E221.82453
G1 X59.227 Y89.466 E221.93192
G1 X59.153 Y88.851 E221.99373
G1 X72.497 Y102.196 E223.87678
G1 X72.723 Y102.221 E223.89947
G1 X73.848 Y102.266 E224.01181
G1 X73.982 Y102.266 E224.02518
G1 X59.06 Y87.344 E226.13084
G1 X59.058 Y87.298 E226.13543
G1 X59.051 Y86.788 E226.18632
G1 X59.051 Y85.921 E226.27283
G1 X75.396 Y102.266 E228.57929
G1 X76.81 Y102.266 E228.72038
G1 X59.052 Y84.508 E231.22622
G1 X59.054 Y83.095 E231.36721
G1 X78.225 Y102.266 E234.07245
G1 X79.64 Y102.267 E234.21364
G1 X59.054 Y81.682 E237.11847
G1 X59.055 Y80.268 E237.25956
G1 X81.054 Y102.267 E240.36386
G1 X82.468 Y102.267 E240.50495
G1 X59.056 Y78.855 E243.80864
G1 X59.056 Y77.441 E243.94973
G1 X83.882 Y102.267 E247.45294
G1 X84.99 Y102.268 E247.5635
G1 X85.291 Y102.262 E247.59354
G1 X59.058 Y76.028 E251.29537
G1 X59.058 Y74.615 E251.43636
G1 X86.622 Y102.179 E255.32594
G1 X86.739 Y102.167 E255.33767
G1 X87.633 Y102.035 E255.42784
G1 X87.802 Y102.004 E255.44499
G1 X87.85 Y101.993 E255.4499
G1 X59.09 Y73.232 E259.50832
G1 X59.157 Y72.086 E259.62286
G1 X59.174 Y71.968 E259.63476
G1 X59.182 Y71.91 E259.6406
G1 X89.029 Y101.757 E263.85233
G1 X89.435 Y101.698 E263.89327
G1 X90.122 Y101.694 E263.96182
G1 X90.414 Y101.728 E263.99115
G1 X59.376 Y70.69 E268.37095
G1 X59.382 Y70.656 E268.3744
G1 X59.401 Y70.573 E268.38289
G1 X59.662 Y69.562 E268.48708
G1 X92.023 Y101.923 E273.05356
G1 X93.118 Y101.966 E273.16291
G1 X93.481 Y101.966 E273.19913
G1 X59.908 Y68.393 E277.93664
G1 X59.947 Y67.793 E277.99663
G1 X59.904 Y67.107 E278.06522
G1 X59.868 Y66.939 E278.08236
G1 X94.895 Y101.966 E283.02505
G1 X96.31 Y101.967 E283.16624
G1 X59.406 Y65.063 E288.37379
G1 X59.364 Y64.902 E288.39039
G1 X59.17 Y63.839 E288.49821
G1 X59.111 Y63.353 E288.54706
G1 X97.725 Y101.968 E293.99599
G1 X99.139 Y101.968 E294.13708
G1 X59.008 Y61.837 E299.79999
G1 X59 Y61.692 E299.81448
G1 X58.995 Y61.163 E299.86727
G1 X58.995 Y60.409 E299.9425
G1 X100.554 Y101.969 E305.807
G1 X101.969 Y101.969 E305.94819
G1 X58.996 Y58.996 E312.01214
G1 X58.996 Y57.582 E312.15323
G1 X103.383 Y101.969 E318.41672
G1 X104.26 Y101.97 E318.50422
G1 X104.766 Y101.961 E318.55472
G1 X104.788 Y101.959 E318.55693
G1 X58.997 Y56.169 E325.01846
G1 X58.998 Y54.755 E325.15955
G1 X106.097 Y101.855 E331.8058
G1 X106.913 Y101.734 E331.88811
G1 X107.043 Y101.711 E331.90128
G1 X107.308 Y101.651 E331.92839
G1 X58.999 Y53.342 E338.74531
G1 X59 Y51.929 E338.8863
G1 X108.437 Y101.366 E345.8624
G1 X108.961 Y101.21 E345.91695
G1 X109.111 Y101.157 E345.93282
G1 X109.495 Y101.01 E345.97385
G1 X59 Y50.515 E353.09924
G1 X59.001 Y49.102 E353.24023
G1 X110.49 Y100.59 E360.50582
G1 X110.927 Y100.385 E360.55398
G1 X111.078 Y100.308 E360.57089
G1 X111.425 Y100.112 E360.61066
G1 X59.025 Y47.712 E368.00486
G1 X59.089 Y46.563 E368.11969
G1 X59.11 Y46.382 E368.13787
G1 X112.307 Y99.579 E375.64454
G1 X112.736 Y99.295 E375.69588
G1 X112.895 Y99.183 E375.71528
G1 X113.137 Y98.995 E375.74586
G1 X59.305 Y45.163 E383.34214
G1 X59.338 Y44.96 E383.36266
G1 X59.584 Y44.028 E383.45884
G1 X113.917 Y98.361 E391.12581
G1 X114.394 Y97.934 E391.18969
G1 X114.518 Y97.814 E391.20691
G1 X114.649 Y97.679 E391.22568
G1 X59.914 Y42.944 E398.94938
G1 X60.072 Y42.506 E398.99584
G1 X60.133 Y42.354 E399.01218
G1 X60.319 Y41.934 E399.05801
G1 X115.332 Y96.947 E406.82094
G1 X115.821 Y96.36 E406.89717
G1 X115.934 Y96.213 E406.91568
G1 X115.966 Y96.167 E406.92127
G1 X60.784 Y40.985 E414.70804
G1 X61.107 Y40.389 E414.77568
G1 X61.296 Y40.083 E414.81157
G1 X116.551 Y95.338 E422.60865
G1 X117.082 Y94.455 E422.71146
G1 X61.866 Y39.239 E430.50303
G1 X62.101 Y38.912 E430.54321
G1 X62.206 Y38.777 E430.56028
G1 X62.483 Y38.441 E430.60373
G1 X117.56 Y93.518 E438.37569
G1 X117.582 Y93.468 E438.38114
G1 X117.923 Y92.665 E438.46819
G1 X117.977 Y92.522 E438.48344
G1 X63.148 Y37.693 E446.2204
G1 X63.505 Y37.322 E446.27178
G1 X63.624 Y37.209 E446.28815
G1 X63.864 Y36.994 E446.3203
G1 X118.332 Y91.462 E454.00633
G1 X118.556 Y90.601 E454.0951
G1 X118.586 Y90.467 E454.1088
G1 X118.612 Y90.327 E454.12301
G1 X64.629 Y36.345 E461.74052
G1 X65.437 Y35.738 E461.84136
G1 X118.807 Y89.108 E469.37244
G1 X118.875 Y88.496 E469.43388
G1 X118.885 Y88.362 E469.44729
G1 X118.905 Y87.792 E469.5042
G1 X66.296 Y35.183 E476.9279
G1 X66.366 Y35.138 E476.9362
G1 X66.523 Y35.048 E476.95426
G1 X67.208 Y34.681 E477.0318
G1 X118.921 Y86.394 E484.32906
G1 X118.921 Y84.98 E484.47015
G1 X68.177 Y34.235 E491.63075
G1 X68.284 Y34.187 E491.64245
G1 X68.433 Y34.127 E491.65848
G1 X69.206 Y33.851 E491.74038
G1 X118.921 Y83.565 E498.75563
G1 X118.921 Y82.151 E498.89672
G1 X70.301 Y33.532 E505.75746
G1 X70.329 Y33.524 E505.76036
G1 X70.461 Y33.493 E505.77389
