;FLAVOR:Marlin
;TIME:23220
;Filament used: 17.5885m
;Layer height: 0.2
;MINX:0.336
;MINY:83.272
;MINZ:0.24
;MAXX:234.664
;MAXY:150.909
;MAXZ:9.89
;Generated with Cura_SteamEngine 4.3.0
M82 ;absolute extrusion mode
; Ender 3 Custom Start G-code
M104 S230.0 ; Start heating hot end without waiting
M140 S70.0 ; Start heating bed without waiting
G28 ; Home all axes
M420 S1
M109 S230.0 ; Wait for hot end to reach temp before proceeding
M190 S70.0 ; Wait for bed to reach temp before proceeding
G92 E0 ; Reset Extruder
G1 Z2.0 F3000 ; Move Z Axis up little to prevent scratching of Heat Bed
G1 X0.1 Y20 Z0.3 F5000.0 ; Move to start position
G1 X0.1 Y200.0 Z0.3 F1500.0 E15 ; Draw the first line
G1 X0.4 Y200.0 Z0.3 F5000.0 ; Move to side a little
G1 X0.4 Y20 Z0.3 F1500.0 E30 ; Draw the second line
G92 E0 ; Reset Extruder
G1 Z2.0 F3000 ; Move Z Axis up little to prevent scratching of Heat Bed
G92 E0
G92 E0
G1 F3000 E-8
;LAYER_COUNT:44
;LAYER:-6
M107
M204 S500
M205 X8 Y8
G0 F9000 X15.275 Y84.594 Z0.24
;TYPE:SUPPORT-INTERFACE
G1 F3000 E0
G1 F1350 X15.405 Y84.571 E0.01054
G1 X16.31 Y84.437 E0.08357
G1 X16.479 Y84.419 E0.09713
G1 X17.552 Y84.344 E0.18299
G1 X18.058 Y84.336 E0.22339
G1 X45.129 Y84.337 E2.38431
G1 X216.969 Y84.336 E16.10133
G1 X217.004 Y84.337 E16.10412
G1 X218.127 Y84.382 E16.19384
G1 X219.045 Y84.484 E16.26757
G1 X219.22 Y84.509 E16.28168
G1 X220.097 Y84.671 E16.35287
G1 X220.252 Y84.706 E16.36555
G1 X221.119 Y84.933 E16.43709
G1 X221.265 Y84.977 E16.44926
G1 X222.11 Y85.264 E16.5205
G1 X222.472 Y85.373 E16.55068
G1 X223.157 Y85.557 E16.6073
G1 X224.013 Y85.849 E16.67949
G1 X224.179 Y85.912 E16.69366
G1 X224.982 Y86.253 E16.7633
G1 X225.171 Y86.341 E16.77995
G1 X226.082 Y86.815 E16.86192
G1 X226.861 Y87.29 E16.93475
G1 X227.012 Y87.39 E16.94921
G1 X227.726 Y87.901 E17.0193
G1 X227.874 Y88.014 E17.03416
G1 X228.674 Y88.687 E17.11761
G1 X229.342 Y89.326 E17.1914
G1 X229.988 Y90.022 E17.2672
G1 X230.107 Y90.161 E17.28181
G1 X230.661 Y90.852 E17.35251
G1 X230.765 Y90.991 E17.36636
G1 X231.258 Y91.706 E17.43569
G1 X231.374 Y91.89 E17.45305
G1 X231.887 Y92.773 E17.53457
G1 X232.292 Y93.596 E17.60779
G1 X232.353 Y93.733 E17.61976
G1 X232.695 Y94.578 E17.69253
G1 X232.754 Y94.744 E17.70659
G1 X233.025 Y95.586 E17.7772
G1 X233.072 Y95.752 E17.79097
G1 X233.283 Y96.621 E17.86235
G1 X233.317 Y96.784 E17.87564
G1 X233.465 Y97.676 E17.94782
G1 X233.489 Y97.862 E17.96279
G1 X233.579 Y98.898 E18.0458
G1 X233.6 Y99.631 E18.10433
G1 X233.6 Y100 E18.13379
G1 X233.564 Y101.006 E18.21414
G1 X233.554 Y101.141 E18.22495
G1 X233.452 Y102.058 E18.2986
G1 X233.427 Y102.233 E18.31271
G1 X233.265 Y103.111 E18.38398
G1 X233.235 Y103.245 E18.39494
G1 X232.959 Y104.283 E18.48068
G1 X232.904 Y104.441 E18.49403
G1 X232.729 Y105.089 E18.54761
G1 X232.635 Y105.76 E18.6017
G1 X232.62 Y106.164 E18.63397
G1 X232.62 Y135.23 E20.95414
G1 X232.584 Y136.236 E21.0345
G1 X232.574 Y136.371 E21.0453
G1 X232.472 Y137.288 E21.11895
G1 X232.447 Y137.463 E21.13306
G1 X232.285 Y138.341 E21.20433
G1 X232.255 Y138.475 E21.21529
G1 X232.024 Y139.36 E21.28831
G1 X231.972 Y139.532 E21.30265
G1 X231.696 Y140.344 E21.37111
G1 X231.616 Y140.553 E21.38897
G1 X231.281 Y141.343 E21.45747
G1 X231.2 Y141.518 E21.47286
G1 X230.719 Y142.443 E21.55609
G1 X230.244 Y143.222 E21.62892
G1 X230.144 Y143.373 E21.64337
G1 X229.633 Y144.087 E21.71346
G1 X229.52 Y144.235 E21.72833
G1 X228.944 Y144.926 E21.80013
G1 X228.843 Y145.039 E21.81223
G1 X228.218 Y145.688 E21.88416
G1 X228.093 Y145.808 E21.89799
G1 X227.423 Y146.41 E21.96989
G1 X227.306 Y146.507 E21.98202
G1 X226.594 Y147.057 E22.05384
G1 X226.435 Y147.17 E22.06941
G1 X225.697 Y147.66 E22.14012
G1 X225.571 Y147.736 E22.15187
G1 X224.777 Y148.182 E22.22456
G1 X224.626 Y148.26 E22.23813
G1 X223.812 Y148.643 E22.30994
G1 X223.669 Y148.703 E22.32232
G1 X222.81 Y149.032 E22.39574
G1 X222.66 Y149.084 E22.40842
G1 X221.81 Y149.339 E22.47925
G1 X221.637 Y149.385 E22.49354
G1 X220.742 Y149.586 E22.56677
G1 X220.612 Y149.609 E22.5773
G1 X219.707 Y149.743 E22.65033
G1 X219.539 Y149.761 E22.66382
G1 X218.465 Y149.836 E22.74976
G1 X217.96 Y149.844 E22.79008
G1 X17.012 Y149.844 E38.83061
G1 X16.977 Y149.843 E38.83341
G1 X15.853 Y149.798 E38.9232
G1 X14.936 Y149.696 E38.99685
G1 X14.761 Y149.671 E39.01096
G1 X13.872 Y149.507 E39.08313
G1 X13.749 Y149.479 E39.0932
G1 X12.855 Y149.245 E39.16696
G1 X12.692 Y149.196 E39.18055
G1 X11.85 Y148.909 E39.25156
G1 X11.684 Y148.846 E39.26573
G1 X10.881 Y148.505 E39.33537
G1 X10.692 Y148.417 E39.35201
G1 X9.781 Y147.943 E39.43399
G1 X9.002 Y147.468 E39.50682
G1 X8.851 Y147.368 E39.52128
G1 X8.137 Y146.857 E39.59136
G1 X7.989 Y146.744 E39.60623
G1 X7.298 Y146.168 E39.67804
G1 X7.185 Y146.067 E39.69013
G1 X6.536 Y145.442 E39.76206
G1 X6.416 Y145.317 E39.77589
G1 X5.813 Y144.646 E39.8479
G1 X5.716 Y144.528 E39.86009
G1 X5.158 Y143.806 E39.93293
G1 X5.054 Y143.659 E39.94731
G1 X4.561 Y142.916 E40.01849
G1 X4.488 Y142.795 E40.02977
G1 X4.036 Y141.99 E40.10346
G1 X3.964 Y141.851 E40.11596
G1 X3.567 Y141.005 E40.19055
G1 X3.521 Y140.893 E40.20022
G1 X3.192 Y140.034 E40.27365
G1 X3.135 Y139.869 E40.28758
G1 X2.885 Y139.034 E40.35716
G1 X2.839 Y138.861 E40.37145
G1 X2.637 Y137.96 E40.44515
G1 X2.615 Y137.836 E40.45521
G1 X2.48 Y136.922 E40.52896
G1 X2.463 Y136.762 E40.5418
G1 X2.388 Y135.689 E40.62766
G1 X2.38 Y135.188 E40.66766
G1 X2.38 Y106.151 E42.98552
G1 X2.337 Y105.477 E43.03943
G1 X2.126 Y104.529 E43.11695
G1 X1.967 Y104.033 E43.15853
G1 X1.928 Y103.892 E43.17021
G1 X1.712 Y103.004 E43.24316
G1 X1.683 Y102.861 E43.25481
G1 X1.533 Y101.955 E43.32811
G1 X1.511 Y101.783 E43.34195
G1 X1.428 Y100.884 E43.41402
G1 X1.421 Y100.747 E43.42497
G1 X1.4 Y100.014 E43.48351
G1 X1.4 Y99.645 E43.51296
G1 X1.436 Y98.639 E43.59332
G1 X1.446 Y98.504 E43.60412
G1 X1.547 Y97.589 E43.6776
G1 X1.573 Y97.414 E43.69173
G1 X1.735 Y96.534 E43.76315
G1 X1.765 Y96.4 E43.77411
G1 X1.996 Y95.514 E43.8472
G1 X2.048 Y95.343 E43.86147
G1 X2.335 Y94.501 E43.93248
G1 X2.398 Y94.335 E43.94665
G1 X2.739 Y93.532 E44.01629
G1 X2.82 Y93.357 E44.03168
G1 X3.301 Y92.432 E44.11491
G1 X3.776 Y91.653 E44.18774
G1 X3.876 Y91.502 E44.2022
G1 X4.392 Y90.781 E44.27297
G1 X4.5 Y90.64 E44.28715
G1 X5.173 Y89.84 E44.3706
G1 X5.812 Y89.172 E44.44439
G1 X6.508 Y88.526 E44.52019
G1 X6.647 Y88.407 E44.5348
G1 X7.338 Y87.853 E44.60549
G1 X7.477 Y87.749 E44.61935
G1 X8.192 Y87.256 E44.68868
G1 X8.376 Y87.14 E44.70604
G1 X9.132 Y86.697 E44.77599
G1 X9.274 Y86.62 E44.78888
G1 X10.219 Y86.161 E44.87274
G1 X11.069 Y85.818 E44.94591
G1 X11.242 Y85.756 E44.96058
G1 X12.079 Y85.487 E45.03076
G1 X12.253 Y85.437 E45.04521
G1 X12.462 Y85.387 E45.06236
G1 X13.096 Y85.19 E45.11536
G1 X13.189 Y85.154 E45.12332
G1 X13.381 Y85.089 E45.1395
G1 X14.207 Y84.841 E45.20834
G1 X14.38 Y84.795 E45.22263
G1 X15.275 Y84.594 E45.29585
G0 F9000 X16 Y84.482
G1 F1350 X16 Y149.803 E50.51006
G0 F9000 X17.6 Y149.844
G1 F1350 X17.6 Y84.343 E55.73863
G0 F9000 X19.2 Y84.337
G1 F1350 X19.2 Y149.844 E60.96768
G0 F9000 X20.8 Y149.844
G1 F1350 X20.8 Y84.337 E66.19674
G0 F9000 X22.4 Y84.337
G1 F1350 X22.4 Y149.844 E71.42579
G0 F9000 X24 Y149.844
G1 F1350 X24 Y84.337 E76.65484
G0 F9000 X25.6 Y84.337
G1 F1350 X25.6 Y149.844 E81.88389
G0 F9000 X27.2 Y149.844
G1 F1350 X27.2 Y84.337 E87.11294
G0 F9000 X28.8 Y84.337
G1 F1350 X28.8 Y149.844 E92.342
G0 F9000 X30.4 Y149.844
G1 F1350 X30.4 Y84.337 E97.57105
G0 F9000 X32 Y84.337
G1 F1350 X32 Y149.844 E102.8001
G0 F9000 X33.6 Y149.844
G1 F1350 X33.6 Y84.337 E108.02915
G0 F9000 X35.2 Y84.337
G1 F1350 X35.2 Y149.844 E113.2582
G0 F9000 X36.8 Y149.844
G1 F1350 X36.8 Y84.337 E118.48726
G0 F9000 X38.4 Y84.337
G1 F1350 X38.4 Y149.844 E123.71631
G0 F9000 X40 Y149.844
G1 F1350 X40 Y84.337 E128.94536
G0 F9000 X41.6 Y84.337
G1 F1350 X41.6 Y149.844 E134.17441
G0 F9000 X43.2 Y149.844
G1 F1350 X43.2 Y84.337 E139.40346
G0 F9000 X44.8 Y84.337
G1 F1350 X44.8 Y149.844 E144.63252
G0 F9000 X46.4 Y149.844
G1 F1350 X46.4 Y84.336 E149.86165
G0 F9000 X48 Y84.336
G1 F1350 X48 Y149.844 E155.09078
G0 F9000 X49.6 Y149.844
G1 F1350 X49.6 Y84.336 E160.31991
G0 F9000 X51.2 Y84.336
G1 F1350 X51.2 Y149.844 E165.54904
G0 F9000 X52.8 Y149.844
G1 F1350 X52.8 Y84.336 E170.77817
G0 F9000 X54.4 Y84.336
G1 F1350 X54.4 Y149.844 E176.00731
G0 F9000 X56 Y149.844
G1 F1350 X56 Y84.336 E181.23644
G0 F9000 X57.6 Y84.336
G1 F1350 X57.6 Y149.844 E186.46557
G0 F9000 X59.2 Y149.844
G1 F1350 X59.2 Y84.336 E191.6947
G0 F9000 X60.8 Y84.336
G1 F1350 X60.8 Y149.844 E196.92383
G0 F9000 X62.4 Y149.844
G1 F1350 X62.4 Y84.336 E202.15297
G0 F9000 X64 Y84.336
G1 F1350 X64 Y149.844 E207.3821
G0 F9000 X65.6 Y149.844
G1 F1350 X65.6 Y84.336 E212.61123
G0 F9000 X67.2 Y84.336
G1 F1350 X67.2 Y149.844 E217.84036
G0 F9000 X68.8 Y149.844
G1 F1350 X68.8 Y84.336 E223.06949
G0 F9000 X70.4 Y84.336
G1 F1350 X70.4 Y149.844 E228.29862
G0 F9000 X72 Y149.844
G1 F1350 X72 Y84.336 E233.52776
G0 F9000 X73.6 Y84.336
G1 F1350 X73.6 Y149.844 E238.75689
G0 F9000 X75.2 Y149.844
G1 F1350 X75.2 Y84.336 E243.98602
G0 F9000 X76.8 Y84.336
G1 F1350 X76.8 Y149.844 E249.21515
G0 F9000 X78.4 Y149.844
G1 F1350 X78.4 Y84.336 E254.44428
G0 F9000 X80 Y84.336
G1 F1350 X80 Y149.844 E259.67342
G0 F9000 X81.6 Y149.844
G1 F1350 X81.6 Y84.336 E264.90255
G0 F9000 X83.2 Y84.336
G1 F1350 X83.2 Y149.844 E270.13168
G0 F9000 X84.8 Y149.844
G1 F1350 X84.8 Y84.336 E275.36081
G0 F9000 X86.4 Y84.336
G1 F1350 X86.4 Y149.844 E280.58994
G0 F9000 X88 Y149.844
G1 F1350 X88 Y84.336 E285.81907
G0 F9000 X89.6 Y84.336
G1 F1350 X89.6 Y149.844 E291.04821
G0 F9000 X91.2 Y149.844
G1 F1350 X91.2 Y84.336 E296.27734
G0 F9000 X92.8 Y84.336
G1 F1350 X92.8 Y149.844 E301.50647
G0 F9000 X94.4 Y149.844
G1 F1350 X94.4 Y84.336 E306.7356
G0 F9000 X96 Y84.336
G1 F1350 X96 Y149.844 E311.96473
G0 F9000 X97.6 Y149.844
G1 F1350 X97.6 Y84.336 E317.19387
G0 F9000 X99.2 Y84.336
G1 F1350 X99.2 Y149.844 E322.423
G0 F9000 X100.8 Y149.844
G1 F1350 X100.8 Y84.336 E327.65213
G0 F9000 X102.4 Y84.336
G1 F1350 X102.4 Y149.844 E332.88126
G0 F9000 X104 Y149.844
G1 F1350 X104 Y84.336 E338.11039
G0 F9000 X105.6 Y84.336
G1 F1350 X105.6 Y149.844 E343.33952
G0 F9000 X107.2 Y149.844
G1 F1350 X107.2 Y84.336 E348.56866
G0 F9000 X108.8 Y84.336
G1 F1350 X108.8 Y149.844 E353.79779
G0 F9000 X110.4 Y149.844
G1 F1350 X110.4 Y84.336 E359.02692
G0 F9000 X112 Y84.336
G1 F1350 X112 Y149.844 E364.25605
G0 F9000 X113.6 Y149.844
G1 F1350 X113.6 Y84.336 E369.48518
G0 F9000 X115.2 Y84.336
G1 F1350 X115.2 Y149.844 E374.71432
G0 F9000 X116.8 Y149.844
G1 F1350 X116.8 Y84.336 E379.94345
G0 F9000 X118.4 Y84.336
G1 F1350 X118.4 Y149.844 E385.17258
G0 F9000 X120 Y149.844
G1 F1350 X120 Y84.336 E390.40171
G0 F9000 X121.6 Y84.336
G1 F1350 X121.6 Y149.844 E395.63084
G0 F9000 X123.2 Y149.844
G1 F1350 X123.2 Y84.336 E400.85997
G0 F9000 X124.8 Y84.336
G1 F1350 X124.8 Y149.844 E406.08911
G0 F9000 X126.4 Y149.844
G1 F1350 X126.4 Y84.336 E411.31824
G0 F9000 X128 Y84.336
G1 F1350 X128 Y149.844 E416.54737
G0 F9000 X129.6 Y149.844
G1 F1350 X129.6 Y84.336 E421.7765
G0 F9000 X131.2 Y84.336
G1 F1350 X131.2 Y149.844 E427.00563
G0 F9000 X132.8 Y149.844
G1 F1350 X132.8 Y84.336 E432.23477
G0 F9000 X134.4 Y84.336
G1 F1350 X134.4 Y149.844 E437.4639
G0 F9000 X136 Y149.844
G1 F1350 X136 Y84.336 E442.69303
G0 F9000 X137.6 Y84.336
G1 F1350 X137.6 Y149.844 E447.92216
G0 F9000 X139.2 Y149.844
G1 F1350 X139.2 Y84.336 E453.15129
G0 F9000 X140.8 Y84.336
G1 F1350 X140.8 Y149.844 E458.38042
G0 F9000 X142.4 Y149.844
G1 F1350 X142.4 Y84.336 E463.60956
G0 F9000 X144 Y84.336
G1 F1350 X144 Y149.844 E468.83869
G0 F9000 X145.6 Y149.844
G1 F1350 X145.6 Y84.336 E474.06782
G0 F9000 X147.2 Y84.336
G1 F1350 X147.2 Y149.844 E479.29695
G0 F9000 X148.8 Y149.844
G1 F1350 X148.8 Y84.336 E484.52608
G0 F9000 X150.4 Y84.336
G1 F1350 X150.4 Y149.844 E489.75522
G0 F9000 X152 Y149.844
G1 F1350 X152 Y84.336 E494.98435
G0 F9000 X153.6 Y84.336
G1 F1350 X153.6 Y149.844 E500.21348
G0 F9000 X155.2 Y149.844
G1 F1350 X155.2 Y84.336 E505.44261
G0 F9000 X156.8 Y84.336
G1 F1350 X156.8 Y149.844 E510.67174
G0 F9000 X158.4 Y149.844
G1 F1350 X158.4 Y84.336 E515.90087
G0 F9000 X160 Y84.336
G1 F1350 X160 Y149.844 E521.13001
G0 F9000 X161.6 Y149.844
G1 F1350 X161.6 Y84.336 E526.35914
G0 F9000 X163.2 Y84.336
G1 F1350 X163.2 Y149.844 E531.58827
G0 F9000 X164.8 Y149.844
G1 F1350 X164.8 Y84.336 E536.8174
G0 F9000 X166.4 Y84.336
G1 F1350 X166.4 Y149.844 E542.04653
G0 F9000 X168 Y149.844
G1 F1350 X168 Y84.336 E547.27567
G0 F9000 X169.6 Y84.336
G1 F1350 X169.6 Y149.844 E552.5048
G0 F9000 X171.2 Y149.844
G1 F1350 X171.2 Y84.336 E557.73393
G0 F9000 X172.8 Y84.336
G1 F1350 X172.8 Y149.844 E562.96306
G0 F9000 X174.4 Y149.844
G1 F1350 X174.4 Y84.336 E568.19219
G0 F9000 X176 Y84.336
G1 F1350 X176 Y149.844 E573.42132
G0 F9000 X177.6 Y149.844
G1 F1350 X177.6 Y84.336 E578.65046
G0 F9000 X179.2 Y84.336
G1 F1350 X179.2 Y149.844 E583.87959
G0 F9000 X180.8 Y149.844
G1 F1350 X180.8 Y84.336 E589.10872
G0 F9000 X182.4 Y84.336
G1 F1350 X182.4 Y149.844 E594.33785
G0 F9000 X184 Y149.844
G1 F1350 X184 Y84.336 E599.56698
G0 F9000 X185.6 Y84.336
G1 F1350 X185.6 Y149.844 E604.79612
G0 F9000 X187.2 Y149.844
G1 F1350 X187.2 Y84.336 E610.02525
G0 F9000 X188.8 Y84.336
G1 F1350 X188.8 Y149.844 E615.25438
G0 F9000 X190.4 Y149.844
G1 F1350 X190.4 Y84.336 E620.48351
G0 F9000 X192 Y84.336
G1 F1350 X192 Y149.844 E625.71264
G0 F9000 X193.6 Y149.844
G1 F1350 X193.6 Y84.336 E630.94177
G0 F9000 X195.2 Y84.336
G1 F1350 X195.2 Y149.844 E636.17091
G0 F9000 X196.8 Y149.844
G1 F1350 X196.8 Y84.336 E641.40004
G0 F9000 X198.4 Y84.336
G1 F1350 X198.4 Y149.844 E646.62917
G0 F9000 X200 Y149.844
G1 F1350 X200 Y84.336 E651.8583
G0 F9000 X201.6 Y84.336
G1 F1350 X201.6 Y149.844 E657.08743
G0 F9000 X203.2 Y149.844
G1 F1350 X203.2 Y84.336 E662.31657
G0 F9000 X204.8 Y84.336
G1 F1350 X204.8 Y149.844 E667.5457
G0 F9000 X206.4 Y149.844
G1 F1350 X206.4 Y84.336 E672.77483
G0 F9000 X208 Y84.336
G1 F1350 X208 Y149.844 E678.00396
G0 F9000 X209.6 Y149.844
G1 F1350 X209.6 Y84.336 E683.23309
G0 F9000 X211.2 Y84.336
G1 F1350 X211.2 Y149.844 E688.46222
G0 F9000 X212.8 Y149.844
G1 F1350 X212.8 Y84.336 E693.69136
G0 F9000 X214.4 Y84.336
G1 F1350 X214.4 Y149.844 E698.92049
G0 F9000 X216 Y149.844
G1 F1350 X216 Y84.336 E704.14962
G0 F9000 X217.6 Y84.361
G1 F1350 X217.6 Y149.844 E709.37676
G0 F9000 X219.2 Y149.785
G1 F1350 X219.2 Y84.507 E714.58753
G0 F9000 X220.8 Y84.85
G1 F1350 X220.8 Y149.573 E719.754
G0 F9000 X222.4 Y149.162
G1 F1350 X222.4 Y85.352 E724.84759
G0 F9000 X224 Y85.845
G1 F1350 X224 Y148.555 E729.85337
G0 F9000 X225.6 Y147.719
G1 F1350 X225.6 Y86.565 E734.73495
G0 F9000 X227.2 Y87.525
G1 F1350 X227.2 Y146.589 E739.44969
G0 F9000 X228.8 Y145.084
G1 F1350 X228.8 Y88.808 E743.94189
G0 F9000 X230.4 Y90.527
G1 F1350 X230.4 Y142.967 E748.12787
G0 F9000 X232 Y139.44
G1 F1350 X232 Y93.003 E751.83468
G1 F3000 E743.83468
G0 F9000 X232.836 Y92.292
G0 X232.149 Y91.124
G0 X230.922 Y89.477
G0 X229.398 Y87.906
G0 X228.364 Y87.048
G0 X226.626 Y85.901
G0 X225.421 Y85.283
G0 X223.488 Y84.544
G0 X220.305 Y83.627
G0 X218.231 Y83.323
G0 X216.988 Y83.272
G0 X17.307 Y83.29
G0 X15.633 Y83.475
G0 X14.167 Y83.752
G0 X14.4 Y84.79
G1 F3000 E751.83468
G1 F1350 X14.4 Y149.604 E757.00841
G0 F9000 X12.8 Y149.228
G1 F1350 X12.8 Y85.281 E762.11294
G0 F9000 X11.2 Y85.771
G1 F1350 X11.2 Y148.64 E767.13141
G0 F9000 X9.6 Y147.832
G1 F1350 X9.6 Y86.461 E772.03031
G0 F9000 X8 Y87.388
G1 F1350 X8 Y146.752 E776.769
G0 F9000 X6.4 Y145.299
G1 F1350 X6.4 Y88.626 E781.29288
G0 F9000 X4.8 Y90.283
G1 F1350 X4.8 Y143.276 E785.52302
G0 F9000 X3.2 Y140.054
G1 F1350 X3.2 Y92.626 E789.30892
G1 F3000 E781.30892
G0 F9000 X1.868 Y92.882
G0 X1.331 Y94.146
G0 X1.23 Y94.449
G0 X0.694 Y96.315
G0 X1.6 Y97.267
M104 S230
G1 F3000 E789.30892
G1 F1350 X1.6 Y102.359 E789.71539
G1 F3000 E781.71539
G0 F300 X1.6 Y102.359 Z0.54
G0 F9000 X0.634 Y103.046
G0 X1.334 Y135.931
G0 X1.563 Y138.002
G0 X1.859 Y139.317
G0 X2.53 Y141.282
G0 X3.102 Y142.501
G0 X4.167 Y144.247
G0 X5.053 Y143.657
;TIME_ELAPSED:467.194410
;LAYER:-5
M140 S70
;TYPE:SUPPORT
G1 F3000 E789.71539
G1 F1350 X5.158 Y143.805 E789.7335
G1 X5.716 Y144.526 E789.82447
