;FLAVOR:Marlin
;TIME:10669
;Filament used: 7.88597m
;Layer height: 0.2
;MINX:90.983
;MINY:8.541
;MINZ:0.2
;MAXX:144.024
;MAXY:226.459
;MAXZ:22.6
;Generated with Cura_SteamEngine 4.1.0
M140 S60
M105
M190 S60
M104 S210
M105
M109 S210
M82 ;absolute extrusion mode
; Ender 3 Custom Start G-code
G28 ; Home all axes
M420 S1
G92 E0 ; Reset Extruder
G1 Z2.0 F3000 ; Move Z Axis up little to prevent scratching of Heat Bed
G1 X0.1 Y20 Z0.3 F5000.0 ; Move to start position
G1 X0.1 Y200.0 Z0.3 F1500.0 E15 ; Draw the first line
G1 X0.4 Y200.0 Z0.3 F5000.0 ; Move to side a little
G1 X0.4 Y20 Z0.3 F1500.0 E30 ; Draw the second line
G92 E0 ; Reset Extruder
G1 Z2.0 F3000 ; Move Z Axis up little to prevent scratching of Heat Bed
G92 E0
G92 E0
G1 F3600 E-6
;LAYER_COUNT:113
;LAYER:0
M107
M204 S500
M205 X10 Y10
G0 F3600 X91.142 Y14.91 Z0.2
;TYPE:SKIRT
G1 F3600 E0
G1 F1800 X91.34 Y14.145 E0.0184
G1 X91.614 Y13.405 E0.03677
G1 X91.962 Y12.696 E0.05516
G1 X92.38 Y12.025 E0.07356
G1 X92.863 Y11.401 E0.09194
G1 X93.244 Y10.987 E0.10503
G1 X93.36 Y10.87 E0.10887
G1 X93.944 Y10.338 E0.12726
G1 X94.578 Y9.868 E0.14564
G1 X95.257 Y9.465 E0.16402
G1 X95.973 Y9.132 E0.18241
G1 X96.719 Y8.873 E0.20079
G1 X97.487 Y8.691 E0.21917
G1 X98.27 Y8.587 E0.23756
G1 X98.857 Y8.562 E0.25124
G1 X102.8 Y8.541 E0.34304
G1 X130.753 Y8.541 E0.99384
G1 X131.542 Y8.581 E1.01224
G1 X132.268 Y8.689 E1.02932
G1 X133.152 Y8.864 E1.05031
G1 X133.918 Y9.057 E1.0687
G1 X134.66 Y9.326 E1.08707
G1 X135.274 Y9.616 E1.10288
G1 X135.57 Y9.772 E1.11067
G1 X136.249 Y10.175 E1.12906
G1 X136.884 Y10.644 E1.14743
G1 X137.468 Y11.176 E1.16583
G1 X137.995 Y11.764 E1.18421
G1 X138.583 Y12.596 E1.20793
G1 X138.64 Y12.689 E1.21047
G1 X139.018 Y13.382 E1.22885
G1 X139.324 Y14.11 E1.24723
G1 X139.555 Y14.866 E1.26564
G1 X139.708 Y15.64 E1.28401
G1 X139.79 Y16.765 E1.31027
G1 X139.79 Y17.903 E1.33677
G1 X139.66 Y63.766 E2.40456
G1 X139.66 Y118.027 E3.66787
G1 X139.789 Y135.891 E4.08379
G1 X139.806 Y135.899 E4.08423
G1 X140.489 Y136.297 E4.10263
G1 X141.127 Y136.762 E4.12101
G1 X141.715 Y137.289 E4.13939
G1 X142.247 Y137.872 E4.15777
G1 X142.718 Y138.507 E4.17618
G1 X143.121 Y139.185 E4.19454
G1 X143.454 Y139.901 E4.21292
G1 X143.713 Y140.647 E4.23131
G1 X143.895 Y141.416 E4.24971
G1 X143.999 Y142.199 E4.2681
G1 X144.024 Y142.828 E4.28275
G1 X144.024 Y185.416 E5.27429
G1 X143.984 Y186.205 E5.29269
G1 X143.865 Y186.985 E5.31106
G1 X143.667 Y187.75 E5.32945
G1 X143.393 Y188.49 E5.34783
G1 X143.045 Y189.199 E5.36621
G1 X142.627 Y189.87 E5.38462
G1 X142.144 Y190.494 E5.40299
G1 X141.601 Y191.067 E5.42137
G1 X141.002 Y191.582 E5.43976
G1 X140.354 Y192.033 E5.45814
G1 X139.789 Y192.347 E5.47319
G1 X139.789 Y218.235 E6.07592
G1 X139.749 Y219.024 E6.09431
G1 X139.63 Y219.804 E6.11268
G1 X139.432 Y220.569 E6.13108
G1 X139.158 Y221.309 E6.14945
G1 X138.639 Y222.311 E6.17572
G1 X138.582 Y222.404 E6.17826
G1 X138.136 Y223.056 E6.19666
G1 X137.626 Y223.659 E6.21504
G1 X137.058 Y224.207 E6.23342
G1 X136.437 Y224.695 E6.25181
G1 X135.576 Y225.224 E6.27533
G1 X135.277 Y225.382 E6.28321
G1 X134.561 Y225.715 E6.30159
G1 X133.622 Y226.028 E6.32464
G1 X132.981 Y226.197 E6.34007
G1 X132.208 Y226.36 E6.35846
G1 X131.422 Y226.443 E6.37686
G1 X130.993 Y226.455 E6.38686
G1 X99.296 Y226.459 E7.12483
G1 X98.945 Y226.451 E7.133
G1 X98.544 Y226.433 E7.14235
G1 X97.758 Y226.358 E7.16073
G1 X96.984 Y226.203 E7.17911
G1 X96.229 Y225.972 E7.19749
G1 X95.501 Y225.664 E7.2159
G1 X94.809 Y225.285 E7.23426
G1 X94.158 Y224.838 E7.25265
G1 X93.555 Y224.328 E7.27104
G1 X93.258 Y224.034 E7.28077
G1 X93.147 Y223.918 E7.28451
G1 X92.631 Y223.32 E7.30289
G1 X92.178 Y222.674 E7.32126
G1 X91.792 Y221.984 E7.33967
G1 X91.478 Y221.26 E7.35805
G1 X91.239 Y220.507 E7.37644
G1 X91.077 Y219.734 E7.39483
G1 X90.995 Y218.949 E7.4132
G1 X90.983 Y218.525 E7.42308
G1 X90.984 Y67.252 E10.94503
G1 X90.983 Y16.479 E12.12713
G1 X91.023 Y15.69 E12.14553
G1 X91.142 Y14.91 E12.1639
G0 F3600 X91.542 Y14.951
G1 F1800 X91.74 Y14.208 E12.1818
G1 X92.014 Y13.489 E12.19971
G1 X92.361 Y12.802 E12.21763
G1 X92.777 Y12.156 E12.23552
G1 X93.258 Y11.556 E12.25342
G1 X93.528 Y11.269 E12.2626
G1 X93.644 Y11.152 E12.26643
G1 X94.213 Y10.635 E12.28433
G1 X94.833 Y10.179 E12.30225
G1 X95.497 Y9.79 E12.32017
G1 X96.197 Y9.473 E12.33806
G1 X96.927 Y9.23 E12.35597
G1 X97.678 Y9.063 E12.37388
G1 X98.442 Y8.976 E12.39179
G1 X98.86 Y8.962 E12.40152
G1 X102.803 Y8.941 E12.49333
G1 X130.753 Y8.941 E13.14406
G1 X131.521 Y8.981 E13.16197
G1 X132.19 Y9.082 E13.17772
G1 X133.074 Y9.257 E13.1987
G1 X133.82 Y9.445 E13.21661
G1 X134.542 Y9.71 E13.23452
G1 X135.087 Y9.97 E13.24858
G1 X135.383 Y10.126 E13.25637
G1 X136.044 Y10.519 E13.27427
G1 X136.661 Y10.979 E13.29219
G1 X137.226 Y11.5 E13.31008
G1 X137.734 Y12.078 E13.328
G1 X138.242 Y12.805 E13.34865
G1 X138.299 Y12.898 E13.35119
G1 X138.667 Y13.574 E13.3691
G1 X138.962 Y14.284 E13.38701
G1 X139.182 Y15.021 E13.40491
G1 X139.324 Y15.777 E13.42282
G1 X139.39 Y16.765 E13.44588
G1 X139.39 Y17.902 E13.47235
G1 X139.26 Y63.765 E14.54014
G1 X139.26 Y118.027 E15.80347
G1 X139.389 Y135.949 E16.22074
G1 X139.38 Y136.146 E16.22533
G1 X139.799 Y136.349 E16.23617
G1 X140.452 Y136.755 E16.25408
G1 X141.06 Y137.227 E16.272
G1 X141.615 Y137.759 E16.2899
G1 X142.112 Y138.346 E16.3078
G1 X142.546 Y138.981 E16.32571
G1 X142.911 Y139.658 E16.34362
G1 X143.204 Y140.369 E16.36152
G1 X143.421 Y141.107 E16.37943
G1 X143.561 Y141.863 E16.39733
G1 X143.624 Y142.828 E16.41985
G1 X143.624 Y185.416 E17.41138
G1 X143.584 Y186.184 E17.42929
G1 X143.465 Y186.944 E17.4472
G1 X143.267 Y187.687 E17.4651
G1 X142.993 Y188.406 E17.48302
G1 X142.646 Y189.092 E17.50091
G1 X142.23 Y189.739 E17.51882
G1 X141.749 Y190.339 E17.53673
G1 X141.208 Y190.886 E17.55464
G1 X140.613 Y191.374 E17.57256
G1 X139.971 Y191.797 E17.59046
G1 X139.385 Y192.101 E17.60583
G1 X139.389 Y192.237 E17.60899
G1 X139.389 Y218.235 E18.21428
G1 X139.349 Y219.003 E18.23219
G1 X139.23 Y219.763 E18.2501
G1 X139.032 Y220.506 E18.268
G1 X138.758 Y221.225 E18.28591
G1 X138.298 Y222.102 E18.30897
G1 X138.241 Y222.195 E18.31151
G1 X137.806 Y222.829 E18.32941
G1 X137.307 Y223.414 E18.34731
G1 X136.75 Y223.945 E18.36523
G1 X136.141 Y224.415 E18.38314
G1 X135.389 Y224.871 E18.40361
G1 X135.09 Y225.029 E18.41149
G1 X134.393 Y225.352 E18.42937
G1 X133.52 Y225.641 E18.45078
G1 X132.879 Y225.81 E18.46622
G1 X132.126 Y225.968 E18.48413
G1 X130.993 Y226.055 E18.51059
G1 X99.296 Y226.059 E19.24856
G1 X98.963 Y226.052 E19.25631
G1 X98.562 Y226.034 E19.26566
G1 X97.797 Y225.959 E19.28356
G1 X97.043 Y225.806 E19.30147
G1 X96.309 Y225.575 E19.31938
G1 X95.603 Y225.269 E19.3373
G1 X94.933 Y224.892 E19.3552
G1 X94.306 Y224.447 E19.3731
G1 X93.547 Y223.757 E19.39698
G1 X93.436 Y223.641 E19.40072
G1 X92.934 Y223.058 E19.41863
G1 X92.495 Y222.427 E19.43653
G1 X92.124 Y221.753 E19.45444
G1 X91.825 Y221.045 E19.47233
G1 X91.601 Y220.309 E19.49024
G1 X91.455 Y219.554 E19.50815
G1 X91.383 Y218.525 E19.53216
G1 X91.384 Y67.252 E23.05412
G1 X91.383 Y16.479 E24.23622
G1 X91.423 Y15.711 E24.25412
G1 X91.542 Y14.951 E24.27203
G0 F3600 X91.942 Y14.993
G1 F1800 X92.14 Y14.272 E24.28944
G1 X92.413 Y13.576 E24.30685
G1 X92.76 Y12.913 E24.32427
G1 X93.175 Y12.29 E24.3417
G1 X93.812 Y11.551 E24.36441
G1 X93.928 Y11.434 E24.36825
G1 X94.482 Y10.931 E24.38567
G1 X95.087 Y10.491 E24.40309
G1 X95.735 Y10.118 E24.42049
G1 X96.42 Y9.816 E24.43792
G1 X97.133 Y9.589 E24.45534
G1 X97.865 Y9.439 E24.47274
G1 X98.862 Y9.362 E24.49602
G1 X102.805 Y9.341 E24.58782
G1 X130.753 Y9.341 E25.23851
G1 X131.5 Y9.381 E25.25593
G1 X132.112 Y9.474 E25.27034
G1 X132.996 Y9.649 E25.29132
G1 X133.721 Y9.834 E25.30874
G1 X134.423 Y10.094 E25.32617
G1 X134.901 Y10.323 E25.33851
G1 X135.197 Y10.479 E25.3463
G1 X135.839 Y10.863 E25.36372
G1 X136.436 Y11.313 E25.38112
G1 X136.983 Y11.824 E25.39855
G1 X137.471 Y12.391 E25.41597
G1 X137.901 Y13.014 E25.43359
G1 X137.958 Y13.107 E25.43613
G1 X138.314 Y13.765 E25.45355
G1 X138.599 Y14.457 E25.47098
G1 X138.807 Y15.175 E25.48838
G1 X138.938 Y15.912 E25.50581
G1 X138.99 Y16.765 E25.5257
G1 X138.99 Y17.901 E25.55215
G1 X138.86 Y63.764 E26.61994
G1 X138.86 Y118.027 E27.8833
G1 X138.989 Y135.952 E28.30064
G1 X138.968 Y136.396 E28.31099
G1 X139.12 Y136.455 E28.31479
G1 X139.784 Y136.801 E28.33222
G1 X140.407 Y137.215 E28.34963
G1 X140.982 Y137.694 E28.36706
G1 X141.503 Y138.231 E28.38448
G1 X141.963 Y138.82 E28.40188
G1 X142.358 Y139.455 E28.41929
G1 X142.683 Y140.129 E28.43671
G1 X142.934 Y140.834 E28.45413
G1 X143.108 Y141.561 E28.47154
G1 X143.204 Y142.303 E28.48896
G1 X143.224 Y142.828 E28.50119
G1 X143.224 Y185.416 E29.49273
G1 X143.184 Y186.163 E29.51014
G1 X143.065 Y186.901 E29.52755
G1 X142.867 Y187.623 E29.54498
G1 X142.594 Y188.319 E29.56238
G1 X142.247 Y188.982 E29.57981
G1 X141.832 Y189.605 E29.59723
G1 X141.353 Y190.179 E29.61464
G1 X140.816 Y190.7 E29.63206
G1 X140.226 Y191.159 E29.64946
G1 X139.59 Y191.554 E29.66689
G1 X138.962 Y191.856 E29.68312
G1 X138.989 Y192.237 E29.69201
G1 X138.989 Y218.235 E30.2973
G1 X138.949 Y218.982 E30.31472
G1 X138.83 Y219.72 E30.33212
G1 X138.632 Y220.442 E30.34955
G1 X138.359 Y221.138 E30.36696
G1 X137.957 Y221.893 E30.38687
G1 X137.9 Y221.986 E30.38941
G1 X137.476 Y222.602 E30.40682
G1 X136.988 Y223.169 E30.42424
G1 X136.443 Y223.681 E30.44165
G1 X135.846 Y224.132 E30.45907
G1 X135.202 Y224.517 E30.47654
G1 X134.903 Y224.675 E30.48441
G1 X134.224 Y224.989 E30.50183
G1 X133.418 Y225.255 E30.52159
G1 X132.777 Y225.424 E30.53702
G1 X132.044 Y225.575 E30.55445
G1 X130.993 Y225.655 E30.57899
G1 X99.296 Y225.659 E31.31696
G1 X98.981 Y225.652 E31.32429
G1 X98.58 Y225.634 E31.33364
G1 X97.836 Y225.561 E31.35104
G1 X97.103 Y225.408 E31.36848
G1 X96.391 Y225.178 E31.3859
G1 X95.708 Y224.874 E31.4033
G1 X95.061 Y224.498 E31.42073
G1 X94.458 Y224.056 E31.43813
G1 X93.836 Y223.481 E31.45785
G1 X93.725 Y223.365 E31.46159
G1 X93.238 Y222.797 E31.47901
G1 X92.814 Y222.181 E31.49642
G1 X92.458 Y221.523 E31.51384
G1 X92.174 Y220.831 E31.53126
G1 X91.965 Y220.113 E31.54867
G1 X91.835 Y219.376 E31.56609
G1 X91.783 Y218.525 E31.58594
G1 X91.784 Y67.252 E35.10789
G1 X91.783 Y16.479 E36.28999
G1 X91.823 Y15.732 E36.30741
G1 X91.942 Y14.993 E36.32484
G0 F3600 X92.342 Y15.037
G1 F1800 X92.54 Y14.338 E36.34175
G1 X92.813 Y13.665 E36.35866
G1 X93.158 Y13.026 E36.37557
G1 X93.572 Y12.429 E36.39248
G1 X94.096 Y11.832 E36.41098
G1 X94.212 Y11.715 E36.41481
G1 X94.751 Y11.228 E36.43173
G1 X95.34 Y10.804 E36.44862
G1 X95.973 Y10.446 E36.46555
G1 X96.641 Y10.16 E36.48247
G1 X97.336 Y9.95 E36.49938
G1 X98.05 Y9.817 E36.51628
G1 X98.864 Y9.762 E36.53528
G1 X102.807 Y9.741 E36.62708
G1 X130.753 Y9.741 E37.27772
G1 X131.478 Y9.781 E37.29463
G1 X132.035 Y9.867 E37.30775
G1 X132.919 Y10.042 E37.32873
G1 X133.622 Y10.222 E37.34563
G1 X134.302 Y10.478 E37.36254
G1 X134.714 Y10.677 E37.3732
G1 X135.01 Y10.833 E37.38099
G1 X135.633 Y11.207 E37.3979
G1 X136.211 Y11.646 E37.4148
G1 X136.738 Y12.147 E37.43173
G1 X137.206 Y12.702 E37.44863
G1 X137.56 Y13.223 E37.4633
G1 X137.617 Y13.316 E37.46584
G1 X137.962 Y13.955 E37.48275
G1 X138.235 Y14.629 E37.49968
G1 X138.432 Y15.328 E37.51658
G1 X138.551 Y16.044 E37.53348
G1 X138.59 Y16.765 E37.55029
G1 X138.59 Y17.9 E37.57672
G1 X138.46 Y63.763 E38.64451
G1 X138.46 Y118.027 E39.90789
G1 X138.589 Y135.955 E40.3253
G1 X138.555 Y136.658 E40.34169
G1 X139.126 Y136.9 E40.35613
G1 X139.76 Y137.255 E40.37304
G1 X140.351 Y137.678 E40.38996
G1 X140.892 Y138.162 E40.40687
G1 X141.377 Y138.704 E40.4238
G1 X141.799 Y139.295 E40.44071
G1 X142.153 Y139.929 E40.45761
G1 X142.436 Y140.598 E40.47452
G1 X142.643 Y141.294 E40.49143
G1 X142.773 Y142.009 E40.50835
G1 X142.824 Y142.828 E40.52745
G1 X142.824 Y185.416 E41.51899
G1 X142.784 Y186.141 E41.5359
G1 X142.665 Y186.858 E41.55282
G1 X142.467 Y187.557 E41.56973
G1 X142.194 Y188.23 E41.58664
G1 X141.849 Y188.869 E41.60355
G1 X141.435 Y189.466 E41.62046
G1 X140.959 Y190.014 E41.63736
G1 X140.425 Y190.507 E41.65428
G1 X139.84 Y190.937 E41.67119
G1 X139.211 Y191.301 E41.68811
G1 X138.549 Y191.593 E41.70495
G1 X138.589 Y192.237 E41.71998
G1 X138.589 Y218.235 E42.32526
G1 X138.549 Y218.96 E42.34217
G1 X138.43 Y219.677 E42.35909
G1 X138.232 Y220.376 E42.37601
G1 X137.959 Y221.049 E42.39291
G1 X137.616 Y221.684 E42.40972
G1 X137.559 Y221.777 E42.41226
G1 X137.146 Y222.374 E42.42916
G1 X136.67 Y222.923 E42.44608
G1 X136.136 Y223.416 E42.463
G1 X135.552 Y223.847 E42.4799
G1 X135.016 Y224.163 E42.49438
G1 X134.717 Y224.321 E42.50226
G1 X134.057 Y224.625 E42.51917
G1 X133.316 Y224.868 E42.53733
G1 X132.675 Y225.037 E42.55276
G1 X131.963 Y225.183 E42.56968
G1 X130.993 Y225.255 E42.59233
G1 X99.296 Y225.259 E43.3303
G1 X98.999 Y225.252 E43.33722
G1 X98.598 Y225.234 E43.34657
G1 X97.875 Y225.162 E43.36348
G1 X97.165 Y225.01 E43.38039
G1 X96.475 Y224.782 E43.39731
G1 X95.815 Y224.479 E43.41421
G1 X95.192 Y224.105 E43.43113
G1 X94.614 Y223.665 E43.44804
G1 X94.125 Y223.204 E43.46369
G1 X94.014 Y223.088 E43.46743
G1 X93.542 Y222.536 E43.48434
G1 X93.133 Y221.936 E43.50124
G1 X92.792 Y221.295 E43.51815
G1 X92.524 Y220.62 E43.53506
G1 X92.332 Y219.919 E43.55198
G1 X92.218 Y219.202 E43.56888
G1 X92.183 Y218.525 E43.58466
G1 X92.184 Y67.252 E47.10662
G1 X92.183 Y16.479 E48.28872
G1 X92.223 Y15.754 E48.30562
G1 X92.342 Y15.037 E48.32255
G0 F3600 X92.742 Y15.082
G1 F1800 X92.94 Y14.407 E48.33892
G1 X93.212 Y13.757 E48.35533
G1 X93.557 Y13.143 E48.37173
G1 X93.968 Y12.573 E48.38809
G1 X94.38 Y12.114 E48.40245
G1 X94.496 Y11.997 E48.40628
G1 X95.019 Y11.526 E48.42267
G1 X95.593 Y11.117 E48.43908
G1 X96.209 Y10.776 E48.45547
G1 X96.859 Y10.507 E48.47185
G1 X97.536 Y10.314 E48.48824
G1 X98.23 Y10.198 E48.50462
G1 X98.866 Y10.162 E48.51945
G1 X102.809 Y10.141 E48.61125
G1 X130.753 Y10.141 E49.26185
G1 X131.456 Y10.181 E49.27824
G1 X131.957 Y10.259 E49.29005
G1 X132.841 Y10.434 E49.31103
G1 X133.523 Y10.61 E49.32743
G1 X134.18 Y10.862 E49.34381
G1 X134.528 Y11.031 E49.35282
G1 X134.824 Y11.187 E49.36061
G1 X135.427 Y11.55 E49.37699
G1 X135.985 Y11.979 E49.39338
G1 X136.491 Y12.469 E49.40978
G1 X136.938 Y13.013 E49.42617
G1 X137.219 Y13.432 E49.43792
G1 X137.276 Y13.525 E49.44046
G1 X137.609 Y14.145 E49.45684
G1 X137.87 Y14.799 E49.47324
G1 X138.055 Y15.478 E49.48962
G1 X138.162 Y16.174 E49.50602
G1 X138.19 Y16.765 E49.51979
G1 X138.19 Y17.899 E49.54619
G1 X138.06 Y63.762 E50.61399
G1 X138.06 Y118.027 E51.87739
G1 X138.189 Y135.958 E52.29487
G1 X138.154 Y136.661 E52.31126
G1 X138.109 Y136.932 E52.31765
G1 X138.484 Y137.055 E52.32684
G1 X139.124 Y137.348 E52.34323
G1 X139.727 Y137.712 E52.35963
G1 X140.284 Y138.142 E52.37601
G1 X140.789 Y138.633 E52.39241
G1 X141.235 Y139.178 E52.40881
G1 X141.617 Y139.769 E52.42519
G1 X141.929 Y140.4 E52.44158
G1 X142.167 Y141.063 E52.45798
G1 X142.329 Y141.748 E52.47437
G1 X142.412 Y142.447 E52.49076
G1 X142.424 Y142.828 E52.49963
G1 X142.424 Y185.416 E53.49117
G1 X142.384 Y186.119 E53.50756
G1 X142.265 Y186.813 E53.52396
G1 X142.067 Y187.488 E53.54033
G1 X141.795 Y188.137 E53.55672
G1 X141.45 Y188.751 E53.57311
G1 X141.039 Y189.322 E53.58949
G1 X140.565 Y189.843 E53.60589
G1 X140.035 Y190.307 E53.62229
G1 X139.456 Y190.707 E53.63868
G1 X138.835 Y191.039 E53.65507
G1 X138.181 Y191.299 E53.67146
G1 X138.111 Y191.318 E53.67315
G1 X138.156 Y191.595 E53.67968
G1 X138.189 Y192.237 E53.69465
G1 X138.189 Y218.235 E54.29993
G1 X138.149 Y218.938 E54.31633
G1 X138.03 Y219.632 E54.33272
G1 X137.832 Y220.307 E54.3491
G1 X137.56 Y220.956 E54.36548
G1 X137.275 Y221.475 E54.37927
G1 X137.218 Y221.568 E54.38181
G1 X136.817 Y222.146 E54.39819
G1 X136.352 Y222.675 E54.41458
G1 X135.831 Y223.148 E54.43097
G1 X135.259 Y223.559 E54.44737
G1 X134.829 Y223.81 E54.45896
G1 X134.53 Y223.968 E54.46683
G1 X133.89 Y224.261 E54.48322
G1 X133.214 Y224.481 E54.49977
G1 X132.573 Y224.65 E54.51521
G1 X131.883 Y224.791 E54.5316
G1 X130.993 Y224.855 E54.55238
G1 X99.296 Y224.859 E55.29035
G1 X99.017 Y224.853 E55.29685
G1 X98.616 Y224.835 E55.30619
G1 X97.916 Y224.763 E55.32257
G1 X97.228 Y224.613 E55.33897
G1 X96.562 Y224.386 E55.35535
