;FLAVOR:Marlin
;TIME:9703
;Filament used: 6.1554m
;Layer height: 0.2
;MINX:21.93
;MINY:74.385
;MINZ:0.2
;MAXX:213.07
;MAXY:159.335
;MAXZ:5.2
;Generated with Cura_SteamEngine 4.1.0
M140 S70
M105
M190 S70
M104 S200
M105
M109 S200
M82 ;absolute extrusion mode
; Ender 3 Custom Start G-code
G28 ; Home all axes
M420 S1
G92 E0 ; Reset Extruder
G1 Z2.0 F3000 ; Move Z Axis up little to prevent scratching of Heat Bed
G1 X0.1 Y20 Z0.3 F5000.0 ; Move to start position
G1 X0.1 Y200.0 Z0.3 F1500.0 E15 ; Draw the first line
G1 X0.4 Y200.0 Z0.3 F5000.0 ; Move to side a little
G1 X0.4 Y20 Z0.3 F1500.0 E30 ; Draw the second line
G92 E0 ; Reset Extruder
G1 Z2.0 F3000 ; Move Z Axis up little to prevent scratching of Heat Bed
G92 E0
G92 E0
G1 F3600 E-6
;LAYER_COUNT:26
;LAYER:0
M107
M204 S500
M205 X10 Y10
G0 F3600 X26.952 Y74.942 Z0.2
;TYPE:SKIRT
G1 F3600 E0
G1 F1800 X27.699 Y74.687 E0.01838
G1 X28.468 Y74.508 E0.03676
G1 X29.252 Y74.408 E0.05516
G1 X29.847 Y74.385 E0.06902
G1 X188.656 Y74.386 E3.76643
G1 X205.153 Y74.385 E4.15051
G1 X205.942 Y74.425 E4.16891
G1 X206.722 Y74.544 E4.18728
G1 X207.487 Y74.742 E4.20568
G1 X208.227 Y75.016 E4.22405
G1 X208.936 Y75.364 E4.24244
G1 X209.607 Y75.782 E4.26084
G1 X210.231 Y76.265 E4.27921
G1 X210.804 Y76.809 E4.29761
G1 X211.319 Y77.407 E4.31598
G1 X211.77 Y78.055 E4.33436
G1 X212.154 Y78.746 E4.35277
G1 X212.466 Y79.471 E4.37115
G1 X212.703 Y80.224 E4.38952
G1 X212.862 Y80.998 E4.40792
G1 X212.953 Y82.171 E4.43531
G1 X213.069 Y145.02 E5.89857
G1 X213.069 Y145.033 E5.89887
G1 X213.07 Y151.417 E6.04751
G1 X213.03 Y152.205 E6.06588
G1 X212.911 Y152.986 E6.08427
G1 X212.713 Y153.751 E6.10267
G1 X212.439 Y154.491 E6.12104
G1 X212.092 Y155.2 E6.13942
G1 X211.674 Y155.871 E6.15782
G1 X211.191 Y156.495 E6.1762
G1 X210.785 Y156.933 E6.1901
G1 X210.668 Y157.05 E6.19395
G1 X210.082 Y157.58 E6.21235
G1 X209.446 Y158.047 E6.23072
G1 X208.766 Y158.448 E6.2491
G1 X208.048 Y158.778 E6.2675
G1 X207.301 Y159.033 E6.28587
G1 X206.532 Y159.212 E6.30426
G1 X205.748 Y159.312 E6.32266
G1 X205.153 Y159.335 E6.33652
G1 X46.344 Y159.334 E10.03393
G1 X29.847 Y159.335 E10.41801
G1 X29.058 Y159.295 E10.4364
G1 X28.278 Y159.176 E10.45477
G1 X27.513 Y158.978 E10.47317
G1 X26.773 Y158.704 E10.49154
G1 X26.064 Y158.356 E10.50993
G1 X25.393 Y157.938 E10.52834
G1 X24.769 Y157.455 E10.54671
G1 X24.332 Y157.05 E10.56058
G1 X24.215 Y156.933 E10.56443
G1 X23.685 Y156.347 E10.58283
G1 X23.218 Y155.711 E10.6012
G1 X22.817 Y155.031 E10.61958
G1 X22.487 Y154.313 E10.63798
G1 X22.232 Y153.566 E10.65635
G1 X22.053 Y152.797 E10.67474
G1 X21.953 Y152.013 E10.69314
G1 X21.93 Y151.418 E10.707
G1 X21.931 Y88.686 E12.16753
G1 X21.93 Y82.303 E12.31614
G1 X21.97 Y81.515 E12.33451
G1 X22.089 Y80.734 E12.35291
G1 X22.287 Y79.969 E12.3713
G1 X22.561 Y79.229 E12.38968
G1 X22.908 Y78.52 E12.40805
G1 X23.326 Y77.849 E12.42646
G1 X23.809 Y77.225 E12.44483
G1 X24.215 Y76.787 E12.45874
G1 X24.332 Y76.67 E12.46259
G1 X24.918 Y76.14 E12.48098
G1 X25.554 Y75.673 E12.49935
G1 X26.234 Y75.272 E12.51773
G1 X26.952 Y74.942 E12.53613
G0 F3600 X27.175 Y75.284
G1 F1800 X27.906 Y75.044 E12.55404
G1 X28.657 Y74.881 E12.57194
G1 X29.422 Y74.797 E12.58985
G1 X29.847 Y74.785 E12.59975
G1 X188.656 Y74.786 E16.29716
G1 X205.153 Y74.785 E16.68124
G1 X205.921 Y74.825 E16.69915
G1 X206.681 Y74.944 E16.71706
G1 X207.424 Y75.142 E16.73496
G1 X208.143 Y75.416 E16.75287
G1 X208.83 Y75.763 E16.77079
G1 X209.476 Y76.179 E16.78868
G1 X210.076 Y76.66 E16.80659
G1 X210.623 Y77.201 E16.8245
G1 X211.111 Y77.796 E16.84242
G1 X211.534 Y78.438 E16.86031
G1 X211.889 Y79.121 E16.87824
G1 X212.17 Y79.837 E16.89614
G1 X212.376 Y80.578 E16.91405
G1 X212.504 Y81.336 E16.93195
G1 X212.553 Y82.171 E16.95142
G1 X212.669 Y145.02 E18.41468
G1 X212.669 Y145.033 E18.41498
G1 X212.67 Y151.417 E18.56362
G1 X212.63 Y152.185 E18.58152
G1 X212.511 Y152.945 E18.59943
G1 X212.313 Y153.688 E18.61733
G1 X212.04 Y154.407 E18.63524
G1 X211.693 Y155.093 E18.65314
G1 X211.276 Y155.74 E18.67106
G1 X210.795 Y156.34 E18.68896
G1 X210.503 Y156.651 E18.6989
G1 X210.386 Y156.768 E18.70275
G1 X209.814 Y157.282 E18.72065
G1 X209.192 Y157.735 E18.73857
G1 X208.527 Y158.121 E18.75647
G1 X207.825 Y158.436 E18.77438
G1 X207.094 Y158.676 E18.7923
G1 X206.343 Y158.839 E18.81019
G1 X205.578 Y158.923 E18.82811
G1 X205.153 Y158.935 E18.838
G1 X46.344 Y158.934 E22.53541
G1 X29.847 Y158.935 E22.9195
G1 X29.079 Y158.895 E22.9374
G1 X28.319 Y158.776 E22.95531
G1 X27.576 Y158.578 E22.97321
G1 X26.857 Y158.304 E22.99113
G1 X26.17 Y157.957 E23.00905
G1 X25.524 Y157.541 E23.02693
G1 X24.924 Y157.06 E23.04484
G1 X24.614 Y156.768 E23.05475
G1 X24.497 Y156.651 E23.05861
G1 X23.983 Y156.079 E23.07651
G1 X23.53 Y155.457 E23.09443
G1 X23.144 Y154.792 E23.11233
G1 X22.829 Y154.09 E23.13024
G1 X22.589 Y153.359 E23.14815
G1 X22.426 Y152.608 E23.16605
G1 X22.342 Y151.843 E23.18396
G1 X22.33 Y151.418 E23.19386
G1 X22.331 Y88.686 E24.6544
G1 X22.33 Y82.303 E24.803
G1 X22.37 Y81.535 E24.82091
G1 X22.489 Y80.775 E24.83882
G1 X22.687 Y80.032 E24.85672
G1 X22.96 Y79.313 E24.87463
G1 X23.307 Y78.627 E24.89253
G1 X23.724 Y77.98 E24.91045
G1 X24.205 Y77.38 E24.92835
G1 X24.497 Y77.069 E24.93828
G1 X24.614 Y76.952 E24.94214
G1 X25.186 Y76.438 E24.96004
G1 X25.808 Y75.985 E24.97796
G1 X26.473 Y75.599 E24.99586
G1 X27.175 Y75.284 E25.01377
G0 F3600 X27.396 Y75.628
G1 F1800 X28.11 Y75.404 E25.03119
G1 X28.843 Y75.257 E25.0486
G1 X29.847 Y75.185 E25.07203
G1 X188.656 Y75.186 E28.76944
G1 X205.153 Y75.185 E29.15352
G1 X205.9 Y75.225 E29.17094
G1 X206.639 Y75.344 E29.18837
G1 X207.36 Y75.542 E29.20578
G1 X208.056 Y75.815 E29.22318
G1 X208.719 Y76.162 E29.24061
G1 X209.342 Y76.577 E29.25803
G1 X209.916 Y77.056 E29.27544
G1 X210.437 Y77.593 E29.29286
G1 X210.896 Y78.183 E29.31026
G1 X211.291 Y78.819 E29.32769
G1 X211.615 Y79.493 E29.3451
G1 X211.865 Y80.198 E29.36252
G1 X212.039 Y80.926 E29.37995
G1 X212.134 Y81.668 E29.39736
G1 X212.153 Y82.172 E29.40911
G1 X212.269 Y145.021 E30.87236
G1 X212.269 Y145.033 E30.87264
G1 X212.27 Y151.417 E31.02128
G1 X212.23 Y152.164 E31.03869
G1 X212.111 Y152.902 E31.0561
G1 X211.913 Y153.624 E31.07353
G1 X211.64 Y154.32 E31.09093
G1 X211.294 Y154.983 E31.10835
G1 X210.879 Y155.606 E31.12577
G1 X210.22 Y156.368 E31.14923
G1 X210.103 Y156.485 E31.15308
G1 X209.546 Y156.985 E31.17051
G1 X208.94 Y157.422 E31.1879
G1 X208.29 Y157.793 E31.20533
G1 X207.604 Y158.092 E31.22275
G1 X206.89 Y158.316 E31.24017
G1 X206.157 Y158.463 E31.25758
G1 X205.153 Y158.535 E31.28101
G1 X46.344 Y158.534 E34.97842
G1 X29.847 Y158.535 E35.3625
G1 X29.1 Y158.495 E35.37992
G1 X28.361 Y158.376 E35.39735
G1 X27.64 Y158.178 E35.41476
G1 X26.944 Y157.905 E35.43216
G1 X26.281 Y157.558 E35.44958
G1 X25.658 Y157.143 E35.46701
G1 X24.897 Y156.485 E35.49044
G1 X24.78 Y156.368 E35.49429
G1 X24.28 Y155.811 E35.51171
G1 X23.843 Y155.205 E35.52911
G1 X23.472 Y154.555 E35.54653
G1 X23.173 Y153.869 E35.56396
G1 X22.949 Y153.155 E35.58138
G1 X22.802 Y152.422 E35.59878
G1 X22.73 Y151.418 E35.62222
G1 X22.731 Y88.686 E37.08275
G1 X22.73 Y82.303 E37.23136
G1 X22.77 Y81.556 E37.24878
G1 X22.889 Y80.818 E37.26618
G1 X23.087 Y80.096 E37.28361
G1 X23.36 Y79.4 E37.30102
G1 X23.706 Y78.737 E37.31843
G1 X24.121 Y78.114 E37.33586
G1 X24.78 Y77.352 E37.35931
G1 X24.897 Y77.235 E37.36317
G1 X25.454 Y76.735 E37.38059
G1 X26.06 Y76.298 E37.39799
G1 X26.71 Y75.927 E37.41541
G1 X27.396 Y75.628 E37.43284
G0 F3600 X27.615 Y75.974
G1 F1800 X28.311 Y75.766 E37.44975
G1 X29.026 Y75.636 E37.46667
G1 X29.847 Y75.585 E37.48582
G1 X188.656 Y75.586 E41.18323
G1 X205.153 Y75.585 E41.56731
G1 X205.878 Y75.625 E41.58422
G1 X206.595 Y75.744 E41.60114
G1 X207.294 Y75.942 E41.61805
G1 X207.967 Y76.215 E41.63496
G1 X208.606 Y76.56 E41.65187
G1 X209.203 Y76.974 E41.66878
G1 X209.751 Y77.45 E41.68568
G1 X210.244 Y77.984 E41.7026
G1 X210.674 Y78.569 E41.71951
G1 X211.038 Y79.198 E41.73643
G1 X211.331 Y79.863 E41.75334
G1 X211.549 Y80.556 E41.77026
G1 X211.689 Y81.268 E41.78715
G1 X211.753 Y82.173 E41.80828
G1 X211.869 Y145.022 E43.27153
G1 X211.869 Y145.033 E43.27179
G1 X211.87 Y151.417 E43.42042
G1 X211.83 Y152.142 E43.43733
G1 X211.711 Y152.859 E43.45425
G1 X211.514 Y153.558 E43.47116
G1 X211.241 Y154.231 E43.48807
G1 X210.895 Y154.87 E43.50499
G1 X210.482 Y155.467 E43.52189
G1 X209.937 Y156.085 E43.54107
G1 X209.82 Y156.202 E43.54492
G1 X209.279 Y156.686 E43.56182
G1 X208.688 Y157.109 E43.57874
G1 X208.054 Y157.463 E43.59565
G1 X207.385 Y157.746 E43.61256
G1 X206.689 Y157.954 E43.62948
G1 X205.974 Y158.084 E43.64639
G1 X205.153 Y158.135 E43.66555
G1 X46.344 Y158.134 E47.36295
G1 X29.847 Y158.135 E47.74704
G1 X29.122 Y158.095 E47.76394
G1 X28.405 Y157.976 E47.78086
G1 X27.706 Y157.778 E47.79778
G1 X27.033 Y157.505 E47.81469
G1 X26.394 Y157.16 E47.83159
G1 X25.797 Y156.746 E47.84851
G1 X25.18 Y156.202 E47.86766
G1 X25.063 Y156.085 E47.87151
G1 X24.579 Y155.544 E47.88841
G1 X24.156 Y154.953 E47.90533
G1 X23.802 Y154.319 E47.92224
G1 X23.519 Y153.65 E47.93915
G1 X23.311 Y152.954 E47.95606
G1 X23.181 Y152.239 E47.97298
G1 X23.13 Y151.418 E47.99214
G1 X23.131 Y88.686 E49.45267
G1 X23.13 Y82.303 E49.60128
G1 X23.17 Y81.578 E49.61818
G1 X23.289 Y80.861 E49.6351
G1 X23.486 Y80.162 E49.65201
G1 X23.759 Y79.489 E49.66892
G1 X24.105 Y78.85 E49.68584
G1 X24.518 Y78.253 E49.70274
G1 X25.063 Y77.635 E49.72192
G1 X25.18 Y77.518 E49.72578
G1 X25.721 Y77.034 E49.74268
G1 X26.312 Y76.611 E49.7596
G1 X26.946 Y76.257 E49.7765
G1 X27.615 Y75.974 E49.79342
G0 F3600 X27.832 Y76.321
G1 F1800 X28.51 Y76.131 E49.80981
G1 X29.205 Y76.018 E49.8262
G1 X29.847 Y75.985 E49.84117
G1 X188.656 Y75.986 E53.53858
G1 X205.153 Y75.985 E53.92266
G1 X205.856 Y76.025 E53.93905
G1 X206.55 Y76.144 E53.95545
G1 X207.225 Y76.342 E53.97183
G1 X207.875 Y76.614 E53.98823
G1 X208.489 Y76.959 E54.00463
G1 X209.059 Y77.37 E54.02099
G1 X209.58 Y77.844 E54.03739
G1 X210.044 Y78.374 E54.05379
G1 X210.444 Y78.953 E54.07017
G1 X210.776 Y79.574 E54.08657
G1 X211.036 Y80.228 E54.10295
G1 X211.22 Y80.908 E54.11935
G1 X211.326 Y81.604 E54.13575
G1 X211.353 Y82.174 E54.14903
G1 X211.469 Y145.023 E55.61229
G1 X211.469 Y145.033 E55.61252
G1 X211.47 Y151.417 E55.76116
G1 X211.43 Y152.12 E55.77755
G1 X211.311 Y152.814 E55.79394
G1 X211.114 Y153.49 E55.81034
G1 X210.841 Y154.139 E55.82673
G1 X210.497 Y154.753 E55.84311
G1 X210.085 Y155.324 E55.85951
G1 X209.654 Y155.802 E55.87449
G1 X209.537 Y155.919 E55.87835
G1 X209.012 Y156.388 E55.89474
G1 X208.437 Y156.794 E55.91112
G1 X207.819 Y157.132 E55.92752
G1 X207.168 Y157.399 E55.94391
G1 X206.49 Y157.589 E55.9603
G1 X205.795 Y157.702 E55.97669
G1 X205.153 Y157.735 E55.99166
G1 X46.344 Y157.734 E59.68906
G1 X29.847 Y157.735 E60.07315
G1 X29.144 Y157.695 E60.08954
G1 X28.45 Y157.576 E60.10594
G1 X27.775 Y157.378 E60.12231
G1 X27.125 Y157.106 E60.13872
G1 X26.511 Y156.761 E60.15512
G1 X25.941 Y156.35 E60.17148
G1 X25.463 Y155.919 E60.18646
G1 X25.346 Y155.802 E60.19031
G1 X24.877 Y155.277 E60.2067
G1 X24.471 Y154.702 E60.22309
G1 X24.133 Y154.084 E60.23949
G1 X23.866 Y153.433 E60.25587
G1 X23.676 Y152.755 E60.27227
G1 X23.563 Y152.06 E60.28866
G1 X23.53 Y151.418 E60.30363
G1 X23.531 Y88.686 E61.76416
G1 X23.53 Y82.303 E61.91277
G1 X23.57 Y81.6 E61.92916
G1 X23.689 Y80.906 E61.94556
G1 X23.886 Y80.23 E61.96195
G1 X24.159 Y79.581 E61.97834
G1 X24.503 Y78.967 E61.99473
G1 X24.915 Y78.396 E62.01112
G1 X25.346 Y77.918 E62.02611
G1 X25.463 Y77.801 E62.02996
G1 X25.988 Y77.332 E62.04635
G1 X26.563 Y76.926 E62.06274
G1 X27.181 Y76.588 E62.07914
G1 X27.832 Y76.321 E62.09552
G0 F3600 X27.413 Y76.92
G1 F1800 X28.047 Y76.671 E62.11138
G1 X28.706 Y76.498 E62.12724
G1 X29.38 Y76.404 E62.14308
G1 X29.847 Y76.385 E62.15397
G1 X188.656 Y76.386 E65.85137
G1 X205.153 Y76.385 E66.23546
G1 X205.833 Y76.425 E66.25132
G1 X206.503 Y76.544 E66.26716
G1 X207.155 Y76.741 E66.28302
G1 X207.779 Y77.014 E66.29888
G1 X208.367 Y77.357 E66.31472
G1 X208.911 Y77.767 E66.33058
G1 X209.402 Y78.238 E66.34642
G1 X209.836 Y78.763 E66.36228
G1 X210.205 Y79.335 E66.37813
G1 X210.504 Y79.947 E66.39399
G1 X210.729 Y80.589 E66.40983
G1 X210.878 Y81.254 E66.42569
G1 X210.953 Y82.174 E66.44719
G1 X211.069 Y145.023 E67.91044
G1 X211.069 Y145.033 E67.91068
G1 X211.07 Y151.417 E68.05931
G1 X211.03 Y152.097 E68.07517
G1 X210.911 Y152.767 E68.09101
G1 X210.714 Y153.419 E68.10687
G1 X210.442 Y154.043 E68.12272
G1 X210.099 Y154.631 E68.13857
G1 X209.689 Y155.175 E68.15443
G1 X209.371 Y155.519 E68.16533
G1 X209.254 Y155.636 E68.16919
G1 X208.745 Y156.089 E68.18505
G1 X208.187 Y156.478 E68.20089
G1 X207.587 Y156.8 E68.21674
G1 X206.953 Y157.049 E68.2326
G1 X206.294 Y157.222 E68.24846
G1 X205.62 Y157.316 E68.26431
G1 X205.153 Y157.335 E68.27519
G1 X46.344 Y157.334 E71.97259
G1 X29.847 Y157.335 E72.35668
G1 X29.167 Y157.295 E72.37254
G1 X28.497 Y157.176 E72.38838
G1 X27.845 Y156.979 E72.40424
G1 X27.221 Y156.706 E72.4201
G1 X26.633 Y156.363 E72.43594
G1 X26.089 Y155.953 E72.4518
G1 X25.746 Y155.636 E72.46268
G1 X25.629 Y155.519 E72.46653
G1 X25.176 Y155.01 E72.48239
G1 X24.787 Y154.452 E72.49823
G1 X24.465 Y153.852 E72.51409
G1 X24.216 Y153.218 E72.52994
G1 X24.043 Y152.559 E72.54581
G1 X23.949 Y151.885 E72.56165
G1 X23.93 Y151.418 E72.57253
G1 X23.931 Y88.686 E74.03306
G1 X23.93 Y82.303 E74.18167
G1 X23.97 Y81.623 E74.19753
G1 X24.089 Y80.953 E74.21338
G1 X24.286 Y80.301 E74.22923
G1 X24.558 Y79.677 E74.24508
G1 X24.901 Y79.089 E74.26093
G1 X25.311 Y78.545 E74.27679
G1 X25.629 Y78.201 E74.2877
G1 X25.746 Y78.084 E74.29155
G1 X26.255 Y77.631 E74.30741
G1 X26.813 Y77.242 E74.32325
G1 X27.413 Y76.92 E74.33911
G0 F3600 X27.644 Y77.255
G1 F1800 X28.259 Y77.024 E74.3544
G1 X28.898 Y76.869 E74.36971
G1 X29.847 Y76.785 E74.39189
G1 X188.656 Y76.786 E78.0893
G1 X205.153 Y76.785 E78.47338
G1 X205.809 Y76.825 E78.48868
G1 X206.455 Y76.944 E78.50398
G1 X207.082 Y77.141 E78.51928
G1 X207.68 Y77.413 E78.53457
G1 X208.241 Y77.755 E78.54987
G1 X208.756 Y78.163 E78.56517
G1 X209.218 Y78.63 E78.58046
G1 X209.619 Y79.15 E78.59575
G1 X209.955 Y79.715 E78.61105
G1 X210.219 Y80.316 E78.62634
G1 X210.409 Y80.945 E78.64163
G1 X210.52 Y81.592 E78.65692
G1 X210.553 Y82.175 E78.67051
G1 X210.669 Y145.024 E80.13377
G1 X210.669 Y145.033 E80.13398
G1 X210.67 Y151.417 E80.28261
G1 X210.63 Y152.073 E80.29792
G1 X210.511 Y152.719 E80.31321
G1 X210.314 Y153.346 E80.32851
G1 X210.043 Y153.944 E80.3438
G1 X209.701 Y154.505 E80.35909
G1 X209.088 Y155.236 E80.3813
G1 X208.971 Y155.353 E80.38516
G1 X208.479 Y155.789 E80.40046
G1 X207.938 Y156.161 E80.41575
G1 X207.356 Y156.465 E80.43104
G1 X206.741 Y156.696 E80.44633
G1 X206.102 Y156.851 E80.46164
G1 X205.153 Y156.935 E80.48382
G1 X46.344 Y156.934 E84.18123
G1 X29.847 Y156.935 E84.56531
G1 X29.191 Y156.895 E84.58061
G1 X28.545 Y156.776 E84.59591
G1 X27.918 Y156.579 E84.61121
G1 X27.32 Y156.307 E84.6265
G1 X26.759 Y155.965 E84.6418
G1 X26.029 Y155.353 E84.66398
G1 X25.912 Y155.236 E84.66783
G1 X25.476 Y154.744 E84.68314
G1 X25.104 Y154.203 E84.69842
G1 X24.8 Y153.621 E84.71371
G1 X24.569 Y153.006 E84.729
G1 X24.414 Y152.367 E84.74431
G1 X24.33 Y151.418 E84.76649
G1 X24.331 Y88.686 E86.22703
G1 X24.33 Y82.302 E86.37566
G1 X24.37 Y81.646 E86.39096
G1 X24.489 Y81 E86.40625
G1 X24.686 Y80.373 E86.42156
G1 X24.958 Y79.775 E86.43685
G1 X25.3 Y79.214 E86.45215
G1 X25.912 Y78.484 E86.47433
G1 X26.029 Y78.367 E86.47818
G1 X26.521 Y77.931 E86.49348
G1 X27.062 Y77.559 E86.50877
G1 X27.644 Y77.255 E86.52406
G0 F3600 X27.873 Y77.591
G1 F1800 X28.468 Y77.379 E86.53876
G1 X29.086 Y77.243 E86.5535
G1 X29.847 Y77.185 E86.57127
G1 X188.656 Y77.186 E90.26867
G1 X205.153 Y77.185 E90.65276
G1 X205.784 Y77.225 E90.66748
G1 X206.405 Y77.344 E90.6822
G1 X207.005 Y77.541 E90.6969
G1 X207.577 Y77.812 E90.71164
G1 X208.109 Y78.152 E90.72634
G1 X208.594 Y78.558 E90.74106
G1 X209.024 Y79.021 E90.75577
G1 X209.393 Y79.535 E90.77051
G1 X209.693 Y80.091 E90.78521
G1 X209.921 Y80.68 E90.79992
G1 X210.073 Y81.294 E90.81465
G1 X210.153 Y82.176 E90.83527
G1 X210.269 Y145.025 E92.29852
G1 X210.269 Y145.033 E92.29871
G1 X210.27 Y151.417 E92.44734
G1 X210.23 Y152.048 E92.46206
