;FLAVOR:Marlin
;TIME:11173
;Filament used: 8.45467m
;Layer height: 0.2
;MINX:90.983
;MINY:8.249
;MINZ:0.2
;MAXX:144.024
;MAXY:226.677
;MAXZ:22.6
;Generated with Cura_SteamEngine 4.1.0
M140 S60
M105
M190 S60
M104 S210
M105
M109 S210
M82 ;absolute extrusion mode
; Ender 3 Custom Start G-code
G28 ; Home all axes
M420 S1
G92 E0 ; Reset Extruder
G1 Z2.0 F3000 ; Move Z Axis up little to prevent scratching of Heat Bed
G1 X0.1 Y20 Z0.3 F5000.0 ; Move to start position
G1 X0.1 Y200.0 Z0.3 F1500.0 E15 ; Draw the first line
G1 X0.4 Y200.0 Z0.3 F5000.0 ; Move to side a little
G1 X0.4 Y20 Z0.3 F1500.0 E30 ; Draw the second line
G92 E0 ; Reset Extruder
G1 Z2.0 F3000 ; Move Z Axis up little to prevent scratching of Heat Bed
G92 E0
G92 E0
G1 F3600 E-6
;LAYER_COUNT:113
;LAYER:0
M107
M204 S500
M205 X10 Y10
G0 F3600 X91.142 Y14.91 Z0.2
;TYPE:SKIRT
G1 F3600 E0
G1 F1800 X91.34 Y14.145 E0.02365
G1 X91.614 Y13.405 E0.04728
G1 X91.962 Y12.696 E0.07092
G1 X92.38 Y12.025 E0.09458
G1 X92.863 Y11.401 E0.1182
G1 X93.244 Y10.987 E0.13504
G1 X93.36 Y10.87 E0.13998
G1 X93.944 Y10.338 E0.16362
G1 X94.578 Y9.868 E0.18725
G1 X95.257 Y9.465 E0.21088
G1 X95.973 Y9.132 E0.23452
G1 X96.719 Y8.873 E0.25816
G1 X97.487 Y8.691 E0.28179
G1 X98.27 Y8.587 E0.30543
G1 X98.857 Y8.562 E0.32302
G1 X102.8 Y8.541 E0.44105
G1 X130.756 Y8.541 E1.27789
G1 X130.969 Y8.489 E1.28445
G1 X131.506 Y8.406 E1.30072
G1 X131.839 Y8.366 E1.31076
G1 X132.276 Y8.335 E1.32387
G1 X132.373 Y8.317 E1.32682
G1 X133.16 Y8.249 E1.35047
G1 X133.949 Y8.261 E1.37409
G1 X134.734 Y8.352 E1.39775
G1 X135.505 Y8.523 E1.42139
G1 X136.129 Y8.729 E1.44106
G1 X136.394 Y8.792 E1.44921
G1 X136.779 Y8.916 E1.46132
G1 X137.055 Y9.013 E1.47007
G1 X137.786 Y9.312 E1.49372
G1 X138.483 Y9.684 E1.51737
G1 X139.139 Y10.124 E1.54101
G1 X139.746 Y10.628 E1.56463
G1 X140.3 Y11.191 E1.58827
G1 X140.794 Y11.807 E1.61191
G1 X141.365 Y12.727 E1.64432
G1 X141.532 Y13.043 E1.65502
G1 X141.865 Y13.759 E1.67866
G1 X142.124 Y14.505 E1.70229
G1 X142.307 Y15.274 E1.72596
G1 X142.41 Y16.057 E1.7496
G1 X142.436 Y16.654 E1.76749
G1 X142.446 Y18.95 E1.83621
G1 X142.446 Y18.999 E1.83768
G1 X142.441 Y21.551 E1.91407
G1 X142.399 Y22.34 E1.93772
G1 X142.278 Y23.12 E1.96135
G1 X142.209 Y23.386 E1.96958
G1 X142.222 Y31.13 E2.20139
G1 X142.222 Y31.158 E2.20223
G1 X142.217 Y33.773 E2.2805
G1 X142.176 Y34.562 E2.30415
G1 X142.054 Y35.342 E2.32779
G1 X141.985 Y35.608 E2.33601
G1 X141.986 Y36.425 E2.36047
G1 X141.986 Y36.45 E2.36122
G1 X141.977 Y42.319 E2.5369
G1 X141.977 Y90.071 E3.96632
G1 X141.976 Y112.248 E4.63016
G1 X141.987 Y116.328 E4.7523
G1 X141.987 Y116.369 E4.75352
G1 X141.984 Y117.494 E4.7872
G1 X142.015 Y117.602 E4.79056
G1 X142.155 Y118.379 E4.8142
G1 X142.217 Y119.35 E4.84332
G1 X142.221 Y121.627 E4.91148
G1 X142.221 Y121.654 E4.91229
G1 X142.208 Y129.529 E5.14802
G1 X142.243 Y129.654 E5.15191
G1 X142.38 Y130.432 E5.17555
G1 X142.44 Y131.386 E5.20417
G1 X142.443 Y133.813 E5.27682
G1 X142.469 Y133.921 E5.28014
G1 X142.573 Y134.703 E5.30376
G1 X142.599 Y135.348 E5.32308
G1 X142.598 Y136.178 E5.34793
G1 X142.557 Y136.967 E5.37158
G1 X142.437 Y137.747 E5.3952
G1 X142.364 Y138.029 E5.40392
G1 X142.718 Y138.507 E5.42172
G1 X143.121 Y139.185 E5.44533
G1 X143.454 Y139.901 E5.46897
G1 X143.713 Y140.647 E5.49261
G1 X143.895 Y141.416 E5.51627
G1 X143.999 Y142.199 E5.53991
G1 X144.024 Y142.828 E5.55875
G1 X144.023 Y185.415 E6.83356
G1 X143.983 Y186.204 E6.85721
G1 X143.863 Y186.984 E6.88083
G1 X143.666 Y187.749 E6.90448
G1 X143.391 Y188.49 E6.92814
G1 X143.044 Y189.199 E6.95176
G1 X142.626 Y189.869 E6.9754
G1 X142.365 Y190.206 E6.98816
G1 X142.437 Y190.484 E6.99676
G1 X142.556 Y191.264 E7.02038
G1 X142.59 Y191.739 E7.03463
G1 X142.616 Y192.384 E7.05396
G1 X142.622 Y192.698 E7.06336
G1 X142.622 Y192.861 E7.06824
G1 X142.582 Y193.65 E7.09188
G1 X142.463 Y194.43 E7.1155
G1 X142.428 Y194.567 E7.11974
G1 X142.402 Y195.072 E7.13487
G1 X142.283 Y195.852 E7.15849
G1 X142.221 Y196.092 E7.16591
G1 X142.221 Y203.047 E7.3741
G1 X142.209 Y210.796 E7.60606
G1 X142.246 Y210.929 E7.6102
G1 X142.383 Y211.707 E7.63384
G1 X142.442 Y212.665 E7.66257
G1 X142.442 Y218.281 E7.83068
G1 X142.402 Y219.07 E7.85433
G1 X142.283 Y219.85 E7.87795
G1 X142.085 Y220.615 E7.9016
G1 X141.716 Y221.567 E7.93217
G1 X141.552 Y221.92 E7.94382
G1 X141.183 Y222.619 E7.96748
G1 X140.746 Y223.276 E7.9911
G1 X140.244 Y223.886 E8.01475
G1 X139.684 Y224.443 E8.03839
G1 X139.07 Y224.939 E8.06202
G1 X138.409 Y225.371 E8.08566
G1 X137.707 Y225.734 E8.10931
G1 X137.325 Y225.885 E8.12161
G1 X137.038 Y226.018 E8.13108
G1 X136.292 Y226.276 E8.15471
G1 X135.523 Y226.458 E8.17836
G1 X135.07 Y226.517 E8.19204
G1 X134.95 Y226.544 E8.19572
G1 X134.166 Y226.639 E8.21936
G1 X133.29 Y226.65 E8.24558
G1 X132.725 Y226.677 E8.26251
G1 X132.184 Y226.657 E8.27872
G1 X131.876 Y226.635 E8.28796
G1 X131.092 Y226.539 E8.31161
G1 X130.723 Y226.455 E8.32293
G1 X99.296 Y226.459 E9.26367
G1 X98.945 Y226.451 E9.27418
G1 X98.544 Y226.433 E9.2862
G1 X97.758 Y226.358 E9.30983
G1 X96.984 Y226.203 E9.33346
G1 X96.229 Y225.972 E9.3571
G1 X95.501 Y225.664 E9.38076
G1 X94.809 Y225.285 E9.40438
G1 X94.158 Y224.838 E9.42802
G1 X93.555 Y224.328 E9.45166
G1 X93.258 Y224.034 E9.46417
G1 X93.147 Y223.918 E9.46897
G1 X92.631 Y223.32 E9.49262
G1 X92.178 Y222.674 E9.51623
G1 X91.792 Y221.984 E9.5399
G1 X91.478 Y221.26 E9.56352
G1 X91.239 Y220.507 E9.58717
G1 X91.077 Y219.734 E9.61081
G1 X90.995 Y218.949 E9.63444
G1 X90.983 Y218.525 E9.64714
G1 X90.984 Y67.252 E14.17536
G1 X90.983 Y16.479 E15.69521
G1 X91.023 Y15.69 E15.71886
G1 X91.142 Y14.91 E15.74247
G0 F3600 X91.542 Y14.951
G1 F1800 X91.74 Y14.208 E15.76549
G1 X92.014 Y13.489 E15.78852
G1 X92.361 Y12.802 E15.81156
G1 X92.777 Y12.156 E15.83456
G1 X93.258 Y11.556 E15.85758
G1 X93.528 Y11.269 E15.86938
G1 X93.644 Y11.152 E15.87431
G1 X94.213 Y10.635 E15.89732
G1 X94.833 Y10.179 E15.92036
G1 X95.497 Y9.79 E15.9434
G1 X96.197 Y9.473 E15.9664
G1 X96.927 Y9.23 E15.98943
G1 X97.678 Y9.063 E16.01246
G1 X98.442 Y8.976 E16.03548
G1 X98.86 Y8.962 E16.048
G1 X102.803 Y8.941 E16.16603
G1 X130.753 Y8.941 E17.00269
G1 X130.786 Y8.943 E17.00368
G1 X131.553 Y8.803 E17.02702
G1 X131.886 Y8.763 E17.03706
G1 X132.35 Y8.732 E17.05098
G1 X132.527 Y8.7 E17.05636
G1 X133.294 Y8.645 E17.07938
G1 X134.063 Y8.67 E17.10241
G1 X134.825 Y8.775 E17.12544
G1 X135.572 Y8.958 E17.14846
G1 X136.071 Y9.137 E17.16433
G1 X136.647 Y9.294 E17.1822
G1 X136.923 Y9.391 E17.19095
G1 X137.634 Y9.683 E17.21396
G1 X138.311 Y10.048 E17.23699
G1 X138.947 Y10.481 E17.26002
G1 X139.534 Y10.977 E17.28302
G1 X140.067 Y11.532 E17.30606
G1 X140.539 Y12.139 E17.32907
G1 X141.012 Y12.914 E17.35625
G1 X141.179 Y13.23 E17.36695
G1 X141.502 Y13.928 E17.38997
G1 X141.751 Y14.656 E17.413
G1 X141.924 Y15.405 E17.43602
G1 X142.018 Y16.169 E17.45906
G1 X142.036 Y16.656 E17.47365
G1 X142.046 Y18.952 E17.54237
G1 X142.046 Y18.998 E17.54375
G1 X142.041 Y21.55 E17.62014
G1 X142 Y22.319 E17.6432
G1 X141.879 Y23.078 E17.6662
G1 X141.809 Y23.34 E17.67432
G1 X141.822 Y31.13 E17.90751
G1 X141.822 Y31.157 E17.90832
G1 X141.817 Y33.772 E17.98659
G1 X141.776 Y34.54 E18.00962
G1 X141.655 Y35.3 E18.03265
G1 X141.585 Y35.562 E18.04077
G1 X141.586 Y36.425 E18.0666
G1 X141.586 Y36.449 E18.06732
G1 X141.577 Y42.318 E18.24301
G1 X141.577 Y90.071 E19.67245
G1 X141.576 Y112.248 E20.3363
G1 X141.587 Y116.329 E20.45846
G1 X141.587 Y116.368 E20.45963
G1 X141.584 Y117.555 E20.49516
G1 X141.643 Y117.77 E20.50183
G1 X141.77 Y118.529 E20.52487
G1 X141.817 Y119.351 E20.54951
G1 X141.821 Y121.628 E20.61767
G1 X141.821 Y121.654 E20.61845
G1 X141.808 Y129.593 E20.8561
G1 X141.87 Y129.822 E20.8632
G1 X141.995 Y130.581 E20.88623
G1 X142.04 Y131.387 E20.91039
G1 X142.043 Y133.867 E20.98463
G1 X142.09 Y134.072 E20.99093
G1 X142.182 Y134.836 E21.01396
G1 X142.199 Y135.348 E21.02929
G1 X142.198 Y136.178 E21.05414
G1 X142.157 Y136.946 E21.07716
G1 X142.037 Y137.706 E21.10019
G1 X141.925 Y138.125 E21.11318
G1 X142.112 Y138.346 E21.12184
G1 X142.546 Y138.981 E21.14487
G1 X142.911 Y139.658 E21.16789
G1 X143.204 Y140.369 E21.19091
G1 X143.421 Y141.107 E21.21394
G1 X143.561 Y141.863 E21.23695
G1 X143.624 Y142.828 E21.2659
G1 X143.623 Y185.415 E22.5407
G1 X143.583 Y186.183 E22.56372
G1 X143.464 Y186.943 E22.58675
G1 X143.266 Y187.686 E22.60977
G1 X142.992 Y188.405 E22.6328
G1 X142.645 Y189.092 E22.65584
G1 X142.229 Y189.738 E22.67884
G1 X141.929 Y190.111 E22.69317
G1 X142.068 Y190.682 E22.71076
G1 X142.19 Y191.755 E22.74309
G1 X142.216 Y192.4 E22.76241
G1 X142.222 Y192.698 E22.77133
G1 X142.222 Y192.861 E22.77621
G1 X142.182 Y193.629 E22.79923
G1 X142.063 Y194.389 E22.82226
G1 X142.03 Y194.513 E22.8261
G1 X142.002 Y195.051 E22.84223
G1 X141.883 Y195.811 E22.86525
G1 X141.821 Y196.044 E22.87247
G1 X141.821 Y203.046 E23.08207
G1 X141.808 Y210.855 E23.31582
G1 X141.874 Y211.096 E23.3233
G1 X141.998 Y211.856 E23.34636
G1 X142.042 Y212.665 E23.37061
G1 X142.042 Y218.281 E23.53872
G1 X142.002 Y219.049 E23.56174
G1 X141.883 Y219.809 E23.58477
G1 X141.685 Y220.552 E23.60778
G1 X141.353 Y221.399 E23.63501
G1 X141.189 Y221.752 E23.64667
G1 X140.829 Y222.432 E23.6697
G1 X140.401 Y223.07 E23.6927
G1 X139.908 Y223.661 E23.71573
G1 X139.357 Y224.198 E23.73876
G1 X138.753 Y224.674 E23.76178
G1 X138.103 Y225.085 E23.78481
G1 X137.414 Y225.427 E23.80783
G1 X137.145 Y225.527 E23.81642
G1 X136.851 Y225.662 E23.82611
G1 X136.123 Y225.909 E23.84912
G1 X135.372 Y226.078 E23.87216
G1 X134.998 Y226.123 E23.88344
G1 X134.862 Y226.153 E23.88761
G1 X134.098 Y226.243 E23.91063
G1 X133.292 Y226.251 E23.93476
G1 X133.274 Y226.25 E23.9353
G1 X132.686 Y226.277 E23.95292
G1 X132.213 Y226.258 E23.96709
G1 X131.905 Y226.236 E23.97633
G1 X131.141 Y226.142 E23.99938
G1 X130.767 Y226.055 E24.01087
G1 X99.296 Y226.059 E24.95293
G1 X98.963 Y226.052 E24.9629
G1 X98.562 Y226.034 E24.97491
G1 X97.797 Y225.959 E24.99792
G1 X97.043 Y225.806 E25.02095
G1 X96.309 Y225.575 E25.04399
G1 X95.603 Y225.269 E25.06702
G1 X94.933 Y224.892 E25.09003
G1 X94.306 Y224.447 E25.11305
G1 X93.547 Y223.757 E25.14375
G1 X93.436 Y223.641 E25.14856
G1 X92.934 Y223.058 E25.17159
G1 X92.495 Y222.427 E25.1946
G1 X92.124 Y221.753 E25.21763
G1 X91.825 Y221.045 E25.24064
G1 X91.601 Y220.309 E25.26366
G1 X91.455 Y219.554 E25.28668
G1 X91.383 Y218.525 E25.31756
G1 X91.384 Y67.252 E29.84579
G1 X91.383 Y16.479 E31.36563
G1 X91.423 Y15.711 E31.38865
G1 X91.542 Y14.951 E31.41168
G0 F3600 X91.942 Y14.993
G1 F1800 X92.14 Y14.272 E31.43406
G1 X92.413 Y13.576 E31.45644
G1 X92.76 Y12.913 E31.47884
G1 X93.175 Y12.29 E31.50125
G1 X93.812 Y11.551 E31.53045
G1 X93.928 Y11.434 E31.53538
G1 X94.482 Y10.931 E31.55778
G1 X95.087 Y10.491 E31.58018
G1 X95.735 Y10.118 E31.60256
G1 X96.42 Y9.816 E31.62497
G1 X97.133 Y9.589 E31.64737
G1 X97.865 Y9.439 E31.66973
G1 X98.862 Y9.362 E31.69967
G1 X102.805 Y9.341 E31.8177
G1 X130.753 Y9.341 E32.6543
G1 X130.836 Y9.345 E32.65678
G1 X131.12 Y9.275 E32.66554
G1 X131.601 Y9.2 E32.68011
G1 X131.934 Y9.16 E32.69015
G1 X132.412 Y9.129 E32.70449
G1 X132.678 Y9.085 E32.71256
G1 X133.425 Y9.044 E32.73496
G1 X134.172 Y9.082 E32.75735
G1 X134.911 Y9.2 E32.77975
G1 X135.633 Y9.397 E32.80215
G1 X135.86 Y9.49 E32.80949
G1 X136.514 Y9.671 E32.82981
G1 X136.79 Y9.768 E32.83856
G1 X137.481 Y10.053 E32.86094
G1 X138.139 Y10.411 E32.88336
G1 X138.754 Y10.837 E32.90576
G1 X139.32 Y11.325 E32.92813
G1 X139.831 Y11.872 E32.95053
G1 X140.28 Y12.47 E32.97292
G1 X140.658 Y13.101 E32.99494
G1 X140.825 Y13.417 E33.00564
G1 X141.139 Y14.096 E33.02803
G1 X141.378 Y14.805 E33.05043
G1 X141.54 Y15.535 E33.07281
G1 X141.624 Y16.279 E33.09522
G1 X141.636 Y16.658 E33.10657
G1 X141.646 Y18.954 E33.1753
G1 X141.646 Y18.998 E33.17662
G1 X141.641 Y21.55 E33.25301
G1 X141.6 Y22.297 E33.2754
G1 X141.479 Y23.035 E33.29779
G1 X141.408 Y23.29 E33.30571
G1 X141.422 Y31.131 E33.54043
G1 X141.422 Y31.156 E33.54118
G1 X141.417 Y33.771 E33.61945
G1 X141.376 Y34.518 E33.64185
G1 X141.255 Y35.257 E33.66427
G1 X141.184 Y35.513 E33.67222
G1 X141.186 Y36.426 E33.69955
G1 X141.186 Y36.449 E33.70024
G1 X141.177 Y42.318 E33.87592
G1 X141.177 Y90.071 E35.30536
G1 X141.176 Y112.248 E35.96921
G1 X141.187 Y116.33 E36.0914
G1 X141.187 Y116.367 E36.09251
G1 X141.184 Y117.612 E36.12978
G1 X141.27 Y117.937 E36.13984
G1 X141.383 Y118.676 E36.16222
G1 X141.417 Y119.352 E36.18248
G1 X141.421 Y121.629 E36.25064
G1 X141.421 Y121.653 E36.25136
G1 X141.407 Y129.646 E36.49063
G1 X141.497 Y129.987 E36.50118
G1 X141.608 Y130.727 E36.52358
G1 X141.64 Y131.388 E36.54339
G1 X141.643 Y133.917 E36.61909
G1 X141.709 Y134.221 E36.62841
G1 X141.789 Y134.965 E36.65081
G1 X141.799 Y135.347 E36.66224
G1 X141.798 Y136.177 E36.68709
G1 X141.757 Y136.924 E36.70948
G1 X141.637 Y137.663 E36.7319
G1 X141.485 Y138.213 E36.74898
G1 X141.503 Y138.231 E36.74974
G1 X141.963 Y138.82 E36.77211
G1 X142.358 Y139.455 E36.79449
G1 X142.683 Y140.129 E36.81689
G1 X142.934 Y140.834 E36.83929
G1 X143.108 Y141.561 E36.86167
G1 X143.204 Y142.303 E36.88407
G1 X143.224 Y142.828 E36.89979
G1 X143.223 Y185.415 E38.1746
G1 X143.183 Y186.162 E38.19699
G1 X143.064 Y186.901 E38.2194
G1 X142.866 Y187.622 E38.24178
G1 X142.592 Y188.318 E38.26417
G1 X142.246 Y188.982 E38.28658
G1 X141.831 Y189.604 E38.30897
G1 X141.487 Y190.016 E38.32503
G1 X141.532 Y190.147 E38.32918
G1 X141.697 Y190.877 E38.35158
G1 X141.79 Y191.771 E38.37849
G1 X141.816 Y192.416 E38.39781
G1 X141.822 Y192.698 E38.40625
G1 X141.822 Y192.861 E38.41113
G1 X141.782 Y193.608 E38.43353
G1 X141.663 Y194.346 E38.4559
G1 X141.633 Y194.456 E38.45932
G1 X141.602 Y195.03 E38.47652
G1 X141.483 Y195.768 E38.4989
G1 X141.421 Y195.994 E38.50591
G1 X141.421 Y203.045 E38.71698
G1 X141.408 Y210.911 E38.95244
G1 X141.5 Y211.262 E38.9633
G1 X141.61 Y212.001 E38.98567
G1 X141.642 Y212.665 E39.00557
G1 X141.642 Y218.281 E39.17368
G1 X141.602 Y219.028 E39.19607
G1 X141.483 Y219.766 E39.21845
G1 X141.285 Y220.488 E39.24086
G1 X140.99 Y221.23 E39.26476
G1 X140.826 Y221.583 E39.27641
G1 X140.475 Y222.244 E39.29881
G1 X140.056 Y222.863 E39.32119
G1 X139.573 Y223.434 E39.34358
G1 X139.031 Y223.951 E39.366
G1 X138.438 Y224.406 E39.38837
G1 X137.799 Y224.796 E39.41078
G1 X137.123 Y225.115 E39.43316
G1 X136.963 Y225.171 E39.43823
G1 X136.665 Y225.305 E39.44801
G1 X135.955 Y225.54 E39.4704
G1 X135.224 Y225.697 E39.49278
G1 X134.931 Y225.728 E39.5016
G1 X134.775 Y225.763 E39.50639
G1 X134.032 Y225.846 E39.52877
G1 X133.31 Y225.851 E39.55038
G1 X133.291 Y225.85 E39.55095
G1 X132.648 Y225.876 E39.57021
G1 X132.241 Y225.859 E39.58241
G1 X131.933 Y225.837 E39.59165
G1 X131.191 Y225.744 E39.61403
G1 X130.814 Y225.655 E39.62563
G1 X99.296 Y225.659 E40.56909
G1 X98.981 Y225.652 E40.57852
G1 X98.58 Y225.634 E40.59054
G1 X97.836 Y225.561 E40.61292
G1 X97.103 Y225.408 E40.63533
G1 X96.391 Y225.178 E40.65773
G1 X95.708 Y224.874 E40.68011
G1 X95.061 Y224.498 E40.70251
G1 X94.458 Y224.056 E40.72489
G1 X93.836 Y223.481 E40.75024
G1 X93.725 Y223.365 E40.75505
G1 X93.238 Y222.797 E40.77745
G1 X92.814 Y222.181 E40.79983
G1 X92.458 Y221.523 E40.82223
G1 X92.174 Y220.831 E40.84462
G1 X91.965 Y220.113 E40.867
G1 X91.835 Y219.376 E40.8894
G1 X91.783 Y218.525 E40.91493
G1 X91.784 Y67.252 E45.44315
G1 X91.783 Y16.479 E46.963
G1 X91.823 Y15.732 E46.98539
G1 X91.942 Y14.993 E47.00779
G0 F3600 X92.342 Y15.037
G1 F1800 X92.54 Y14.338 E47.02954
G1 X92.813 Y13.665 E47.05128
G1 X93.158 Y13.026 E47.07302
G1 X93.572 Y12.429 E47.09477
G1 X94.096 Y11.832 E47.11855
G1 X94.212 Y11.715 E47.12348
G1 X94.751 Y11.228 E47.14522
G1 X95.34 Y10.804 E47.16695
G1 X95.973 Y10.446 E47.18872
G1 X96.641 Y10.16 E47.21047
G1 X97.336 Y9.95 E47.2322
G1 X98.05 Y9.817 E47.25394
G1 X98.864 Y9.762 E47.27836
G1 X102.807 Y9.741 E47.39639
G1 X130.753 Y9.741 E48.23293
G1 X130.843 Y9.746 E48.23563
G1 X130.856 Y9.742 E48.23604
G1 X131.649 Y9.597 E48.26017
G1 X131.982 Y9.557 E48.27021
G1 X132.472 Y9.525 E48.28491
G1 X132.826 Y9.472 E48.29562
G1 X133.552 Y9.445 E48.31737
G1 X134.277 Y9.497 E48.33913
G1 X134.991 Y9.629 E48.36086
G1 X135.687 Y9.838 E48.38262
G1 X135.788 Y9.881 E48.3859
G1 X136.381 Y10.048 E48.40434
G1 X136.657 Y10.145 E48.4131
