;FLAVOR:Marlin
;TIME:7674
;Filament used: 6.56637m
;Layer height: 0.2
;Generated with Cura_SteamEngine 4.0.0
M140 S60
M105
M190 S60
M104 S210
M105
M109 S210
M82 ;absolute extrusion mode
; Ender 3 Custom Start G-code
G28 ; Home all axes
G92 E0 ; Reset Extruder
G1 Z2.0 F3000 ; Move Z Axis up little to prevent scratching of Heat Bed
G1 X0.1 Y20 Z0.3 F5000.0 ; Move to start position
G1 X0.1 Y200.0 Z0.3 F1500.0 E15 ; Draw the first line
G1 X0.4 Y200.0 Z0.3 F5000.0 ; Move to side a little
G1 X0.4 Y20 Z0.3 F1500.0 E30 ; Draw the second line
G92 E0 ; Reset Extruder
G1 Z2.0 F3000 ; Move Z Axis up little to prevent scratching of Heat Bed
; End of custom start GCode
G92 E0
G1 F3600 E-6
;LAYER_COUNT:114
;LAYER:0
M107
M204 S5000
M205 X30 Y30
;MESH:80e5efde-b49c-4542-aa9f-4f82bc43104c.stl
G0 F2400 X91.98 Y99.055 Z0.2
M204 S500
M205 X20 Y20
;TYPE:WALL-INNER
G1 F3600 E0
G1 F1200 X34.78 Y99.055 E1.80736
G1 X34.78 Y124.205 E2.60202
G1 X34.5 Y124.221 E2.61089
G1 X23.387 Y124.221 E2.96202
G1 X21.8 Y124.215 E3.01217
G1 X20.331 Y124.22 E3.05859
G1 X9.493 Y124.175 E3.40104
G1 X9.441 Y123.768 E3.414
G1 X9.441 Y92.214 E4.41102
G1 X210.559 Y92.214 E10.76577
G1 X210.559 Y123.77 E11.76285
G1 X210.508 Y124.175 E11.77575
G1 X199.08 Y124.221 E12.13684
G1 X197.533 Y124.215 E12.18572
G1 X103.104 Y124.22 E15.16941
G1 X91.98 Y124.177 E15.5209
G1 X91.98 Y99.055 E16.31468
M204 S5000
M205 X30 Y30
G0 F2400 X91.58 Y99.455
M204 S500
M205 X20 Y20
;TYPE:WALL-OUTER
G1 F1200 X35.18 Y99.455 E18.09676
G1 X35.18 Y124.583 E18.89073
G1 X34.504 Y124.621 E18.91212
G1 X23.385 Y124.621 E19.26345
G1 X21.8 Y124.615 E19.31353
G1 X20.33 Y124.62 E19.35998
G1 X9.247 Y124.574 E19.71018
G1 X9.213 Y124.557 E19.71138
G1 X9.136 Y124.447 E19.71562
G1 X9.119 Y124.404 E19.71708
G1 X9.041 Y123.796 E19.73645
G1 X9.041 Y91.901 E20.74424
G1 X9.047 Y91.814 E20.747
G1 X210.953 Y91.814 E27.12665
G1 X210.959 Y91.901 E27.1294
G1 X210.959 Y123.796 E28.13719
G1 X210.883 Y124.401 E28.15646
G1 X210.863 Y124.448 E28.15807
G1 X210.787 Y124.557 E28.16227
G1 X210.753 Y124.574 E28.16347
G1 X199.08 Y124.621 E28.53231
G1 X197.532 Y124.615 E28.58122
G1 X103.102 Y124.62 E31.56494
G1 X91.58 Y124.575 E31.929
G1 X91.58 Y99.455 E32.72272
M204 S5000
M205 X30 Y30
G0 F2400 X91.38 Y99.455
G0 X91.38 Y99.015
G0 X92.12 Y98.915
G0 X92.37 Y98.665
M204 S500
M205 X20 Y20
;TYPE:SKIN
G1 F1200 X34.39 Y98.665 E34.55472
G1 X34.39 Y123.831 E35.3499
G1 X23.387 Y123.831 E35.69756
G1 X21.8 Y123.825 E35.7477
G1 X20.331 Y123.83 E35.79412
G1 X9.836 Y123.787 E36.12574
G1 X9.831 Y123.751 E36.12688
G1 X9.831 Y92.604 E37.11104
G1 X210.169 Y92.604 E43.44115
G1 X210.164 Y123.787 E44.42644
G1 X199.08 Y123.831 E44.77666
G1 X197.535 Y123.825 E44.82548
G1 X103.106 Y123.83 E47.80917
G1 X92.37 Y123.789 E48.1484
G1 X92.37 Y98.665 E48.94224
M204 S5000
M205 X30 Y30
G0 F2400 X92.12 Y98.915
G0 X34.952 Y99.227
G0 X34.599 Y124.033
G0 X10.469 Y124.069
G0 X10.471 Y123.608
M204 S500
M205 X20 Y20
G1 F1200 X10.01 Y123.147 E48.96284
M204 S5000
M205 X30 Y30
G0 F2400 X10.01 Y122.581
M204 S500
M205 X20 Y20
G1 F1200 X11.039 Y123.61 E49.00882
M204 S5000
M205 X30 Y30
G0 F2400 X11.607 Y123.613
M204 S500
M205 X20 Y20
G1 F1200 X10.01 Y122.016 E49.08019
M204 S5000
M205 X30 Y30
G0 F2400 X10.01 Y121.45
M204 S500
M205 X20 Y20
G1 F1200 X12.175 Y123.615 E49.17693
M204 S5000
M205 X30 Y30
G0 F2400 X12.743 Y123.617
M204 S500
M205 X20 Y20
G1 F1200 X10.01 Y120.884 E49.29905
M204 S5000
M205 X30 Y30
G0 F2400 X10.01 Y120.319
M204 S500
M205 X20 Y20
G1 F1200 X13.311 Y123.619 E49.44654
M204 S5000
M205 X30 Y30
G0 F2400 X13.879 Y123.622
M204 S500
M205 X20 Y20
G1 F1200 X10.01 Y119.753 E49.61942
M204 S5000
M205 X30 Y30
G0 F2400 X10.01 Y119.187
M204 S500
M205 X20 Y20
G1 F1200 X14.447 Y123.624 E49.81769
M204 S5000
M205 X30 Y30
G0 F2400 X15.015 Y123.627
M204 S500
M205 X20 Y20
G1 F1200 X10.01 Y118.622 E50.04134
M204 S5000
M205 X30 Y30
G0 F2400 X10.01 Y118.056
M204 S500
M205 X20 Y20
G1 F1200 X15.583 Y123.629 E50.29037
M204 S5000
M205 X30 Y30
G0 F2400 X16.151 Y123.631
M204 S500
M205 X20 Y20
G1 F1200 X10.01 Y117.49 E50.56478
M204 S5000
M205 X30 Y30
G0 F2400 X10.01 Y116.925
M204 S500
M205 X20 Y20
G1 F1200 X16.719 Y123.634 E50.86457
M204 S5000
M205 X30 Y30
G0 F2400 X17.287 Y123.636
M204 S500
M205 X20 Y20
G1 F1200 X10.01 Y116.359 E51.18975
M204 S5000
M205 X30 Y30
G0 F2400 X10.01 Y115.793
M204 S500
M205 X20 Y20
G1 F1200 X17.855 Y123.638 E51.5403
M204 S5000
M205 X30 Y30
G0 F2400 X18.423 Y123.641
M204 S500
M205 X20 Y20
G1 F1200 X10.01 Y115.227 E51.91626
M204 S5000
M205 X30 Y30
G0 F2400 X10.01 Y114.662
M204 S500
M205 X20 Y20
G1 F1200 X18.991 Y123.643 E52.31758
M204 S5000
M205 X30 Y30
G0 F2400 X19.559 Y123.645
M204 S500
M205 X20 Y20
G1 F1200 X10.01 Y114.096 E52.74427
M204 S5000
M205 X30 Y30
G0 F2400 X10.01 Y113.53
M204 S500
M205 X20 Y20
G1 F1200 X20.127 Y123.647 E53.19635
M204 S5000
M205 X30 Y30
G0 F2400 X20.692 Y123.647
M204 S500
M205 X20 Y20
G1 F1200 X10.01 Y112.965 E53.67368
M204 S5000
M205 X30 Y30
G0 F2400 X10.01 Y112.399
M204 S500
M205 X20 Y20
G1 F1200 X21.257 Y123.646 E54.17625
M204 S5000
M205 X30 Y30
G0 F2400 X21.821 Y123.644
M204 S500
M205 X20 Y20
G1 F1200 X10.01 Y111.833 E54.70403
M204 S5000
M205 X30 Y30
G0 F2400 X10.01 Y111.268
M204 S500
M205 X20 Y20
G1 F1200 X22.388 Y123.646 E55.25714
M204 S5000
M205 X30 Y30
G0 F2400 X22.956 Y123.648
M204 S500
M205 X20 Y20
G1 F1200 X10.01 Y110.702 E55.83563
M204 S5000
M205 X30 Y30
G0 F2400 X10.01 Y110.136
M204 S500
M205 X20 Y20
G1 F1200 X23.524 Y123.65 E56.43951
M204 S5000
M205 X30 Y30
G0 F2400 X24.089 Y123.65
M204 S500
M205 X20 Y20
G1 F1200 X10.01 Y109.571 E57.06863
M204 S5000
M205 X30 Y30
G0 F2400 X10.01 Y109.005
M204 S500
M205 X20 Y20
G1 F1200 X24.655 Y123.65 E57.72304
M204 S5000
M205 X30 Y30
G0 F2400 X25.221 Y123.65
M204 S500
M205 X20 Y20
G1 F1200 X10.01 Y108.439 E58.40275
M204 S5000
M205 X30 Y30
G0 F2400 X10.01 Y107.874
M204 S500
M205 X20 Y20
G1 F1200 X25.786 Y123.65 E59.1077
M204 S5000
M205 X30 Y30
G0 F2400 X26.352 Y123.65
M204 S500
M205 X20 Y20
G1 F1200 X10.01 Y107.308 E59.83794
M204 S5000
M205 X30 Y30
G0 F2400 X10.01 Y106.742
M204 S500
M205 X20 Y20
G1 F1200 X26.918 Y123.65 E60.59348
M204 S5000
M205 X30 Y30
G0 F2400 X27.483 Y123.65
M204 S500
M205 X20 Y20
G1 F1200 X10.01 Y106.177 E61.37426
M204 S5000
M205 X30 Y30
G0 F2400 X10.01 Y105.611
M204 S500
M205 X20 Y20
G1 F1200 X28.049 Y123.65 E62.18033
M204 S5000
M205 X30 Y30
G0 F2400 X28.615 Y123.65
M204 S500
M205 X20 Y20
G1 F1200 X10.01 Y105.045 E63.0117
M204 S5000
M205 X30 Y30
G0 F2400 X10.01 Y104.479
M204 S500
M205 X20 Y20
G1 F1200 X29.18 Y123.65 E63.86834
M204 S5000
M205 X30 Y30
G0 F2400 X29.746 Y123.65
M204 S500
M205 X20 Y20
G1 F1200 X10.01 Y103.914 E64.75024
M204 S5000
M205 X30 Y30
G0 F2400 X10.01 Y103.348
M204 S500
M205 X20 Y20
G1 F1200 X30.312 Y123.65 E65.65744
M204 S5000
M205 X30 Y30
G0 F2400 X30.877 Y123.65
M204 S500
M205 X20 Y20
G1 F1200 X10.01 Y102.782 E66.5899
M204 S5000
M205 X30 Y30
G0 F2400 X10.01 Y102.217
M204 S500
M205 X20 Y20
G1 F1200 X31.443 Y123.65 E67.54764
M204 S5000
M205 X30 Y30
G0 F2400 X32.009 Y123.65
M204 S500
M205 X20 Y20
G1 F1200 X10.01 Y101.651 E68.53067
M204 S5000
M205 X30 Y30
G0 F2400 X10.01 Y101.085
M204 S500
M205 X20 Y20
G1 F1200 X32.574 Y123.65 E69.53896
M204 S5000
M205 X30 Y30
G0 F2400 X33.14 Y123.65
M204 S500
M205 X20 Y20
G1 F1200 X10.01 Y100.52 E70.57253
M204 S5000
M205 X30 Y30
G0 F2400 X10.01 Y99.954
M204 S500
M205 X20 Y20
G1 F1200 X33.706 Y123.65 E71.63139
M204 S5000
M205 X30 Y30
G0 F2400 X34.209 Y123.588
M204 S500
M205 X20 Y20
G1 F1200 X10.01 Y99.388 E72.71274
M204 S5000
M205 X30 Y30
G0 F2400 X10.01 Y98.823
M204 S500
M205 X20 Y20
G1 F1200 X34.209 Y123.022 E73.79408
M204 S5000
M205 X30 Y30
G0 F2400 X34.209 Y122.456
M204 S500
M205 X20 Y20
G1 F1200 X10.01 Y98.257 E74.87541
M204 S5000
M205 X30 Y30
G0 F2400 X10.01 Y97.691
M204 S500
M205 X20 Y20
G1 F1200 X34.209 Y121.891 E75.95677
M204 S5000
M205 X30 Y30
G0 F2400 X34.209 Y121.325
M204 S500
M205 X20 Y20
G1 F1200 X10.01 Y97.126 E77.0381
M204 S5000
M205 X30 Y30
G0 F2400 X10.01 Y96.56
M204 S500
M205 X20 Y20
G1 F1200 X34.209 Y120.759 E78.11944
M204 S5000
M205 X30 Y30
G0 F2400 X34.209 Y120.194
M204 S500
M205 X20 Y20
G1 F1200 X10.01 Y95.994 E79.20079
M204 S5000
M205 X30 Y30
G0 F2400 X10.01 Y95.429
M204 S500
M205 X20 Y20
G1 F1200 X34.209 Y119.628 E80.28213
M204 S5000
M205 X30 Y30
G0 F2400 X34.209 Y119.062
M204 S500
M205 X20 Y20
G1 F1200 X10.01 Y94.863 E81.36346
M204 S5000
M205 X30 Y30
G0 F2400 X10.01 Y94.297
M204 S500
M205 X20 Y20
G1 F1200 X34.209 Y118.496 E82.4448
M204 S5000
M205 X30 Y30
G0 F2400 X34.209 Y117.931
M204 S500
M205 X20 Y20
G1 F1200 X10.01 Y93.731 E83.52615
M204 S5000
M205 X30 Y30
G0 F2400 X10.01 Y93.166
M204 S500
M205 X20 Y20
G1 F1200 X34.209 Y117.365 E84.60749
M204 S5000
M205 X30 Y30
G0 F2400 X34.209 Y116.799
M204 S500
M205 X20 Y20
G1 F1200 X10.193 Y92.783 E85.68065
M204 S5000
M205 X30 Y30
G0 F2400 X10.759 Y92.783
M204 S500
M205 X20 Y20
G1 F1200 X34.209 Y116.234 E86.72853
M204 S5000
M205 X30 Y30
G0 F2400 X34.209 Y115.668
M204 S500
M205 X20 Y20
G1 F1200 X11.325 Y92.783 E87.75113
M204 S5000
M205 X30 Y30
G0 F2400 X11.89 Y92.783
M204 S500
M205 X20 Y20
G1 F1200 X34.209 Y115.102 E88.74846
M204 S5000
M205 X30 Y30
G0 F2400 X34.209 Y114.537
M204 S500
M205 X20 Y20
G1 F1200 X12.456 Y92.783 E89.72051
M204 S5000
M205 X30 Y30
G0 F2400 X13.022 Y92.783
M204 S500
M205 X20 Y20
G1 F1200 X34.209 Y113.971 E90.66728
M204 S5000
M205 X30 Y30
G0 F2400 X34.209 Y113.405
M204 S500
M205 X20 Y20
G1 F1200 X13.587 Y92.783 E91.58877
M204 S5000
M205 X30 Y30
G0 F2400 X14.153 Y92.783
M204 S500
M205 X20 Y20
G1 F1200 X34.209 Y112.84 E92.485
M204 S5000
M205 X30 Y30
G0 F2400 X34.209 Y112.274
M204 S500
M205 X20 Y20
G1 F1200 X14.719 Y92.783 E93.35594
M204 S5000
M205 X30 Y30
G0 F2400 X15.284 Y92.783
M204 S500
M205 X20 Y20
G1 F1200 X34.209 Y111.708 E94.2016
M204 S5000
M205 X30 Y30
G0 F2400 X34.209 Y111.143
M204 S500
M205 X20 Y20
G1 F1200 X15.85 Y92.783 E95.022
M204 S5000
M205 X30 Y30
G0 F2400 X16.416 Y92.783
M204 S500
M205 X20 Y20
G1 F1200 X34.209 Y110.577 E95.8171
M204 S5000
M205 X30 Y30
G0 F2400 X34.209 Y110.011
M204 S500
M205 X20 Y20
G1 F1200 X16.981 Y92.783 E96.58694
M204 S5000
M205 X30 Y30
G0 F2400 X17.547 Y92.783
M204 S500
M205 X20 Y20
G1 F1200 X34.209 Y109.445 E97.33148
M204 S5000
M205 X30 Y30
G0 F2400 X34.209 Y108.88
M204 S500
M205 X20 Y20
G1 F1200 X18.113 Y92.783 E98.05075
M204 S5000
M205 X30 Y30
G0 F2400 X18.678 Y92.783
M204 S500
M205 X20 Y20
G1 F1200 X34.209 Y108.314 E98.74476
M204 S5000
M205 X30 Y30
G0 F2400 X34.209 Y107.748
M204 S500
M205 X20 Y20
G1 F1200 X19.244 Y92.783 E99.41347
M204 S5000
M205 X30 Y30
G0 F2400 X19.81 Y92.783
M204 S500
M205 X20 Y20
G1 F1200 X34.209 Y107.183 E100.05691
M204 S5000
M205 X30 Y30
G0 F2400 X34.209 Y106.617
M204 S500
M205 X20 Y20
G1 F1200 X20.375 Y92.783 E100.67508
M204 S5000
M205 X30 Y30
G0 F2400 X20.941 Y92.783
M204 S500
M205 X20 Y20
G1 F1200 X34.209 Y106.051 E101.26797
M204 S5000
M205 X30 Y30
G0 F2400 X34.209 Y105.486
M204 S500
M205 X20 Y20
G1 F1200 X21.507 Y92.783 E101.83558
M204 S5000
M205 X30 Y30
G0 F2400 X22.073 Y92.783
M204 S500
M205 X20 Y20
G1 F1200 X34.209 Y104.92 E102.3779
M204 S5000
M205 X30 Y30
G0 F2400 X34.209 Y104.354
M204 S500
M205 X20 Y20
G1 F1200 X22.638 Y92.783 E102.89495
M204 S5000
M205 X30 Y30
G0 F2400 X23.204 Y92.783
M204 S500
M205 X20 Y20
G1 F1200 X34.209 Y103.789 E103.38673
M204 S5000
M205 X30 Y30
G0 F2400 X34.209 Y103.223
M204 S500
M205 X20 Y20
G1 F1200 X23.77 Y92.783 E103.85322
M204 S5000
M205 X30 Y30
G0 F2400 X24.335 Y92.783
M204 S500
M205 X20 Y20
G1 F1200 X34.209 Y102.657 E104.29444
M204 S5000
M205 X30 Y30
G0 F2400 X34.209 Y102.092
M204 S500
M205 X20 Y20
G1 F1200 X24.901 Y92.783 E104.71039
M204 S5000
M205 X30 Y30
G0 F2400 X25.467 Y92.783
M204 S500
M205 X20 Y20
G1 F1200 X34.209 Y101.526 E105.10105
M204 S5000
M205 X30 Y30
G0 F2400 X34.209 Y100.96
M204 S500
M205 X20 Y20
G1 F1200 X26.032 Y92.783 E105.46644
M204 S5000
M205 X30 Y30
G0 F2400 X26.598 Y92.783
M204 S500
M205 X20 Y20
G1 F1200 X34.209 Y100.395 E105.80656
M204 S5000
M205 X30 Y30
G0 F2400 X34.209 Y99.829
M204 S500
M205 X20 Y20
G1 F1200 X27.164 Y92.783 E106.12139
M204 S5000
M205 X30 Y30
G0 F2400 X27.729 Y92.783
M204 S500
M205 X20 Y20
G1 F1200 X34.209 Y99.263 E106.41095
M204 S5000
M205 X30 Y30
G0 F2400 X34.209 Y98.697
M204 S500
M205 X20 Y20
G1 F1200 X28.295 Y92.783 E106.67522
M204 S5000
M205 X30 Y30
G0 F2400 X28.861 Y92.783
M204 S500
M205 X20 Y20
G1 F1200 X34.561 Y98.484 E106.92995
M204 S5000
M205 X30 Y30
G0 F2400 X35.127 Y98.484
M204 S500
M205 X20 Y20
G1 F1200 X29.426 Y92.783 E107.1847
M204 S5000
M205 X30 Y30
G0 F2400 X29.992 Y92.783
M204 S500
M205 X20 Y20
G1 F1200 X35.693 Y98.484 E107.43945
M204 S5000
M205 X30 Y30
G0 F2400 X36.259 Y98.484
M204 S500
M205 X20 Y20
G1 F1200 X30.558 Y92.783 E107.6942
M204 S5000
M205 X30 Y30
G0 F2400 X31.124 Y92.783
M204 S500
M205 X20 Y20
G1 F1200 X36.824 Y98.484 E107.94892
M204 S5000
M205 X30 Y30
G0 F2400 X37.39 Y98.484
M204 S500
M205 X20 Y20
G1 F1200 X31.689 Y92.783 E108.20367
M204 S5000
M205 X30 Y30
G0 F2400 X32.255 Y92.783
M204 S500
M205 X20 Y20
G1 F1200 X37.956 Y98.484 E108.45842
M204 S5000
M205 X30 Y30
G0 F2400 X38.521 Y98.484
M204 S500
M205 X20 Y20
G1 F1200 X32.821 Y92.783 E108.71315
M204 S5000
M205 X30 Y30
G0 F2400 X33.386 Y92.783
M204 S500
M205 X20 Y20
G1 F1200 X39.087 Y98.484 E108.9679
M204 S5000
M205 X30 Y30
G0 F2400 X39.653 Y98.484
M204 S500
M205 X20 Y20
G1 F1200 X33.952 Y92.783 E109.22265
M204 S5000
M205 X30 Y30
G0 F2400 X34.518 Y92.783
M204 S500
M205 X20 Y20
G1 F1200 X40.218 Y98.484 E109.47738
M204 S5000
M205 X30 Y30
G0 F2400 X40.784 Y98.484
M204 S500
M205 X20 Y20
G1 F1200 X35.083 Y92.783 E109.73213
M204 S5000
M205 X30 Y30
G0 F2400 X35.649 Y92.783
M204 S500
M205 X20 Y20
G1 F1200 X41.35 Y98.484 E109.98688
M204 S5000
M205 X30 Y30
G0 F2400 X41.915 Y98.484
M204 S500
M205 X20 Y20
G1 F1200 X36.215 Y92.783 E110.2416
M204 S5000
M205 X30 Y30
G0 F2400 X36.78 Y92.783
M204 S500
M205 X20 Y20
G1 F1200 X42.481 Y98.484 E110.49635
M204 S5000
M205 X30 Y30
G0 F2400 X43.047 Y98.484
M204 S500
M205 X20 Y20
G1 F1200 X37.346 Y92.783 E110.7511
M204 S5000
M205 X30 Y30
G0 F2400 X37.912 Y92.783
M204 S500
M205 X20 Y20
G1 F1200 X43.612 Y98.484 E111.00583
M204 S5000
M205 X30 Y30
G0 F2400 X44.178 Y98.484
M204 S500
M205 X20 Y20
G1 F1200 X38.477 Y92.783 E111.26058
M204 S5000
M205 X30 Y30
G0 F2400 X39.043 Y92.783
M204 S500
M205 X20 Y20
G1 F1200 X44.744 Y98.484 E111.51533
M204 S5000
M205 X30 Y30
G0 F2400 X45.309 Y98.484
M204 S500
M205 X20 Y20
G1 F1200 X39.609 Y92.783 E111.77006
M204 S5000
M205 X30 Y30
G0 F2400 X40.174 Y92.783
M204 S500
M205 X20 Y20
G1 F1200 X45.875 Y98.484 E112.02481
M204 S5000
M205 X30 Y30
G0 F2400 X46.441 Y98.484
M204 S500
M205 X20 Y20
G1 F1200 X40.74 Y92.783 E112.27956
M204 S5000
M205 X30 Y30
G0 F2400 X41.306 Y92.783
M204 S500
M205 X20 Y20
G1 F1200 X47.007 Y98.484 E112.53431
M204 S5000
M205 X30 Y30
G0 F2400 X47.572 Y98.484
M204 S500
M205 X20 Y20
G1 F1200 X41.872 Y92.783 E112.78903
M204 S5000
M205 X30 Y30
G0 F2400 X42.437 Y92.783
M204 S500
M205 X20 Y20
G1 F1200 X48.138 Y98.484 E113.04378
M204 S5000
M205 X30 Y30
G0 F2400 X48.704 Y98.484
M204 S500
M205 X20 Y20
G1 F1200 X43.003 Y92.783 E113.29853
M204 S5000
M205 X30 Y30
G0 F2400 X43.569 Y92.783
M204 S500
M205 X20 Y20
G1 F1200 X49.269 Y98.484 E113.55326
M204 S5000
M205 X30 Y30
G0 F2400 X49.835 Y98.484
M204 S500
M205 X20 Y20
G1 F1200 X44.134 Y92.783 E113.80801
M204 S5000
M205 X30 Y30
G0 F2400 X44.7 Y92.783
M204 S500
M205 X20 Y20
G1 F1200 X50.401 Y98.484 E114.06276
M204 S5000
M205 X30 Y30
G0 F2400 X50.966 Y98.484
M204 S500
M205 X20 Y20
G1 F1200 X45.266 Y92.783 E114.31749
M204 S5000
M205 X30 Y30
G0 F2400 X45.831 Y92.783
M204 S500
M205 X20 Y20
G1 F1200 X51.532 Y98.484 E114.57224
M204 S5000
M205 X30 Y30
G0 F2400 X52.098 Y98.484
M204 S500
M205 X20 Y20
G1 F1200 X46.397 Y92.783 E114.82699
M204 S5000
M205 X30 Y30
G0 F2400 X46.963 Y92.783
M204 S500
M205 X20 Y20
G1 F1200 X52.663 Y98.484 E115.08171
M204 S5000
M205 X30 Y30
G0 F2400 X53.229 Y98.484
M204 S500
M205 X20 Y20
G1 F1200 X47.528 Y92.783 E115.33646
M204 S5000
M205 X30 Y30
G0 F2400 X48.094 Y92.783
M204 S500
M205 X20 Y20
G1 F1200 X53.795 Y98.484 E115.59121
M204 S5000
M205 X30 Y30
