;FLAVOR:Marlin
;TIME:1190
;Filament used: 1.12089m
;Layer height: 0.2
;MINX:79.86
;MINY:80.71
;MINZ:0.2
;MAXX:155.129
;MAXY:154.292
;MAXZ:4.2
;Generated with Cura_SteamEngine 4.1.0
M140 S50
M105
M190 S50
M104 S210
M105
M109 S210
M82 ;absolute extrusion mode
; Ender 3 Custom Start G-code
G28 ; Home all axes
M420 S1
G92 E0 ; Reset Extruder
G1 Z2.0 F3000 ; Move Z Axis up little to prevent scratching of Heat Bed
G1 X0.1 Y20 Z0.3 F5000.0 ; Move to start position
G1 X0.1 Y200.0 Z0.3 F1500.0 E15 ; Draw the first line
G1 X0.4 Y200.0 Z0.3 F5000.0 ; Move to side a little
G1 X0.4 Y20 Z0.3 F1500.0 E30 ; Draw the second line
G92 E0 ; Reset Extruder
G1 Z2.0 F3000 ; Move Z Axis up little to prevent scratching of Heat Bed
G92 E0
G92 E0
G1 F3600 E-8
;LAYER_COUNT:21
;LAYER:0
M107
M204 S500
M205 X10 Y10
G0 F3600 X84.717 Y90.226 Z0.2
;TYPE:SKIRT
G1 F3600 E0
G1 F1800 X85.494 Y89.579 E0.03363
G1 X86.027 Y89.191 E0.05556
G1 X86.893 Y88.644 E0.08962
G1 X87.478 Y88.326 E0.11177
G1 X88.427 Y87.89 E0.14651
G1 X89.044 Y87.655 E0.16847
G1 X90.014 Y87.356 E0.20223
G1 X90.657 Y87.203 E0.22421
G1 X91.687 Y87.03 E0.25895
G1 X92.347 Y86.964 E0.28101
G1 X93.359 Y86.929 E0.31469
G1 X94.02 Y86.949 E0.33668
G1 X95.064 Y87.051 E0.37157
G1 X95.719 Y87.16 E0.39366
G1 X96.442 Y87.33 E0.41836
G1 X96.962 Y86.962 E0.43955
G1 X97.365 Y86.696 E0.45561
G1 X98.849 Y85.778 E0.51365
G1 X99.246 Y85.548 E0.52891
G1 X100.783 Y84.718 E0.58701
G1 X101.199 Y84.509 E0.60249
G1 X102.779 Y83.774 E0.66045
G1 X103.216 Y83.586 E0.67627
G1 X104.842 Y82.947 E0.73438
G1 X105.286 Y82.788 E0.75006
G1 X106.946 Y82.249 E0.80811
G1 X107.389 Y82.12 E0.82346
G1 X109.078 Y81.68 E0.88151
G1 X109.547 Y81.573 E0.89751
G1 X111.26 Y81.238 E0.95557
G1 X111.715 Y81.163 E0.9709
G1 X113.444 Y80.93 E1.02893
G1 X113.909 Y80.881 E1.04448
G1 X115.649 Y80.752 E1.10251
G1 X116.128 Y80.732 E1.11846
G1 X117.872 Y80.71 E1.17647
G1 X118.323 Y80.717 E1.19147
G1 X120.067 Y80.796 E1.24954
G1 X120.55 Y80.833 E1.26565
G1 X122.285 Y81.02 E1.32369
G1 X122.744 Y81.083 E1.3391
G1 X124.467 Y81.373 E1.39721
G1 X124.936 Y81.467 E1.41312
G1 X126.633 Y81.861 E1.47106
G1 X127.077 Y81.978 E1.48633
G1 X128.751 Y82.472 E1.54439
G1 X129.202 Y82.62 E1.56017
G1 X130.843 Y83.215 E1.61823
G1 X131.281 Y83.389 E1.63391
G1 X132.883 Y84.082 E1.69196
G1 X133.301 Y84.278 E1.70732
G1 X134.86 Y85.065 E1.7654
G1 X135.28 Y85.293 E1.7813
G1 X136.786 Y86.173 E1.83931
G1 X137.181 Y86.42 E1.8548
G1 X138.633 Y87.389 E1.91286
G1 X139.011 Y87.658 E1.9283
G1 X139.657 Y88.147 E1.95524
G1 X140.402 Y88.002 E1.98049
G1 X141.08 Y87.918 E2.00321
G1 X142.119 Y87.859 E2.03782
G1 X142.798 Y87.866 E2.06041
G1 X143.869 Y87.951 E2.09614
G1 X144.546 Y88.052 E2.11891
G1 X145.598 Y88.285 E2.15474
G1 X146.25 Y88.477 E2.17735
G1 X147.247 Y88.846 E2.21271
G1 X147.865 Y89.124 E2.23525
G1 X148.785 Y89.614 E2.26992
G1 X149.367 Y89.976 E2.29271
G1 X150.233 Y90.6 E2.32822
G1 X150.754 Y91.033 E2.35075
G1 X151.529 Y91.773 E2.38639
G1 X151.99 Y92.278 E2.40913
G1 X152.657 Y93.119 E2.44483
G1 X153.055 Y93.698 E2.4682
G1 X153.568 Y94.558 E2.50151
G1 X153.872 Y95.151 E2.52367
G1 X154.283 Y96.104 E2.55819
G1 X154.513 Y96.753 E2.58109
G1 X154.8 Y97.781 E2.61659
G1 X154.94 Y98.459 E2.63961
G1 X155.084 Y99.526 E2.67543
G1 X155.129 Y100.213 E2.69832
G1 X155.126 Y101.277 E2.73371
G1 X155.077 Y101.965 E2.75665
G1 X154.923 Y103.049 E2.79307
G1 X154.778 Y103.724 E2.81603
G1 X154.476 Y104.769 E2.85221
G1 X154.239 Y105.416 E2.87513
G1 X153.808 Y106.383 E2.91034
G1 X153.485 Y106.993 E2.9333
G1 X152.976 Y107.811 E2.96534
G1 X153.116 Y108.307 E2.98248
G1 X153.224 Y108.74 E2.99733
G1 X153.591 Y110.405 E3.05403
G1 X153.676 Y110.852 E3.06917
G1 X153.945 Y112.534 E3.12582
G1 X154.005 Y112.993 E3.14122
G1 X154.174 Y114.689 E3.19791
G1 X154.205 Y115.141 E3.21298
G1 X154.275 Y116.843 E3.26963
G1 X154.281 Y117.292 E3.28457
G1 X154.253 Y118.995 E3.34122
G1 X154.231 Y119.467 E3.35693
G1 X154.1 Y121.166 E3.41361
G1 X154.052 Y121.614 E3.4286
G1 X153.823 Y123.303 E3.48529
G1 X153.747 Y123.761 E3.50073
G1 X153.418 Y125.433 E3.55741
G1 X153.316 Y125.881 E3.57269
G1 X152.889 Y127.531 E3.62937
G1 X152.763 Y127.967 E3.64447
G1 X152.565 Y128.583 E3.66599
G1 X152.983 Y129.301 E3.69362
G1 X153.289 Y129.919 E3.71656
G1 X153.709 Y130.944 E3.7534
G1 X153.925 Y131.601 E3.7764
G1 X154.187 Y132.631 E3.81175
G1 X154.312 Y133.313 E3.83481
G1 X154.433 Y134.378 E3.87046
G1 X154.463 Y135.064 E3.8933
G1 X154.437 Y136.124 E3.92857
G1 X154.373 Y136.815 E3.95165
G1 X154.193 Y137.908 E3.98849
G1 X154.033 Y138.578 E4.0114
G1 X153.713 Y139.601 E4.04706
G1 X153.461 Y140.247 E4.07012
G1 X153.002 Y141.219 E4.10587
G1 X152.667 Y141.818 E4.1287
G1 X152.074 Y142.724 E4.16471
G1 X151.641 Y143.295 E4.18855
G1 X151.19 Y143.837 E4.212
G1 X150.735 Y144.336 E4.23446
G1 X149.949 Y145.086 E4.27059
G1 X149.411 Y145.532 E4.29384
G1 X148.545 Y146.155 E4.32932
G1 X147.947 Y146.526 E4.35272
G1 X146.971 Y147.04 E4.38941
G1 X146.331 Y147.321 E4.41266
G1 X145.294 Y147.691 E4.44928
G1 X144.621 Y147.879 E4.47252
G1 X143.554 Y148.098 E4.50875
G1 X142.857 Y148.191 E4.53214
G1 X141.791 Y148.26 E4.56767
G1 X141.094 Y148.257 E4.59085
G1 X139.994 Y148.174 E4.62754
G1 X139.3 Y148.072 E4.65087
G1 X138.279 Y147.848 E4.68564
G1 X137.773 Y148.2 E4.70614
G1 X137.374 Y148.46 E4.72198
G1 X135.89 Y149.363 E4.77976
G1 X135.491 Y149.59 E4.79502
G1 X133.955 Y150.405 E4.85286
G1 X133.533 Y150.613 E4.86851
G1 X131.953 Y151.333 E4.92626
G1 X131.524 Y151.513 E4.94173
G1 X129.902 Y152.138 E4.99954
G1 X129.461 Y152.293 E5.01509
G1 X127.804 Y152.82 E5.07292
G1 X127.357 Y152.948 E5.08839
G1 X125.673 Y153.375 E5.14617
G1 X125.211 Y153.477 E5.16191
G1 X123.504 Y153.801 E5.2197
G1 X123.045 Y153.874 E5.23515
G1 X121.321 Y154.096 E5.29297
G1 X120.855 Y154.142 E5.30854
G1 X119.123 Y154.26 E5.36628
G1 X118.656 Y154.278 E5.38183
G1 X116.919 Y154.292 E5.4396
G1 X116.461 Y154.282 E5.45484
G1 X114.725 Y154.194 E5.51265
G1 X114.253 Y154.156 E5.5284
G1 X112.527 Y153.963 E5.58617
G1 X112.062 Y153.896 E5.60179
G1 X110.348 Y153.599 E5.65965
G1 X109.882 Y153.504 E5.67547
G1 X108.193 Y153.104 E5.7332
G1 X107.756 Y152.987 E5.74824
G1 X106.091 Y152.489 E5.80605
G1 X105.638 Y152.338 E5.82193
G1 X104.006 Y151.739 E5.87975
G1 X103.573 Y151.565 E5.89527
G1 X101.981 Y150.87 E5.95305
G1 X101.562 Y150.672 E5.96846
G1 X100.013 Y149.883 E6.02628
G1 X99.6 Y149.657 E6.04194
G1 X98.103 Y148.777 E6.09969
G1 X97.71 Y148.53 E6.11513
G1 X96.266 Y147.561 E6.17297
G1 X95.888 Y147.29 E6.18844
G1 X95.271 Y146.82 E6.21424
G1 X94.46 Y146.973 E6.24169
G1 X93.775 Y147.053 E6.26463
G1 X92.756 Y147.105 E6.29856
G1 X92.071 Y147.095 E6.32135
G1 X90.96 Y146.999 E6.35844
G1 X90.281 Y146.891 E6.3813
G1 X89.248 Y146.654 E6.41655
G1 X88.59 Y146.455 E6.43942
G1 X87.576 Y146.069 E6.47551
G1 X86.955 Y145.782 E6.49826
G1 X86.013 Y145.266 E6.53398
G1 X85.432 Y144.893 E6.55695
G1 X84.579 Y144.259 E6.5923
G1 X84.057 Y143.813 E6.61513
G1 X83.288 Y143.058 E6.65098
G1 X82.834 Y142.546 E6.67374
G1 X82.183 Y141.703 E6.70916
G1 X81.787 Y141.11 E6.73288
G1 X81.215 Y140.097 E6.77157
G1 X80.939 Y139.51 E6.79314
G1 X80.559 Y138.535 E6.82795
G1 X80.357 Y137.894 E6.8503
G1 X80.113 Y136.898 E6.88441
G1 X79.997 Y136.237 E6.90673
G1 X79.886 Y135.191 E6.94172
G1 X79.86 Y134.521 E6.96402
G1 X79.887 Y133.501 E6.99795
G1 X79.949 Y132.83 E7.02037
G1 X80.122 Y131.766 E7.05622
G1 X80.275 Y131.114 E7.07849
G1 X80.586 Y130.104 E7.11364
G1 X80.826 Y129.478 E7.13594
G1 X81.254 Y128.548 E7.16999
G1 X81.576 Y127.955 E7.19244
G1 X82.019 Y127.259 E7.21988
G1 X81.863 Y126.71 E7.23886
G1 X81.75 Y126.264 E7.25416
G1 X81.378 Y124.579 E7.31155
G1 X81.291 Y124.119 E7.32713
G1 X81.021 Y122.417 E7.38444
G1 X80.962 Y121.959 E7.3998
G1 X80.793 Y120.241 E7.45722
G1 X80.762 Y119.776 E7.47272
G1 X80.696 Y118.054 E7.53003
G1 X80.692 Y117.597 E7.54523
G1 X80.727 Y115.874 E7.60255
G1 X80.75 Y115.407 E7.61811
G1 X80.888 Y113.689 E7.67543
G1 X80.94 Y113.224 E7.69099
G1 X81.181 Y111.517 E7.74833
G1 X81.259 Y111.057 E7.76385
G1 X81.602 Y109.365 E7.82127
G1 X81.705 Y108.926 E7.83627
G1 X82.144 Y107.261 E7.89354
G1 X82.278 Y106.808 E7.90925
G1 X82.506 Y106.115 E7.93351
G1 X82.155 Y105.512 E7.95672
G1 X81.854 Y104.906 E7.97923
G1 X81.444 Y103.913 E8.01496
G1 X81.23 Y103.274 E8.03737
G1 X80.964 Y102.258 E8.0723
G1 X80.837 Y101.592 E8.09485
G1 X80.711 Y100.56 E8.12943
G1 X80.674 Y99.889 E8.15178
G1 X80.687 Y98.838 E8.18674
G1 X80.741 Y98.163 E8.20926
G1 X80.898 Y97.111 E8.24464
G1 X81.043 Y96.451 E8.26712
G1 X81.344 Y95.424 E8.30271
G1 X81.578 Y94.79 E8.32519
G1 X81.996 Y93.851 E8.35938
G1 X82.311 Y93.254 E8.38183
G1 X82.884 Y92.331 E8.41796
G1 X83.293 Y91.764 E8.44121
G1 X83.787 Y91.148 E8.46748
G1 X84.251 Y90.668 E8.48968
G1 X84.717 Y90.226 E8.51104
G0 F3600 X84.992 Y90.516
G1 F1800 X85.73 Y89.902 E8.54297
G1 X86.263 Y89.514 E8.5649
G1 X87.084 Y88.995 E8.59721
G1 X87.669 Y88.677 E8.61935
G1 X88.569 Y88.264 E8.65229
G1 X89.186 Y88.029 E8.67425
G1 X90.107 Y87.745 E8.7063
G1 X90.75 Y87.592 E8.72829
G1 X91.727 Y87.428 E8.76124
G1 X92.387 Y87.362 E8.7833
G1 X93.347 Y87.328 E8.81525
G1 X94.008 Y87.348 E8.83724
G1 X94.999 Y87.445 E8.87036
G1 X95.654 Y87.554 E8.89244
G1 X96.527 Y87.76 E8.92228
G1 X97.193 Y87.289 E8.94941
G1 X97.575 Y87.036 E8.96465
G1 X99.059 Y86.118 E9.02269
G1 X99.436 Y85.9 E9.03717
G1 X100.973 Y85.07 E9.09527
G1 X101.368 Y84.871 E9.10998
G1 X102.948 Y84.136 E9.16794
G1 X103.362 Y83.959 E9.18292
G1 X104.988 Y83.32 E9.24102
G1 X105.41 Y83.169 E9.25593
G1 X107.07 Y82.63 E9.31398
G1 X107.489 Y82.507 E9.3285
G1 X109.178 Y82.067 E9.38655
G1 X109.624 Y81.966 E9.40176
G1 X111.337 Y81.631 E9.45982
G1 X111.769 Y81.559 E9.47438
G1 X113.498 Y81.326 E9.53241
G1 X113.939 Y81.28 E9.54716
G1 X115.679 Y81.151 E9.60519
G1 X116.133 Y81.132 E9.6203
G1 X117.877 Y81.11 E9.67831
G1 X118.305 Y81.117 E9.69255
G1 X120.049 Y81.196 E9.75062
G1 X120.507 Y81.231 E9.76589
G1 X122.242 Y81.418 E9.82393
G1 X122.677 Y81.478 E9.83854
G1 X124.4 Y81.768 E9.89665
G1 X124.846 Y81.857 E9.91178
G1 X126.543 Y82.251 E9.96972
G1 X126.963 Y82.362 E9.98417
G1 X128.637 Y82.856 E10.04222
G1 X129.065 Y82.996 E10.0572
G1 X130.706 Y83.591 E10.11526
G1 X131.122 Y83.756 E10.13014
G1 X132.724 Y84.449 E10.1882
G1 X133.121 Y84.635 E10.20278
G1 X134.68 Y85.422 E10.26086
G1 X135.078 Y85.639 E10.27594
G1 X136.584 Y86.519 E10.33395
G1 X136.959 Y86.753 E10.34866
G1 X138.411 Y87.722 E10.40672
G1 X138.769 Y87.977 E10.42134
G1 X139.557 Y88.573 E10.4542
G1 X140.451 Y88.399 E10.48449
G1 X141.129 Y88.315 E10.50721
G1 X142.115 Y88.259 E10.54006
G1 X142.794 Y88.266 E10.56264
G1 X143.81 Y88.347 E10.59654
G1 X144.487 Y88.448 E10.61931
G1 X145.485 Y88.668 E10.6533
G1 X146.137 Y88.86 E10.67591
G1 X147.083 Y89.21 E10.70946
G1 X147.701 Y89.488 E10.73199
G1 X148.573 Y89.953 E10.76486
G1 X149.155 Y90.315 E10.78766
G1 X149.977 Y90.908 E10.82137
G1 X150.498 Y91.341 E10.8439
G1 X151.233 Y92.043 E10.87771
G1 X151.694 Y92.548 E10.90045
G1 X152.327 Y93.345 E10.9343
G1 X152.725 Y93.924 E10.95767
G1 X153.212 Y94.74 E10.98928
G1 X153.516 Y95.333 E11.01144
G1 X153.906 Y96.237 E11.04419
G1 X154.136 Y96.886 E11.06709
G1 X154.408 Y97.862 E11.10079
G1 X154.548 Y98.54 E11.12381
G1 X154.685 Y99.552 E11.15778
G1 X154.73 Y100.239 E11.18068
G1 X154.727 Y101.249 E11.21427
G1 X154.678 Y101.937 E11.23721
G1 X154.532 Y102.965 E11.27175
G1 X154.387 Y103.64 E11.29471
G1 X154.1 Y104.631 E11.32902
G1 X153.863 Y105.278 E11.35194
G1 X153.455 Y106.196 E11.38535
G1 X153.132 Y106.806 E11.40831
G1 X152.587 Y107.681 E11.4426
G1 X152.542 Y107.743 E11.44515
G1 X152.731 Y108.415 E11.46836
G1 X152.834 Y108.826 E11.48246
G1 X153.201 Y110.491 E11.53916
G1 X153.281 Y110.915 E11.55352
G1 X153.55 Y112.597 E11.61017
G1 X153.607 Y113.032 E11.62476
G1 X153.776 Y114.728 E11.68145
G1 X153.806 Y115.158 E11.69579
G1 X153.876 Y116.86 E11.75244
G1 X153.881 Y117.286 E11.76661
G1 X153.853 Y118.989 E11.82326
G1 X153.832 Y119.436 E11.83815
G1 X153.701 Y121.135 E11.89482
G1 X153.656 Y121.56 E11.90904
G1 X153.427 Y123.249 E11.96573
G1 X153.355 Y123.684 E11.98039
G1 X153.026 Y125.356 E12.03707
G1 X152.929 Y125.781 E12.05157
G1 X152.502 Y127.431 E12.10826
G1 X152.382 Y127.844 E12.12256
G1 X152.13 Y128.628 E12.14995
G1 X152.625 Y129.478 E12.18267
G1 X152.931 Y130.096 E12.2056
G1 X153.329 Y131.069 E12.24057
G1 X153.545 Y131.726 E12.26357
G1 X153.794 Y132.703 E12.2971
G1 X153.919 Y133.385 E12.32017
G1 X154.033 Y134.396 E12.354
G1 X154.063 Y135.082 E12.37684
G1 X154.038 Y136.087 E12.41028
G1 X153.974 Y136.778 E12.43336
G1 X153.804 Y137.815 E12.46831
G1 X153.644 Y138.485 E12.49122
G1 X153.34 Y139.455 E12.52503
G1 X153.088 Y140.101 E12.5481
G1 X152.653 Y141.024 E12.58203
G1 X152.318 Y141.623 E12.60486
G1 X151.755 Y142.482 E12.63902
G1 X151.322 Y143.053 E12.66285
G1 X150.894 Y143.568 E12.68513
G1 X150.439 Y144.067 E12.70759
G1 X149.694 Y144.778 E12.74184
G1 X149.156 Y145.224 E12.76508
G1 X148.334 Y145.815 E12.79876
G1 X147.736 Y146.186 E12.82216
G1 X146.81 Y146.674 E12.85698
G1 X146.17 Y146.955 E12.88022
G1 X145.186 Y147.306 E12.91497
G1 X144.513 Y147.494 E12.93821
G1 X143.501 Y147.702 E12.97258
G1 X142.804 Y147.795 E12.99596
G1 X141.793 Y147.86 E13.02966
G1 X141.096 Y147.857 E13.05284
G1 X140.052 Y147.778 E13.08766
G1 X139.358 Y147.676 E13.11099
G1 X138.343 Y147.453 E13.14556
G1 X138.206 Y147.412 E13.15031
G1 X137.545 Y147.872 E13.1771
G1 X137.166 Y148.119 E13.19215
G1 X135.682 Y149.022 E13.24992
G1 X135.303 Y149.237 E13.26442
G1 X133.767 Y150.052 E13.32225
G1 X133.368 Y150.249 E13.33705
G1 X131.788 Y150.969 E13.3948
G1 X131.38 Y151.14 E13.40951
G1 X129.758 Y151.765 E13.46733
G1 X129.34 Y151.912 E13.48207
G1 X127.683 Y152.439 E13.5399
G1 X127.259 Y152.56 E13.55456
G1 X125.575 Y152.987 E13.61235
G1 X125.136 Y153.084 E13.6273
G1 X123.429 Y153.408 E13.68509
G1 X122.994 Y153.477 E13.69974
G1 X121.27 Y153.699 E13.75755
G1 X120.828 Y153.743 E13.77232
G1 X119.096 Y153.861 E13.83006
G1 X118.653 Y153.878 E13.84481
G1 X116.916 Y153.892 E13.90258
G1 X116.481 Y153.883 E13.91706
G1 X114.745 Y153.795 E13.97487
G1 X114.298 Y153.758 E13.98979
G1 X112.572 Y153.565 E14.04755
G1 X112.131 Y153.502 E14.06237
G1 X110.417 Y153.205 E14.12023
G1 X109.975 Y153.115 E14.13523
G1 X108.286 Y152.715 E14.19296
G1 X107.87 Y152.604 E14.20728
G1 X106.205 Y152.106 E14.26508
G1 X105.776 Y151.963 E14.28012
G1 X104.144 Y151.364 E14.33794
G1 X103.733 Y151.199 E14.35267
G1 X102.141 Y150.504 E14.41045
G1 X101.743 Y150.316 E14.42509
G1 X100.194 Y149.527 E14.48291
G1 X99.803 Y149.312 E14.49775
G1 X98.306 Y148.432 E14.5555
G1 X97.933 Y148.198 E14.57015
G1 X96.489 Y147.229 E14.62799
G1 X96.13 Y146.972 E14.64267
G1 X95.372 Y146.395 E14.67436
G1 X94.413 Y146.576 E14.70682
G1 X93.728 Y146.656 E14.72976
G1 X92.762 Y146.705 E14.76193
G1 X92.077 Y146.695 E14.78471
G1 X91.023 Y146.604 E14.8199
G1 X90.344 Y146.496 E14.84277
G1 X89.364 Y146.271 E14.87621
G1 X88.706 Y146.072 E14.89907
G1 X87.744 Y145.706 E14.93331
G1 X87.123 Y145.419 E14.95606
G1 X86.229 Y144.929 E14.98997
G1 X85.648 Y144.556 E15.01293
G1 X84.839 Y143.955 E15.04645
G1 X84.317 Y143.509 E15.06929
G1 X83.587 Y142.793 E15.1033
G1 X83.133 Y142.281 E15.12606
G1 X82.516 Y141.481 E15.15966
G1 X82.12 Y140.888 E15.18338
G1 X81.577 Y139.927 E15.22009
G1 X81.301 Y139.34 E15.24166
G1 X80.94 Y138.415 E15.27469
G1 X80.738 Y137.774 E15.29704
G1 X80.507 Y136.829 E15.3294
G1 X80.391 Y136.168 E15.35172
G1 X80.286 Y135.176 E15.3849
G1 X80.26 Y134.506 E15.4072
G1 X80.285 Y133.538 E15.43941
G1 X80.347 Y132.867 E15.46182
G1 X80.512 Y131.857 E15.49586
G1 X80.665 Y131.205 E15.51813
G1 X80.959 Y130.247 E15.55146
G1 X81.199 Y129.621 E15.57376
G1 X81.606 Y128.739 E15.60607
G1 X81.928 Y128.146 E15.62851
G1 X82.452 Y127.321 E15.66102
G1 X82.248 Y126.601 E15.68591
G1 X82.141 Y126.177 E15.70045
G1 X81.769 Y124.492 E15.75784
G1 X81.686 Y124.056 E15.77261
G1 X81.416 Y122.354 E15.82992
G1 X81.361 Y121.919 E15.84451
G1 X81.192 Y120.201 E15.90192
G1 X81.161 Y119.76 E15.91663
G1 X81.095 Y118.038 E15.97394
G1 X81.092 Y117.605 E15.98834
G1 X81.127 Y115.882 E16.04566
G1 X81.149 Y115.439 E16.06042
G1 X81.287 Y113.721 E16.11774
G1 X81.336 Y113.28 E16.1325
G1 X81.577 Y111.573 E16.18984
G1 X81.652 Y111.137 E16.20455
