;FLAVOR:Marlin
;TIME:1263
;Filament used: 0.90331m
;Layer height: 0.2
;MINX:63.567
;MINY:97.676
;MINZ:0.2
;MAXX:171.433
;MAXY:127.324
;MAXZ:4
;Generated with Cura_SteamEngine 4.1.0
M140 S50
M105
M190 S50
M104 S200
M105
M109 S200
M82 ;absolute extrusion mode
; Ender 3 Custom Start G-code
G28 ; Home all axes
M420 S1; Load bed leveling Mesh
G92 E0 ; Reset Extruder
G1 Z2.0 F3000 ; Move Z Axis up little to prevent scratching of Heat Bed
G1 X0.1 Y20 Z0.3 F5000.0 ; Move to start position
G1 X0.1 Y200.0 Z0.3 F1500.0 E15 ; Draw the first line
G1 X0.4 Y200.0 Z0.3 F5000.0 ; Move to side a little
G1 X0.4 Y20 Z0.3 F1500.0 E30 ; Draw the second line
G92 E0 ; Reset Extruder
G1 Z2.0 F3000 ; Move Z Axis up little to prevent scratching of Heat Bed
; End of custom start GCode
G92 E0
G92 E0
G1 F3600 E-8
;LAYER_COUNT:20
;LAYER:0
M107
M204 S500
M205 X10 Y10
G0 F3600 X67.237 Y98.859 Z0.2
;TYPE:SKIRT
G1 F3600 E0
G1 F1800 X67.928 Y98.475 E0.02629
G1 X68.653 Y98.163 E0.05254
G1 X69.406 Y97.926 E0.0788
G1 X70.18 Y97.767 E0.10508
G1 X70.965 Y97.686 E0.13133
G1 X71.367 Y97.676 E0.1447
G1 X163.633 Y97.676 E3.21348
G1 X164.422 Y97.716 E3.23976
G1 X165.202 Y97.835 E3.266
G1 X165.967 Y98.033 E3.29229
G1 X166.707 Y98.307 E3.31853
G1 X167.416 Y98.655 E3.3448
G1 X168.087 Y99.073 E3.37109
G1 X168.711 Y99.556 E3.39734
G1 X169.284 Y100.099 E3.42359
G1 X169.799 Y100.698 E3.44987
G1 X170.25 Y101.346 E3.47613
G1 X170.634 Y102.037 E3.50242
G1 X170.946 Y102.762 E3.52867
G1 X171.183 Y103.515 E3.55493
G1 X171.342 Y104.289 E3.58121
G1 X171.423 Y105.074 E3.60746
G1 X171.433 Y105.476 E3.62083
G1 X171.433 Y109.524 E3.75547
G1 X171.393 Y110.313 E3.78174
G1 X171.274 Y111.093 E3.80799
G1 X171.076 Y111.858 E3.83427
G1 X170.836 Y112.506 E3.85725
G1 X170.946 Y112.762 E3.86652
G1 X171.183 Y113.515 E3.89278
G1 X171.342 Y114.289 E3.91906
G1 X171.423 Y115.074 E3.94531
G1 X171.433 Y115.476 E3.95868
G1 X171.433 Y119.524 E4.09332
G1 X171.393 Y120.313 E4.11959
G1 X171.274 Y121.093 E4.14584
G1 X171.076 Y121.858 E4.17212
G1 X170.802 Y122.598 E4.19836
G1 X170.454 Y123.307 E4.22463
G1 X170.036 Y123.978 E4.25093
G1 X169.553 Y124.602 E4.27717
G1 X169.01 Y125.175 E4.30343
G1 X168.411 Y125.69 E4.3297
G1 X167.763 Y126.141 E4.35596
G1 X167.072 Y126.525 E4.38225
G1 X166.347 Y126.837 E4.40851
G1 X165.594 Y127.074 E4.43476
G1 X164.82 Y127.233 E4.46104
G1 X164.035 Y127.314 E4.48729
G1 X163.633 Y127.324 E4.50067
G1 X71.367 Y127.324 E7.56945
G1 X70.578 Y127.284 E7.59572
G1 X69.798 Y127.165 E7.62196
G1 X69.033 Y126.967 E7.64825
G1 X68.293 Y126.693 E7.67449
G1 X67.584 Y126.345 E7.70076
G1 X66.913 Y125.927 E7.72705
G1 X66.289 Y125.444 E7.7533
G1 X65.716 Y124.901 E7.77956
G1 X65.201 Y124.302 E7.80583
G1 X64.75 Y123.654 E7.83209
G1 X64.366 Y122.963 E7.85838
G1 X64.054 Y122.238 E7.88463
G1 X63.817 Y121.485 E7.91089
G1 X63.658 Y120.711 E7.93717
G1 X63.577 Y119.926 E7.96342
G1 X63.567 Y119.524 E7.97679
G1 X63.567 Y115.476 E8.11143
G1 X63.607 Y114.687 E8.13771
G1 X63.726 Y113.907 E8.16395
G1 X63.924 Y113.142 E8.19023
G1 X64.164 Y112.494 E8.21322
G1 X64.054 Y112.238 E8.22248
G1 X63.817 Y111.485 E8.24874
G1 X63.658 Y110.711 E8.27502
G1 X63.577 Y109.926 E8.30127
G1 X63.567 Y109.524 E8.31464
G1 X63.567 Y105.476 E8.44928
G1 X63.607 Y104.687 E8.47556
G1 X63.726 Y103.907 E8.5018
G1 X63.924 Y103.142 E8.52808
G1 X64.198 Y102.402 E8.55433
G1 X64.546 Y101.693 E8.58059
G1 X64.964 Y101.022 E8.60689
G1 X65.447 Y100.398 E8.63313
G1 X65.99 Y99.825 E8.65939
G1 X66.589 Y99.31 E8.68566
G1 X67.237 Y98.859 E8.71192
G0 F3600 X67.62 Y99.095
G1 F1800 X68.303 Y98.74 E8.73752
G1 X69.018 Y98.459 E8.76308
G1 X69.76 Y98.253 E8.78869
G1 X70.518 Y98.125 E8.81426
G1 X71.367 Y98.076 E8.84254
G1 X163.633 Y98.076 E11.91132
G1 X164.401 Y98.116 E11.9369
G1 X165.161 Y98.235 E11.96249
G1 X165.904 Y98.433 E11.98806
G1 X166.623 Y98.707 E12.01365
G1 X167.309 Y99.054 E12.03922
G1 X167.956 Y99.47 E12.0648
G1 X168.556 Y99.951 E12.09038
G1 X169.103 Y100.492 E12.11597
G1 X169.591 Y101.087 E12.14156
G1 X170.014 Y101.729 E12.16714
G1 X170.369 Y102.412 E12.19274
G1 X170.65 Y103.127 E12.21829
G1 X170.856 Y103.869 E12.2439
G1 X170.984 Y104.627 E12.26947
G1 X171.033 Y105.476 E12.29776
G1 X171.033 Y109.524 E12.43239
G1 X170.993 Y110.292 E12.45797
G1 X170.874 Y111.052 E12.48356
G1 X170.676 Y111.795 E12.50913
G1 X170.405 Y112.505 E12.53441
G1 X170.65 Y113.127 E12.55664
G1 X170.856 Y113.869 E12.58225
G1 X170.984 Y114.627 E12.60782
G1 X171.033 Y115.476 E12.63611
G1 X171.033 Y119.524 E12.77074
G1 X170.993 Y120.292 E12.79632
G1 X170.874 Y121.052 E12.82191
G1 X170.676 Y121.795 E12.84748
G1 X170.402 Y122.514 E12.87308
G1 X170.055 Y123.2 E12.89864
G1 X169.639 Y123.847 E12.92423
G1 X169.158 Y124.447 E12.94981
G1 X168.617 Y124.994 E12.97539
G1 X168.022 Y125.482 E13.00099
G1 X167.38 Y125.905 E13.02656
G1 X166.697 Y126.26 E13.05216
G1 X165.982 Y126.541 E13.07771
G1 X165.24 Y126.747 E13.10333
G1 X164.482 Y126.875 E13.12889
G1 X163.633 Y126.924 E13.15718
G1 X71.367 Y126.924 E16.22596
G1 X70.599 Y126.884 E16.25154
G1 X69.839 Y126.765 E16.27712
G1 X69.096 Y126.567 E16.3027
G1 X68.377 Y126.293 E16.32829
G1 X67.691 Y125.946 E16.35386
G1 X67.044 Y125.53 E16.37944
G1 X66.444 Y125.049 E16.40502
G1 X65.897 Y124.508 E16.43061
G1 X65.409 Y123.913 E16.4562
G1 X64.986 Y123.271 E16.48177
G1 X64.631 Y122.588 E16.50737
G1 X64.35 Y121.873 E16.53293
G1 X64.144 Y121.131 E16.55854
G1 X64.016 Y120.373 E16.58411
G1 X63.967 Y119.524 E16.61239
G1 X63.967 Y115.476 E16.74703
G1 X64.007 Y114.708 E16.77261
G1 X64.126 Y113.948 E16.79819
G1 X64.324 Y113.205 E16.82377
G1 X64.595 Y112.495 E16.84904
G1 X64.35 Y111.873 E16.87128
G1 X64.144 Y111.131 E16.89689
G1 X64.016 Y110.373 E16.92246
G1 X63.967 Y109.524 E16.95074
G1 X63.967 Y105.476 E17.08538
G1 X64.007 Y104.708 E17.11096
G1 X64.126 Y103.948 E17.13655
G1 X64.324 Y103.205 E17.16212
G1 X64.598 Y102.486 E17.18771
G1 X64.945 Y101.8 E17.21328
G1 X65.361 Y101.153 E17.23886
G1 X65.842 Y100.553 E17.26444
G1 X66.383 Y100.006 E17.29003
G1 X66.978 Y99.518 E17.31562
G1 X67.62 Y99.095 E17.3412
G0 F3600 X67.365 Y99.733
G1 F1800 X68.001 Y99.338 E17.3661
G1 X68.675 Y99.014 E17.39097
G1 X69.38 Y98.764 E17.41585
G1 X70.108 Y98.59 E17.44074
G1 X70.85 Y98.495 E17.46562
G1 X71.367 Y98.476 E17.48283
G1 X163.633 Y98.476 E20.55161
G1 X164.38 Y98.516 E20.57649
G1 X165.118 Y98.635 E20.60136
G1 X165.84 Y98.833 E20.62626
G1 X166.536 Y99.106 E20.65112
G1 X167.199 Y99.453 E20.67601
G1 X167.822 Y99.868 E20.70091
G1 X168.396 Y100.347 E20.72577
G1 X168.917 Y100.884 E20.75066
G1 X169.376 Y101.474 E20.77552
G1 X169.771 Y102.11 E20.80042
G1 X170.095 Y102.784 E20.8253
G1 X170.345 Y103.489 E20.85018
G1 X170.519 Y104.217 E20.87507
G1 X170.614 Y104.959 E20.89995
G1 X170.633 Y105.476 E20.91716
G1 X170.633 Y109.524 E21.0518
G1 X170.593 Y110.271 E21.07668
G1 X170.474 Y111.009 E21.10154
G1 X170.276 Y111.731 E21.12644
G1 X170.003 Y112.427 E21.15131
G1 X169.962 Y112.506 E21.15427
G1 X170.095 Y112.784 E21.16452
G1 X170.345 Y113.489 E21.1894
G1 X170.519 Y114.217 E21.21429
G1 X170.614 Y114.959 E21.23917
G1 X170.633 Y115.476 E21.25638
G1 X170.633 Y119.524 E21.39102
G1 X170.593 Y120.271 E21.4159
G1 X170.474 Y121.009 E21.44076
G1 X170.276 Y121.731 E21.46566
G1 X170.003 Y122.427 E21.49053
G1 X169.656 Y123.09 E21.51541
G1 X169.241 Y123.713 E21.54031
G1 X168.762 Y124.287 E21.56518
G1 X168.225 Y124.808 E21.59006
G1 X167.635 Y125.267 E21.61493
G1 X166.999 Y125.662 E21.63983
G1 X166.325 Y125.986 E21.6647
G1 X165.62 Y126.236 E21.68958
G1 X164.892 Y126.41 E21.71447
G1 X164.15 Y126.505 E21.73935
G1 X163.633 Y126.524 E21.75656
G1 X71.367 Y126.524 E24.82534
G1 X70.62 Y126.484 E24.85022
G1 X69.882 Y126.365 E24.87509
G1 X69.16 Y126.167 E24.89999
G1 X68.464 Y125.894 E24.92485
G1 X67.801 Y125.547 E24.94974
G1 X67.178 Y125.132 E24.97464
G1 X66.604 Y124.653 E24.9995
G1 X66.083 Y124.116 E25.02439
G1 X65.624 Y123.526 E25.04925
G1 X65.229 Y122.89 E25.07415
G1 X64.905 Y122.216 E25.09903
G1 X64.655 Y121.511 E25.12391
G1 X64.481 Y120.783 E25.1488
G1 X64.386 Y120.041 E25.17368
G1 X64.367 Y119.524 E25.19089
G1 X64.367 Y115.476 E25.32553
G1 X64.407 Y114.729 E25.35041
G1 X64.526 Y113.991 E25.37527
G1 X64.724 Y113.269 E25.40017
G1 X64.997 Y112.573 E25.42504
G1 X65.038 Y112.494 E25.428
G1 X64.905 Y112.216 E25.43825
G1 X64.655 Y111.511 E25.46313
G1 X64.481 Y110.783 E25.48802
G1 X64.386 Y110.041 E25.5129
G1 X64.367 Y109.524 E25.53011
G1 X64.367 Y105.476 E25.66475
G1 X64.407 Y104.729 E25.68963
G1 X64.526 Y103.991 E25.71449
G1 X64.724 Y103.269 E25.73939
G1 X64.997 Y102.573 E25.76426
G1 X65.344 Y101.91 E25.78914
G1 X65.759 Y101.287 E25.81404
G1 X66.238 Y100.713 E25.83891
G1 X66.775 Y100.192 E25.86379
G1 X67.365 Y99.733 E25.88866
G0 F3600 X67.751 Y99.955
G1 F1800 X68.38 Y99.591 E25.91283
G1 X69.045 Y99.298 E25.937
G1 X69.738 Y99.08 E25.96116
G1 X70.45 Y98.94 E25.98529
G1 X71.367 Y98.876 E26.01587
G1 X163.633 Y98.876 E29.08465
G1 X164.358 Y98.916 E29.1088
G1 X165.075 Y99.035 E29.13297
G1 X165.774 Y99.233 E29.15714
G1 X166.447 Y99.506 E29.18129
G1 X167.086 Y99.851 E29.20544
G1 X167.683 Y100.265 E29.22961
G1 X168.231 Y100.741 E29.25375
G1 X168.724 Y101.275 E29.27792
G1 X169.154 Y101.86 E29.30207
G1 X169.518 Y102.489 E29.32624
G1 X169.811 Y103.154 E29.35041
G1 X170.029 Y103.847 E29.37457
G1 X170.169 Y104.559 E29.39871
G1 X170.233 Y105.476 E29.42928
G1 X170.233 Y109.524 E29.56392
G1 X170.193 Y110.249 E29.58807
G1 X170.074 Y110.966 E29.61224
G1 X169.876 Y111.665 E29.63641
G1 X169.603 Y112.338 E29.66056
G1 X169.52 Y112.493 E29.66641
G1 X169.811 Y113.154 E29.69043
G1 X170.029 Y113.847 E29.71459
G1 X170.169 Y114.559 E29.73873
G1 X170.233 Y115.476 E29.7693
G1 X170.233 Y119.524 E29.90394
G1 X170.193 Y120.249 E29.92809
G1 X170.074 Y120.966 E29.95226
G1 X169.876 Y121.665 E29.97643
G1 X169.603 Y122.338 E30.00058
G1 X169.258 Y122.977 E30.02474
G1 X168.844 Y123.574 E30.0489
G1 X168.368 Y124.122 E30.07304
G1 X167.834 Y124.615 E30.09721
G1 X167.249 Y125.045 E30.12136
G1 X166.62 Y125.409 E30.14553
G1 X165.955 Y125.702 E30.1697
G1 X165.262 Y125.92 E30.19387
G1 X164.55 Y126.06 E30.218
G1 X163.633 Y126.124 E30.24857
G1 X71.367 Y126.124 E33.31735
G1 X70.642 Y126.084 E33.3415
G1 X69.925 Y125.965 E33.36568
G1 X69.226 Y125.767 E33.38984
G1 X68.553 Y125.494 E33.414
G1 X67.914 Y125.149 E33.43815
G1 X67.317 Y124.735 E33.46231
G1 X66.769 Y124.259 E33.48646
G1 X66.276 Y123.725 E33.51063
G1 X65.846 Y123.14 E33.53478
G1 X65.482 Y122.511 E33.55895
G1 X65.189 Y121.846 E33.58312
G1 X64.971 Y121.153 E33.60728
G1 X64.831 Y120.441 E33.63142
G1 X64.767 Y119.524 E33.66199
G1 X64.767 Y115.476 E33.79663
G1 X64.807 Y114.751 E33.82078
G1 X64.926 Y114.034 E33.84495
G1 X65.124 Y113.335 E33.86911
G1 X65.397 Y112.662 E33.89327
G1 X65.48 Y112.507 E33.89912
G1 X65.189 Y111.846 E33.92314
G1 X64.971 Y111.153 E33.9473
G1 X64.831 Y110.441 E33.97144
G1 X64.767 Y109.524 E34.00201
G1 X64.767 Y105.476 E34.13665
G1 X64.807 Y104.751 E34.1608
G1 X64.926 Y104.034 E34.18497
G1 X65.124 Y103.335 E34.20913
G1 X65.397 Y102.662 E34.23329
G1 X65.742 Y102.023 E34.25744
G1 X66.156 Y101.426 E34.28161
G1 X66.632 Y100.878 E34.30575
G1 X67.166 Y100.385 E34.32992
G1 X67.751 Y99.955 E34.35407
G0 F3600 X68.135 Y100.185
G1 F1800 X68.756 Y99.853 E34.37749
G1 X69.41 Y99.593 E34.4009
G1 X70.09 Y99.409 E34.42433
G1 X70.786 Y99.303 E34.44774
G1 X71.367 Y99.276 E34.46709
G1 X163.633 Y99.276 E37.53587
G1 X164.336 Y99.316 E37.55929
G1 X165.03 Y99.435 E37.58271
G1 X165.705 Y99.633 E37.60611
G1 X166.354 Y99.905 E37.62951
G1 X166.968 Y100.25 E37.65293
G1 X167.539 Y100.661 E37.67633
G1 X168.06 Y101.135 E37.69976
G1 X168.524 Y101.665 E37.72319
G1 X168.924 Y102.244 E37.7466
G1 X169.256 Y102.865 E37.77002
G1 X169.516 Y103.519 E37.79343
G1 X169.7 Y104.199 E37.81686
G1 X169.806 Y104.895 E37.84027
G1 X169.833 Y105.476 E37.85962
G1 X169.833 Y109.524 E37.99425
G1 X169.793 Y110.227 E38.01767
G1 X169.674 Y110.921 E38.04109
G1 X169.476 Y111.596 E38.06449
G1 X169.204 Y112.245 E38.08789
G1 X169.061 Y112.5 E38.09762
G1 X169.256 Y112.865 E38.11138
G1 X169.516 Y113.519 E38.13479
G1 X169.7 Y114.199 E38.15822
G1 X169.806 Y114.895 E38.18164
G1 X169.833 Y115.476 E38.20098
G1 X169.833 Y119.524 E38.33562
G1 X169.793 Y120.227 E38.35904
G1 X169.674 Y120.921 E38.38246
G1 X169.476 Y121.596 E38.40585
G1 X169.204 Y122.245 E38.42926
G1 X168.859 Y122.859 E38.45268
G1 X168.448 Y123.43 E38.47608
G1 X167.974 Y123.951 E38.49951
G1 X167.444 Y124.415 E38.52294
G1 X166.865 Y124.815 E38.54635
G1 X166.244 Y125.147 E38.56977
G1 X165.59 Y125.407 E38.59317
G1 X164.91 Y125.591 E38.6166
G1 X164.214 Y125.697 E38.64002
G1 X163.633 Y125.724 E38.65937
G1 X71.367 Y125.724 E41.72815
G1 X70.664 Y125.684 E41.75157
G1 X69.97 Y125.565 E41.77498
G1 X69.295 Y125.367 E41.79838
G1 X68.646 Y125.095 E41.82179
G1 X68.032 Y124.75 E41.84521
G1 X67.461 Y124.339 E41.86861
G1 X66.94 Y123.865 E41.89204
G1 X66.476 Y123.335 E41.91547
G1 X66.076 Y122.756 E41.93887
G1 X65.744 Y122.135 E41.96229
G1 X65.484 Y121.481 E41.9857
G1 X65.3 Y120.801 E42.00913
G1 X65.194 Y120.105 E42.03255
G1 X65.167 Y119.524 E42.05189
G1 X65.167 Y115.476 E42.18653
G1 X65.207 Y114.773 E42.20995
G1 X65.326 Y114.079 E42.23337
G1 X65.524 Y113.404 E42.25677
G1 X65.796 Y112.755 E42.28017
G1 X65.939 Y112.5 E42.28989
G1 X65.744 Y112.135 E42.30366
G1 X65.484 Y111.481 E42.32707
G1 X65.3 Y110.801 E42.3505
G1 X65.194 Y110.105 E42.37391
G1 X65.167 Y109.524 E42.39326
G1 X65.167 Y105.476 E42.52789
G1 X65.207 Y104.773 E42.55131
G1 X65.326 Y104.079 E42.57473
G1 X65.524 Y103.404 E42.59813
G1 X65.796 Y102.755 E42.62154
G1 X66.141 Y102.141 E42.64496
G1 X66.552 Y101.57 E42.66836
G1 X67.026 Y101.049 E42.69179
G1 X67.556 Y100.585 E42.71522
G1 X68.135 Y100.185 E42.73862
G0 F3600 X68.517 Y100.424
G1 F1800 X69.129 Y100.125 E42.76128
G1 X69.771 Y99.9 E42.7839
G1 X70.436 Y99.751 E42.80657
G1 X71.367 Y99.676 E42.83763
G1 X163.633 Y99.676 E45.90641
G1 X164.313 Y99.716 E45.92907
G1 X164.983 Y99.835 E45.9517
G1 X165.635 Y100.032 E45.97436
G1 X166.259 Y100.304 E45.997
G1 X166.847 Y100.648 E46.01966
G1 X167.391 Y101.058 E46.04231
G1 X167.882 Y101.529 E46.06494
G1 X168.316 Y102.054 E46.0876
G1 X168.685 Y102.626 E46.11024
G1 X168.984 Y103.238 E46.13289
G1 X169.209 Y103.88 E46.15552
G1 X169.358 Y104.545 E46.17818
G1 X169.433 Y105.476 E46.20925
G1 X169.433 Y109.524 E46.34389
G1 X169.393 Y110.204 E46.36654
G1 X169.274 Y110.874 E46.38918
G1 X169.077 Y111.526 E46.41183
G1 X168.805 Y112.15 E46.43447
G1 X168.602 Y112.497 E46.44784
G1 X168.685 Y112.626 E46.45294
G1 X168.984 Y113.238 E46.4756
G1 X169.209 Y113.88 E46.49822
G1 X169.358 Y114.545 E46.52089
G1 X169.433 Y115.476 E46.55196
G1 X169.433 Y119.524 E46.68659
G1 X169.393 Y120.204 E46.70925
G1 X169.274 Y120.874 E46.73188
G1 X169.077 Y121.526 E46.75454
G1 X168.805 Y122.15 E46.77718
G1 X168.461 Y122.738 E46.79983
G1 X168.051 Y123.282 E46.82249
G1 X167.58 Y123.773 E46.84512
G1 X167.055 Y124.207 E46.86778
G1 X166.483 Y124.576 E46.89042
G1 X165.871 Y124.875 E46.91307
G1 X165.229 Y125.1 E46.9357
G1 X164.564 Y125.249 E46.95836
G1 X163.633 Y125.324 E46.98943
G1 X71.367 Y125.324 E50.05821
G1 X70.687 Y125.284 E50.08087
G1 X70.017 Y125.165 E50.1035
G1 X69.365 Y124.968 E50.12615
G1 X68.741 Y124.696 E50.14879
G1 X68.153 Y124.352 E50.17145
G1 X67.609 Y123.942 E50.19411
G1 X67.118 Y123.471 E50.21674
G1 X66.684 Y122.946 E50.23939
G1 X66.315 Y122.374 E50.26203
G1 X66.016 Y121.762 E50.28469
G1 X65.791 Y121.12 E50.30731
G1 X65.642 Y120.455 E50.32998
G1 X65.567 Y119.524 E50.36105
G1 X65.567 Y115.476 E50.49568
G1 X65.607 Y114.796 E50.51834
G1 X65.726 Y114.126 E50.54097
G1 X65.923 Y113.474 E50.56363
G1 X66.195 Y112.85 E50.58627
G1 X66.398 Y112.503 E50.59964
G1 X66.315 Y112.374 E50.60474
G1 X66.016 Y111.762 E50.62739
G1 X65.791 Y111.12 E50.65002
G1 X65.642 Y110.455 E50.67269
G1 X65.567 Y109.524 E50.70375
G1 X65.567 Y105.476 E50.83839
G1 X65.607 Y104.796 E50.86104
G1 X65.726 Y104.126 E50.88368
G1 X65.923 Y103.474 E50.90633
G1 X66.195 Y102.85 E50.92897
G1 X66.539 Y102.262 E50.95163
G1 X66.949 Y101.718 E50.97429
G1 X67.42 Y101.227 E50.99692
G1 X67.945 Y100.793 E51.01957
G1 X68.517 Y100.424 E51.04221
G0 F3600 X68.332 Y101.01
G1 F1800 X68.896 Y100.674 E51.06405
G1 X69.498 Y100.41 E51.08591
