;FLAVOR:Marlin
;TIME:941
;Filament used: 0.307137m
;Layer height: 0.12
;MINX:100.427
;MINY:99.182
;MINZ:0.2
;MAXX:134.6
;MAXY:135.815
;MAXZ:7.76
;Generated with Cura_SteamEngine 4.2.1
M140 S70
M105
M190 S70
M104 S210
M105
M109 S210
M82 ;absolute extrusion mode
; Ender 3 Custom Start G-code
G28 ; Home all axes
M420 S1
G92 E0 ; Reset Extruder
G1 Z2.0 F3000 ; Move Z Axis up little to prevent scratching of Heat Bed
G1 X0.1 Y20 Z0.3 F5000.0 ; Move to start position
G1 X0.1 Y200.0 Z0.3 F1500.0 E15 ; Draw the first line
G1 X0.4 Y200.0 Z0.3 F5000.0 ; Move to side a little
G1 X0.4 Y20 Z0.3 F1500.0 E30 ; Draw the second line
G92 E0 ; Reset Extruder
G1 Z2.0 F3000 ; Move Z Axis up little to prevent scratching of Heat Bed
G92 E0
G92 E0
G1 F3000 E-8
;LAYER_COUNT:64
;LAYER:0
M107
M204 S500
M205 X8 Y8
G0 F6000 X103.844 Y102.627 Z0.2
;TYPE:SKIRT
G1 F3000 E0
G1 F1200 X104.54 Y101.973 E0.03177
G1 X105.288 Y101.38 E0.06351
G1 X106.083 Y100.852 E0.09526
G1 X106.92 Y100.392 E0.12702
G1 X107.792 Y100.003 E0.15878
G1 X108.694 Y99.689 E0.19055
G1 X109.618 Y99.451 E0.22228
G1 X110.56 Y99.292 E0.25406
G1 X111.762 Y99.204 E0.29414
G1 X112.412 Y99.191 E0.31576
G1 X112.615 Y99.189 E0.32252
G1 X115.829 Y99.182 E0.42942
G1 X115.861 Y99.182 E0.43048
G1 X122.492 Y99.186 E0.65103
G1 X122.647 Y99.187 E0.65618
G1 X123.352 Y99.197 E0.67963
G1 X124.305 Y99.251 E0.71138
G1 X125.25 Y99.384 E0.74312
G1 X126.181 Y99.595 E0.77487
G1 X127.091 Y99.884 E0.80663
G1 X127.974 Y100.248 E0.8384
G1 X128.823 Y100.685 E0.87015
G1 X129.633 Y101.191 E0.90192
G1 X130.397 Y101.763 E0.93366
G1 X131.111 Y102.397 E0.96542
G1 X131.769 Y103.089 E0.99718
G1 X132.367 Y103.833 E1.02893
G1 X132.901 Y104.625 E1.0607
G1 X133.367 Y105.458 E1.09245
G1 X133.761 Y106.328 E1.12421
G1 X134.081 Y107.228 E1.15598
G1 X134.325 Y108.151 E1.18774
G1 X134.49 Y109.091 E1.21948
G1 X134.585 Y110.258 E1.25842
G1 X134.595 Y110.595 E1.26963
G1 X134.6 Y110.933 E1.28088
G1 X134.6 Y123.679 E1.70481
G1 X134.599 Y123.82 E1.7095
G1 X134.59 Y124.547 E1.73368
G1 X134.538 Y125.5 E1.76543
G1 X134.407 Y126.446 E1.79719
G1 X134.197 Y127.378 E1.82897
G1 X133.91 Y128.288 E1.8607
G1 X133.547 Y129.171 E1.89246
G1 X133.112 Y130.021 E1.92422
G1 X132.607 Y130.832 E1.95599
G1 X132.037 Y131.597 E1.98772
G1 X131.404 Y132.312 E2.01948
G1 X130.714 Y132.972 E2.05124
G1 X129.97 Y133.571 E2.08301
G1 X129.18 Y134.106 E2.11474
G1 X128.347 Y134.573 E2.14651
G1 X127.478 Y134.969 E2.17827
G1 X126.579 Y135.291 E2.21003
G1 X125.656 Y135.536 E2.24179
G1 X124.716 Y135.703 E2.27355
G1 X123.506 Y135.802 E2.31393
G1 X123.18 Y135.811 E2.32477
G1 X122.865 Y135.815 E2.33525
G1 X112.669 Y135.815 E2.67437
G1 X112.491 Y135.814 E2.68029
G1 X111.849 Y135.804 E2.70165
G1 X110.896 Y135.749 E2.7334
G1 X109.951 Y135.614 E2.76515
G1 X109.02 Y135.401 E2.79691
G1 X108.111 Y135.111 E2.82865
G1 X107.229 Y134.746 E2.86039
G1 X106.38 Y134.308 E2.89217
G1 X105.746 Y133.919 E2.91691
G1 X105.643 Y133.851 E2.92101
G1 X104.869 Y133.292 E2.95277
G1 X104.144 Y132.67 E2.98454
G1 X103.474 Y131.99 E3.01629
G1 X102.864 Y131.256 E3.04803
G1 X102.317 Y130.473 E3.0798
G1 X101.837 Y129.648 E3.11155
G1 X101.428 Y128.785 E3.14331
G1 X101.092 Y127.891 E3.17508
G1 X100.758 Y126.635 E3.2183
G1 X100.68 Y126.256 E3.23117
G1 X100.527 Y125.314 E3.26292
G1 X100.454 Y124.393 E3.29364
G1 X100.435 Y123.895 E3.31022
G1 X100.427 Y123.46 E3.32469
G1 X100.427 Y112.214 E3.69873
G1 X100.429 Y111.984 E3.70638
G1 X100.454 Y110.746 E3.74757
G1 X100.564 Y109.385 E3.79298
G1 X100.595 Y109.165 E3.80037
G1 X100.767 Y108.226 E3.83212
G1 X101.018 Y107.305 E3.86387
G1 X101.345 Y106.408 E3.89563
G1 X101.746 Y105.541 E3.9274
G1 X102.217 Y104.711 E3.95914
G1 X102.521 Y104.251 E3.97748
G1 X102.628 Y104.097 E3.98372
G1 X103.205 Y103.337 E4.01545
G1 X103.844 Y102.627 E4.04722
G0 F6000 X104.153 Y102.883
G1 F1200 X104.839 Y102.244 E4.07841
G1 X105.577 Y101.665 E4.1096
G1 X106.362 Y101.151 E4.14081
G1 X107.187 Y100.706 E4.17199
G1 X108.048 Y100.333 E4.2032
G1 X108.937 Y100.034 E4.23439
G1 X109.848 Y99.813 E4.26557
G1 X110.775 Y99.669 E4.29677
G1 X111.77 Y99.604 E4.32994
G1 X112.42 Y99.591 E4.35156
G1 X112.616 Y99.589 E4.35808
G1 X115.83 Y99.582 E4.46498
G1 X115.861 Y99.582 E4.46601
G1 X122.492 Y99.586 E4.68656
G1 X122.641 Y99.587 E4.69152
G1 X123.346 Y99.597 E4.71497
G1 X124.282 Y99.65 E4.74615
G1 X125.211 Y99.783 E4.77736
G1 X126.125 Y99.995 E4.80857
G1 X127.017 Y100.283 E4.83974
G1 X127.881 Y100.647 E4.87093
G1 X128.712 Y101.082 E4.90212
G1 X129.502 Y101.587 E4.93331
G1 X130.247 Y102.158 E4.96453
G1 X130.94 Y102.79 E4.99572
G1 X131.577 Y103.478 E5.02691
G1 X132.153 Y104.218 E5.0581
G1 X132.663 Y105.005 E5.08929
G1 X133.105 Y105.832 E5.12048
G1 X133.475 Y106.694 E5.15168
G1 X133.77 Y107.585 E5.18289
G1 X133.988 Y108.497 E5.21408
G1 X134.127 Y109.424 E5.24526
G1 X134.185 Y110.27 E5.27346
G1 X134.195 Y110.607 E5.28468
G1 X134.2 Y110.933 E5.29552
G1 X134.2 Y123.679 E5.71945
G1 X134.199 Y123.815 E5.72398
G1 X134.19 Y124.542 E5.74816
G1 X134.139 Y125.479 E5.77937
G1 X134.007 Y126.407 E5.81055
G1 X133.798 Y127.321 E5.84173
G1 X133.511 Y128.214 E5.87293
G1 X133.149 Y129.08 E5.90415
G1 X132.715 Y129.911 E5.93533
G1 X132.211 Y130.702 E5.96652
G1 X131.642 Y131.447 E5.9977
G1 X131.011 Y132.142 E6.02893
G1 X130.324 Y132.78 E6.06011
G1 X129.585 Y133.357 E6.09129
G1 X128.799 Y133.869 E6.12249
G1 X127.973 Y134.312 E6.15367
G1 X127.111 Y134.684 E6.18489
G1 X126.222 Y134.98 E6.21606
G1 X125.31 Y135.2 E6.24726
G1 X124.383 Y135.341 E6.27845
G1 X123.495 Y135.402 E6.30805
G1 X123.169 Y135.411 E6.3189
G1 X122.865 Y135.415 E6.32901
G1 X112.669 Y135.415 E6.66813
G1 X112.498 Y135.414 E6.67382
G1 X111.856 Y135.404 E6.69517
G1 X110.919 Y135.349 E6.72639
G1 X109.991 Y135.215 E6.75758
G1 X109.078 Y135.002 E6.78876
G1 X108.186 Y134.713 E6.81995
G1 X107.322 Y134.348 E6.85114
G1 X106.492 Y133.911 E6.88234
G1 X105.966 Y133.585 E6.90292
G1 X105.863 Y133.517 E6.90703
G1 X105.104 Y132.967 E6.9382
G1 X104.393 Y132.355 E6.96941
G1 X103.738 Y131.684 E7.00059
G1 X103.141 Y130.96 E7.0318
G1 X102.609 Y130.188 E7.06299
G1 X102.145 Y129.373 E7.09418
G1 X101.751 Y128.522 E7.12537
G1 X101.432 Y127.64 E7.15657
G1 X101.15 Y126.554 E7.19388
G1 X101.072 Y126.175 E7.20675
G1 X100.922 Y125.25 E7.23792
G1 X100.854 Y124.377 E7.26705
G1 X100.835 Y123.879 E7.28362
G1 X100.827 Y123.46 E7.29756
G1 X100.827 Y112.214 E7.6716
G1 X100.829 Y111.992 E7.67899
G1 X100.854 Y110.754 E7.72017
G1 X100.96 Y109.441 E7.76398
G1 X100.991 Y109.221 E7.77137
G1 X101.161 Y108.299 E7.80256
G1 X101.409 Y107.394 E7.83377
G1 X101.734 Y106.515 E7.86494
G1 X102.132 Y105.665 E7.89615
G1 X102.849 Y104.479 E7.94225
G1 X102.956 Y104.325 E7.94849
G1 X103.524 Y103.579 E7.97967
G1 X104.153 Y102.883 E8.01087
G0 F6000 X104.462 Y103.14
G1 F1200 X105.138 Y102.515 E8.04149
G1 X105.865 Y101.951 E8.0721
G1 X106.639 Y101.452 E8.10273
G1 X107.453 Y101.022 E8.13335
G1 X108.302 Y100.664 E8.16399
G1 X109.178 Y100.382 E8.1946
G1 X110.075 Y100.176 E8.22521
G1 X110.987 Y100.05 E8.25583
G1 X111.778 Y100.004 E8.28219
G1 X112.428 Y99.991 E8.30381
G1 X112.617 Y99.989 E8.3101
G1 X115.831 Y99.982 E8.41699
G1 X115.86 Y99.982 E8.41796
G1 X122.491 Y99.986 E8.63851
G1 X122.635 Y99.987 E8.6433
G1 X123.34 Y99.997 E8.66675
G1 X124.259 Y100.05 E8.69736
G1 X125.171 Y100.183 E8.72802
G1 X126.067 Y100.394 E8.75863
G1 X126.941 Y100.682 E8.78924
G1 X127.787 Y101.045 E8.81986
G1 X128.599 Y101.48 E8.8505
G1 X129.369 Y101.983 E8.88109
G1 X130.093 Y102.552 E8.91172
G1 X130.765 Y103.181 E8.94233
G1 X131.38 Y103.867 E8.97297
G1 X131.933 Y104.603 E9.00359
G1 X132.42 Y105.384 E9.03421
G1 X132.838 Y106.205 E9.06485
G1 X133.182 Y107.058 E9.09544
G1 X133.452 Y107.939 E9.12609
G1 X133.643 Y108.839 E9.15669
G1 X133.756 Y109.753 E9.18732
G1 X133.785 Y110.282 E9.20494
G1 X133.795 Y110.619 E9.21615
G1 X133.8 Y110.933 E9.2266
G1 X133.8 Y123.679 E9.65053
G1 X133.799 Y123.81 E9.65489
G1 X133.79 Y124.537 E9.67907
G1 X133.739 Y125.456 E9.70968
G1 X133.608 Y126.368 E9.74033
G1 X133.398 Y127.264 E9.77094
G1 X133.112 Y128.139 E9.80155
G1 X132.751 Y128.986 E9.83218
G1 X132.317 Y129.798 E9.8628
G1 X131.815 Y130.57 E9.89343
G1 X131.247 Y131.295 E9.92406
G1 X130.619 Y131.968 E9.95468
G1 X129.935 Y132.584 E9.98529
G1 X129.2 Y133.138 E10.01591
G1 X128.42 Y133.627 E10.04653
G1 X127.6 Y134.046 E10.07715
G1 X126.747 Y134.392 E10.10777
G1 X125.867 Y134.663 E10.13839
G1 X124.967 Y134.856 E10.16901
G1 X124.053 Y134.971 E10.19965
G1 X123.484 Y135.002 E10.2186
G1 X123.158 Y135.011 E10.22945
G1 X122.865 Y135.015 E10.23919
G1 X112.669 Y135.015 E10.57831
G1 X112.504 Y135.014 E10.5838
G1 X111.862 Y135.004 E10.60516
G1 X110.943 Y134.949 E10.63578
G1 X110.032 Y134.816 E10.6664
G1 X109.136 Y134.603 E10.69703
G1 X108.262 Y134.314 E10.72765
G1 X107.417 Y133.95 E10.75825
G1 X106.606 Y133.514 E10.78888
G1 X106.187 Y133.251 E10.80533
G1 X106.084 Y133.183 E10.80943
G1 X105.338 Y132.643 E10.84006
G1 X104.642 Y132.04 E10.87069
G1 X104.001 Y131.379 E10.90132
G1 X103.42 Y130.665 E10.93193
G1 X102.903 Y129.904 E10.96253
G1 X102.454 Y129.1 E10.99316
G1 X102.077 Y128.26 E11.02379
G1 X101.773 Y127.391 E11.05441
G1 X101.542 Y126.474 E11.08586
G1 X101.464 Y126.095 E11.09873
G1 X101.317 Y125.186 E11.12936
G1 X101.254 Y124.362 E11.15684
G1 X101.235 Y123.864 E11.17342
G1 X101.227 Y123.46 E11.18686
G1 X101.227 Y112.214 E11.5609
G1 X101.229 Y112 E11.56802
G1 X101.254 Y110.762 E11.6092
G1 X101.356 Y109.497 E11.65141
G1 X101.387 Y109.277 E11.6588
G1 X101.555 Y108.372 E11.68942
G1 X101.8 Y107.485 E11.72002
G1 X102.122 Y106.622 E11.75066
G1 X102.518 Y105.791 E11.78128
G1 X103.178 Y104.708 E11.82346
G1 X103.285 Y104.554 E11.8297
G1 X103.843 Y103.821 E11.86034
G1 X104.462 Y103.14 E11.89095
G0 F6000 X104.77 Y103.397
G1 F1200 X105.436 Y102.787 E11.92098
G1 X106.153 Y102.237 E11.95104
G1 X106.915 Y101.754 E11.98105
G1 X107.718 Y101.34 E12.0111
G1 X108.554 Y100.998 E12.04114
G1 X109.417 Y100.732 E12.07117
G1 X110.3 Y100.543 E12.10121
G1 X111.196 Y100.433 E12.13123
G1 X111.786 Y100.404 E12.15088
G1 X112.436 Y100.391 E12.1725
G1 X112.618 Y100.389 E12.17856
G1 X115.832 Y100.382 E12.28545
G1 X115.86 Y100.382 E12.28639
G1 X122.491 Y100.386 E12.50693
G1 X122.63 Y100.387 E12.51156
G1 X123.335 Y100.397 E12.53501
G1 X124.236 Y100.45 E12.56503
G1 X125.13 Y100.582 E12.59508
G1 X126.008 Y100.793 E12.62512
G1 X126.864 Y101.081 E12.65516
G1 X127.691 Y101.443 E12.68518
G1 X128.483 Y101.877 E12.71522
G1 X129.234 Y102.379 E12.74527
G1 X129.937 Y102.946 E12.7753
G1 X130.587 Y103.573 E12.80534
G1 X131.179 Y104.255 E12.83538
G1 X131.709 Y104.986 E12.86541
G1 X132.172 Y105.762 E12.89547
G1 X132.564 Y106.575 E12.92549
G1 X132.883 Y107.42 E12.95553
G1 X133.126 Y108.29 E12.98557
G1 X133.291 Y109.178 E13.01561
G1 X133.386 Y110.293 E13.05283
G1 X133.396 Y110.63 E13.06404
G1 X133.4 Y110.933 E13.07412
G1 X133.4 Y123.679 E13.49806
G1 X133.399 Y123.805 E13.50225
G1 X133.39 Y124.532 E13.52643
G1 X133.339 Y125.434 E13.55648
G1 X133.208 Y126.328 E13.58653
G1 X132.999 Y127.206 E13.61655
G1 X132.713 Y128.063 E13.6466
G1 X132.352 Y128.891 E13.67664
G1 X131.92 Y129.683 E13.70665
G1 X131.419 Y130.435 E13.7367
G1 X130.853 Y131.139 E13.76674
G1 X130.228 Y131.79 E13.79676
G1 X129.547 Y132.384 E13.82682
G1 X128.816 Y132.915 E13.85687
G1 X128.042 Y133.379 E13.88688
G1 X127.229 Y133.773 E13.91693
G1 X126.385 Y134.093 E13.94695
G1 X125.515 Y134.338 E13.97701
G1 X124.628 Y134.504 E14.00703
G1 X123.472 Y134.602 E14.04561
G1 X123.146 Y134.611 E14.05646
G1 X122.865 Y134.615 E14.06581
G1 X112.669 Y134.615 E14.40493
G1 X112.51 Y134.614 E14.41022
G1 X111.868 Y134.604 E14.43157
G1 X110.967 Y134.55 E14.46159
G1 X110.073 Y134.416 E14.49166
G1 X109.196 Y134.204 E14.52167
G1 X108.34 Y133.915 E14.55172
G1 X107.513 Y133.552 E14.58176
G1 X106.407 Y132.917 E14.62418
G1 X106.304 Y132.849 E14.62828
G1 X105.573 Y132.319 E14.65831
G1 X104.892 Y131.726 E14.68835
G1 X104.266 Y131.075 E14.71838
G1 X103.7 Y130.371 E14.74843
G1 X103.199 Y129.62 E14.77846
G1 X102.766 Y128.828 E14.80848
G1 X102.404 Y128 E14.83853
G1 X102.118 Y127.143 E14.86858
G1 X101.933 Y126.393 E14.89428
G1 X101.855 Y126.014 E14.90715
G1 X101.713 Y125.122 E14.93719
G1 X101.653 Y124.347 E14.96304
G1 X101.634 Y123.849 E14.97962
G1 X101.627 Y123.46 E14.99256
G1 X101.627 Y112.214 E15.3666
G1 X101.629 Y112.008 E15.37345
G1 X101.654 Y110.77 E15.41464
G1 X101.752 Y109.553 E15.45525
G1 X101.783 Y109.333 E15.46263
G1 X101.948 Y108.445 E15.49268
G1 X102.192 Y107.575 E15.52273
G1 X102.511 Y106.731 E15.55274
G1 X102.904 Y105.917 E15.5828
G1 X103.506 Y104.936 E15.62108
G1 X103.613 Y104.782 E15.62732
G1 X104.161 Y104.064 E15.65736
G1 X104.77 Y103.397 E15.6874
G1 F3000 E7.6874
;MESH:VZ200_Resetschalter70%.stl
G0 F6000 X111.228 Y110.586
G0 X112.253 Y111.006
G0 X112.429 Y111.19
;TYPE:WALL-INNER
G1 F3000 E15.6874
G1 F1200 X115.855 Y111.182 E15.80135
G1 X122.6 Y111.186 E16.02569
G1 X122.6 Y123.815 E16.44573
G1 X115.59 Y123.818 E16.67889
G1 X112.429 Y123.814 E16.78402
G1 X112.427 Y123.776 E16.78529
G1 X112.429 Y111.19 E17.2039
G0 F6000 X112.027 Y111.213
;TYPE:WALL-OUTER
G1 F1200 X112.036 Y110.999 E17.21102
G1 X112.073 Y110.791 E17.21805
G1 X115.854 Y110.782 E17.34381
G1 X123 Y110.786 E17.58149
G1 X123 Y124.215 E18.02814
G1 X115.59 Y124.218 E18.27459
G1 X112.075 Y124.214 E18.3915
G1 X112.067 Y124.192 E18.39228
G1 X112.054 Y124.135 E18.39423
G1 X112.037 Y124.003 E18.39865
G1 X112.027 Y123.795 E18.40558
G1 X112.027 Y111.213 E18.82406
G0 F6000 X112.819 Y111.58
;TYPE:SKIN
G1 F1200 X115.855 Y111.572 E18.92504
G1 X122.21 Y111.576 E19.1364
G1 X122.21 Y123.425 E19.5305
G1 X115.59 Y123.428 E19.75069
G1 X112.817 Y123.424 E19.84292
G1 X112.819 Y111.58 E20.23685
G0 F6000 X112.539 Y111.579
G0 X112.611 Y111.372
G0 X122.418 Y111.368
G0 X122.49 Y111.867
G0 X122.049 Y111.867
G1 F1200 X121.917 Y111.735 E20.24306
G0 F6000 X121.352 Y111.735
G1 F1200 X122.049 Y112.432 E20.27584
G0 F6000 X122.049 Y112.998
G1 F1200 X120.785 Y111.734 E20.3353
G0 F6000 X120.22 Y111.734
G1 F1200 X122.049 Y113.564 E20.42135
G0 F6000 X122.049 Y114.129
G1 F1200 X119.654 Y111.734 E20.534
G0 F6000 X119.088 Y111.734
G1 F1200 X122.049 Y114.695 E20.67328
G0 F6000 X122.049 Y115.261
G1 F1200 X118.522 Y111.734 E20.83918
G0 F6000 X117.956 Y111.733
G1 F1200 X122.049 Y115.826 E21.0317
G0 F6000 X122.049 Y116.392
G1 F1200 X117.39 Y111.733 E21.25085
G0 F6000 X116.823 Y111.732
G1 F1200 X122.049 Y116.958 E21.49666
G0 F6000 X122.049 Y117.523
G1 F1200 X116.258 Y111.732 E21.76905
G0 F6000 X115.692 Y111.732
G1 F1200 X122.049 Y118.089 E22.06807
G0 F6000 X122.049 Y118.655
G1 F1200 X115.128 Y111.734 E22.39361
G0 F6000 X114.564 Y111.735
G1 F1200 X122.049 Y119.221 E22.74571
G0 F6000 X122.049 Y119.786
G1 F1200 X113.999 Y111.737 E23.12433
G0 F6000 X113.435 Y111.738
G1 F1200 X122.049 Y120.352 E23.52951
G0 F6000 X122.049 Y120.918
G1 F1200 X112.977 Y111.845 E23.95625
G0 F6000 X112.977 Y112.411
G1 F1200 X122.049 Y121.483 E24.38297
G0 F6000 X122.049 Y122.049
G1 F1200 X112.977 Y112.977 E24.80969
G0 F6000 X112.977 Y113.542
G1 F1200 X122.049 Y122.615 E25.23643
G0 F6000 X122.049 Y123.18
G1 F1200 X112.977 Y114.108 E25.66315
G0 F6000 X112.977 Y114.674
G1 F1200 X121.567 Y123.264 E26.06719
G0 F6000 X121.001 Y123.264
G1 F1200 X112.977 Y115.24 E26.44462
G0 F6000 X112.977 Y115.805
G1 F1200 X120.436 Y123.264 E26.79547
G0 F6000 X119.87 Y123.264
G1 F1200 X112.977 Y116.371 E27.11969
G0 F6000 X112.977 Y116.937
G1 F1200 X119.305 Y123.265 E27.41734
G0 F6000 X118.74 Y123.265
G1 F1200 X112.976 Y117.502 E27.68844
G0 F6000 X112.976 Y118.067
G1 F1200 X118.174 Y123.265 E27.93294
G0 F6000 X117.609 Y123.266
G1 F1200 X112.976 Y118.633 E28.15086
G0 F6000 X112.976 Y119.199
G1 F1200 X117.043 Y123.266 E28.34216
G0 F6000 X116.478 Y123.267
G1 F1200 X112.976 Y119.764 E28.50691
G0 F6000 X112.976 Y120.33
G1 F1200 X115.913 Y123.267 E28.64505
G0 F6000 X115.347 Y123.267
G1 F1200 X112.976 Y120.896 E28.75658
G0 F6000 X112.976 Y121.461
G1 F1200 X114.781 Y123.266 E28.84148
G0 F6000 X114.214 Y123.264
G1 F1200 X112.976 Y122.027 E28.89969
G0 F6000 X112.976 Y122.593
G1 F1200 X113.647 Y123.264 E28.93125
G0 F6000 X113.081 Y123.263
G1 F1200 X112.976 Y123.158 E28.93619
G0 F6000 X112.627 Y123.157
;MESH:NONMESH
