;FLAVOR:Marlin
;TIME:1115
;Filament used: 0.912338m
;Layer height: 0.2
;MINX:58.625
;MINY:107.635
;MINZ:0.2
;MAXX:172.375
;MAXY:139.435
;MAXZ:4
;Generated with Cura_SteamEngine 4.1.0
M140 S60
M105
M190 S60
M104 S210
M105
M109 S210
M82 ;absolute extrusion mode
; Ender 3 Custom Start G-code
G28 ; Home all axes
M420 S1
G92 E0 ; Reset Extruder
G1 Z2.0 F3000 ; Move Z Axis up little to prevent scratching of Heat Bed
G1 X0.1 Y20 Z0.3 F5000.0 ; Move to start position
G1 X0.1 Y200.0 Z0.3 F1500.0 E15 ; Draw the first line
G1 X0.4 Y200.0 Z0.3 F5000.0 ; Move to side a little
G1 X0.4 Y20 Z0.3 F1500.0 E30 ; Draw the second line
G92 E0 ; Reset Extruder
G1 Z2.0 F3000 ; Move Z Axis up little to prevent scratching of Heat Bed
G92 E0
G92 E0
G1 F3600 E-6
;LAYER_COUNT:20
;LAYER:0
M107
M204 S500
M205 X10 Y10
G0 F3600 X66.249 Y108.923 Z0.2
;TYPE:SKIRT
G1 F3600 E0
G1 F1800 X66.929 Y108.522 E0.02101
G1 X67.647 Y108.192 E0.04203
G1 X68.394 Y107.937 E0.06303
G1 X69.163 Y107.758 E0.08404
G1 X69.947 Y107.658 E0.10507
G1 X70.542 Y107.635 E0.12092
G1 X164.458 Y107.635 E2.61984
G1 X165.247 Y107.675 E2.64086
G1 X166.027 Y107.794 E2.66186
G1 X166.792 Y107.992 E2.68288
G1 X167.532 Y108.266 E2.70388
G1 X168.241 Y108.614 E2.7249
G1 X168.912 Y109.032 E2.74593
G1 X169.536 Y109.515 E2.76693
G1 X169.973 Y109.92 E2.78278
G1 X170.09 Y110.037 E2.78718
G1 X170.62 Y110.623 E2.80821
G1 X171.087 Y111.259 E2.8292
G1 X171.488 Y111.939 E2.85021
G1 X171.818 Y112.657 E2.87123
G1 X172.073 Y113.404 E2.89223
G1 X172.252 Y114.173 E2.91324
G1 X172.352 Y114.957 E2.93427
G1 X172.375 Y115.552 E2.95012
G1 X172.375 Y119.448 E3.05378
G1 X172.335 Y120.237 E3.0748
G1 X172.216 Y121.017 E3.0958
G1 X172.018 Y121.782 E3.11682
G1 X171.744 Y122.522 E3.13782
G1 X171.396 Y123.231 E3.15883
G1 X170.978 Y123.902 E3.17987
G1 X170.495 Y124.526 E3.20087
G1 X170.09 Y124.963 E3.21672
G1 X169.973 Y125.08 E3.22112
G1 X169.387 Y125.61 E3.24215
G1 X168.751 Y126.077 E3.26314
G1 X168.284 Y126.352 E3.27756
G1 X168.352 Y126.887 E3.29191
G1 X168.375 Y127.482 E3.30775
G1 X168.375 Y131.518 E3.41514
G1 X168.335 Y132.307 E3.43617
G1 X168.216 Y133.087 E3.45716
G1 X168.018 Y133.852 E3.47819
G1 X167.744 Y134.592 E3.49918
G1 X167.396 Y135.301 E3.5202
G1 X166.978 Y135.972 E3.54123
G1 X166.495 Y136.596 E3.56223
G1 X166.09 Y137.033 E3.57808
G1 X165.973 Y137.15 E3.58248
G1 X165.387 Y137.68 E3.60351
G1 X164.751 Y138.147 E3.6245
G1 X164.071 Y138.548 E3.64551
G1 X163.353 Y138.878 E3.66653
G1 X162.606 Y139.133 E3.68754
G1 X161.837 Y139.312 E3.70855
G1 X161.053 Y139.412 E3.72958
G1 X160.458 Y139.435 E3.74542
G1 X66.542 Y139.435 E6.24435
G1 X65.753 Y139.395 E6.26537
G1 X64.973 Y139.276 E6.28636
G1 X64.208 Y139.078 E6.30739
G1 X63.468 Y138.804 E6.32838
G1 X62.759 Y138.456 E6.3494
G1 X62.088 Y138.038 E6.37043
G1 X61.464 Y137.555 E6.39143
G1 X61.027 Y137.15 E6.40728
G1 X60.91 Y137.033 E6.41169
G1 X60.38 Y136.447 E6.43271
G1 X59.913 Y135.811 E6.4537
G1 X59.512 Y135.131 E6.47471
G1 X59.182 Y134.413 E6.49574
G1 X58.927 Y133.666 E6.51674
G1 X58.748 Y132.897 E6.53775
G1 X58.648 Y132.113 E6.55878
G1 X58.625 Y131.518 E6.57462
G1 X58.625 Y127.482 E6.68201
G1 X58.665 Y126.693 E6.70303
G1 X58.784 Y125.913 E6.72403
G1 X58.982 Y125.148 E6.74505
G1 X59.256 Y124.408 E6.76605
G1 X59.604 Y123.699 E6.78706
G1 X60.022 Y123.028 E6.8081
G1 X60.505 Y122.404 E6.82909
G1 X60.91 Y121.967 E6.84495
G1 X61.027 Y121.85 E6.84935
G1 X61.613 Y121.32 E6.87037
G1 X62.249 Y120.853 E6.89137
G1 X62.716 Y120.578 E6.90579
G1 X62.648 Y120.043 E6.92014
G1 X62.625 Y119.448 E6.93598
G1 X62.625 Y115.552 E7.03965
G1 X62.665 Y114.763 E7.06067
G1 X62.784 Y113.983 E7.08166
G1 X62.982 Y113.218 E7.10269
G1 X63.256 Y112.478 E7.12369
G1 X63.604 Y111.769 E7.1447
G1 X64.022 Y111.098 E7.16574
G1 X64.505 Y110.474 E7.18673
G1 X64.91 Y110.037 E7.20259
G1 X65.027 Y109.92 E7.20699
G1 X65.613 Y109.39 E7.22801
G1 X66.249 Y108.923 E7.24901
G0 F3600 X66.503 Y109.235
G1 F1800 X67.168 Y108.849 E7.26947
G1 X67.87 Y108.534 E7.28994
G1 X68.601 Y108.294 E7.31041
G1 X69.352 Y108.131 E7.33086
G1 X70.117 Y108.047 E7.35134
G1 X70.542 Y108.035 E7.36265
G1 X164.458 Y108.035 E9.86158
G1 X165.226 Y108.075 E9.88204
G1 X165.986 Y108.194 E9.90251
G1 X166.729 Y108.392 E9.92297
G1 X167.448 Y108.666 E9.94344
G1 X168.134 Y109.013 E9.9639
G1 X168.781 Y109.429 E9.98436
G1 X169.381 Y109.91 E10.00483
G1 X169.691 Y110.202 E10.01616
G1 X169.808 Y110.319 E10.02056
G1 X170.322 Y110.891 E10.04102
G1 X170.775 Y111.513 E10.0615
G1 X171.161 Y112.178 E10.08196
G1 X171.476 Y112.88 E10.10243
G1 X171.716 Y113.611 E10.1229
G1 X171.879 Y114.362 E10.14335
G1 X171.963 Y115.127 E10.16383
G1 X171.975 Y115.552 E10.17514
G1 X171.975 Y119.448 E10.2788
G1 X171.935 Y120.216 E10.29927
G1 X171.816 Y120.976 E10.31974
G1 X171.618 Y121.719 E10.34019
G1 X171.344 Y122.438 E10.36067
G1 X170.997 Y123.124 E10.38112
G1 X170.581 Y123.771 E10.40159
G1 X170.1 Y124.371 E10.42205
G1 X169.808 Y124.681 E10.43338
G1 X169.691 Y124.798 E10.43779
G1 X169.119 Y125.312 E10.45825
G1 X168.497 Y125.765 E10.47872
G1 X167.847 Y126.143 E10.49873
G1 X167.879 Y126.292 E10.50278
G1 X167.963 Y127.057 E10.52326
G1 X167.975 Y127.482 E10.53458
G1 X167.975 Y131.518 E10.64197
G1 X167.935 Y132.286 E10.66243
G1 X167.816 Y133.046 E10.6829
G1 X167.618 Y133.789 E10.70336
G1 X167.344 Y134.508 E10.72383
G1 X166.997 Y135.194 E10.74429
G1 X166.581 Y135.841 E10.76475
G1 X166.1 Y136.441 E10.78521
G1 X165.808 Y136.751 E10.79655
G1 X165.691 Y136.868 E10.80095
G1 X165.119 Y137.382 E10.82141
G1 X164.497 Y137.835 E10.84188
G1 X163.832 Y138.221 E10.86234
G1 X163.13 Y138.536 E10.88282
G1 X162.399 Y138.776 E10.90329
G1 X161.648 Y138.939 E10.92374
G1 X160.883 Y139.023 E10.94421
G1 X160.458 Y139.035 E10.95553
G1 X66.542 Y139.035 E13.45445
G1 X65.774 Y138.995 E13.47492
G1 X65.014 Y138.876 E13.49539
G1 X64.271 Y138.678 E13.51585
G1 X63.552 Y138.404 E13.53632
G1 X62.866 Y138.057 E13.55677
G1 X62.219 Y137.641 E13.57724
G1 X61.619 Y137.16 E13.5977
G1 X61.309 Y136.868 E13.60903
G1 X61.192 Y136.751 E13.61344
G1 X60.678 Y136.179 E13.6339
G1 X60.225 Y135.557 E13.65437
G1 X59.839 Y134.892 E13.67483
G1 X59.524 Y134.19 E13.69531
G1 X59.284 Y133.459 E13.71578
G1 X59.121 Y132.708 E13.73623
G1 X59.037 Y131.943 E13.7567
G1 X59.025 Y131.518 E13.76802
G1 X59.025 Y127.482 E13.87541
G1 X59.065 Y126.714 E13.89587
G1 X59.184 Y125.954 E13.91634
G1 X59.382 Y125.211 E13.9368
G1 X59.656 Y124.492 E13.95727
G1 X60.003 Y123.806 E13.97773
G1 X60.419 Y123.159 E13.99819
G1 X60.9 Y122.559 E14.01865
G1 X61.192 Y122.249 E14.02999
G1 X61.309 Y122.132 E14.03439
G1 X61.881 Y121.618 E14.05485
G1 X62.503 Y121.165 E14.07533
G1 X63.153 Y120.787 E14.09533
G1 X63.121 Y120.638 E14.09939
G1 X63.037 Y119.873 E14.11987
G1 X63.025 Y119.448 E14.13118
G1 X63.025 Y115.552 E14.23484
G1 X63.065 Y114.784 E14.25531
G1 X63.184 Y114.024 E14.27577
G1 X63.382 Y113.281 E14.29623
G1 X63.656 Y112.562 E14.31671
G1 X64.003 Y111.876 E14.33716
G1 X64.419 Y111.229 E14.35763
G1 X64.9 Y110.629 E14.37809
G1 X65.192 Y110.319 E14.38942
G1 X65.309 Y110.202 E14.39383
G1 X65.881 Y109.688 E14.41429
G1 X66.503 Y109.235 E14.43476
G0 F3600 X66.755 Y109.548
G1 F1800 X67.405 Y109.177 E14.45468
G1 X68.091 Y108.878 E14.47459
G1 X68.805 Y108.654 E14.4945
G1 X69.538 Y108.507 E14.51439
G1 X70.542 Y108.435 E14.54117
G1 X164.458 Y108.435 E17.0401
G1 X165.205 Y108.475 E17.06001
G1 X165.943 Y108.594 E17.0799
G1 X166.665 Y108.792 E17.09982
G1 X167.361 Y109.065 E17.11971
G1 X168.024 Y109.412 E17.13962
G1 X168.647 Y109.827 E17.15954
G1 X169.408 Y110.485 E17.18631
G1 X169.525 Y110.602 E17.19071
G1 X170.025 Y111.159 E17.21063
G1 X170.462 Y111.765 E17.23051
G1 X170.833 Y112.415 E17.25042
G1 X171.132 Y113.101 E17.27033
G1 X171.356 Y113.815 E17.29024
G1 X171.503 Y114.548 E17.31014
G1 X171.575 Y115.552 E17.33692
G1 X171.575 Y119.448 E17.44058
G1 X171.535 Y120.195 E17.46049
G1 X171.416 Y120.933 E17.48038
G1 X171.218 Y121.655 E17.5003
G1 X170.945 Y122.351 E17.52019
G1 X170.598 Y123.014 E17.5401
G1 X170.183 Y123.637 E17.56002
G1 X169.525 Y124.398 E17.58679
G1 X169.408 Y124.515 E17.59119
G1 X168.851 Y125.015 E17.61111
G1 X168.245 Y125.452 E17.63099
G1 X167.595 Y125.823 E17.6509
G1 X167.39 Y125.913 E17.65686
G1 X167.503 Y126.478 E17.67219
G1 X167.575 Y127.482 E17.69897
G1 X167.575 Y131.518 E17.80636
G1 X167.535 Y132.265 E17.82627
G1 X167.416 Y133.003 E17.84616
G1 X167.218 Y133.725 E17.86608
G1 X166.945 Y134.421 E17.88597
G1 X166.598 Y135.084 E17.90588
G1 X166.183 Y135.707 E17.9258
G1 X165.525 Y136.468 E17.95257
G1 X165.408 Y136.585 E17.95697
G1 X164.851 Y137.085 E17.97689
G1 X164.245 Y137.522 E17.99677
G1 X163.595 Y137.893 E18.01668
G1 X162.909 Y138.192 E18.03659
G1 X162.195 Y138.416 E18.05651
G1 X161.462 Y138.563 E18.0764
G1 X160.458 Y138.635 E18.10318
G1 X66.542 Y138.635 E20.60211
G1 X65.795 Y138.595 E20.62201
G1 X65.057 Y138.476 E20.6419
G1 X64.335 Y138.278 E20.66182
G1 X63.639 Y138.005 E20.68172
G1 X62.976 Y137.658 E20.70163
G1 X62.353 Y137.243 E20.72155
G1 X61.592 Y136.585 E20.74831
G1 X61.475 Y136.468 E20.75272
G1 X60.975 Y135.911 E20.77263
G1 X60.538 Y135.305 E20.79251
G1 X60.167 Y134.655 E20.81243
G1 X59.868 Y133.969 E20.83234
G1 X59.644 Y133.255 E20.85225
G1 X59.497 Y132.522 E20.87214
G1 X59.425 Y131.518 E20.89893
G1 X59.425 Y127.482 E21.00632
G1 X59.465 Y126.735 E21.02622
G1 X59.584 Y125.997 E21.04611
G1 X59.782 Y125.275 E21.06603
G1 X60.055 Y124.579 E21.08592
G1 X60.402 Y123.916 E21.10584
G1 X60.817 Y123.293 E21.12575
G1 X61.475 Y122.532 E21.15252
G1 X61.592 Y122.415 E21.15692
G1 X62.149 Y121.915 E21.17684
G1 X62.755 Y121.478 E21.19672
G1 X63.405 Y121.107 E21.21663
G1 X63.61 Y121.017 E21.22259
G1 X63.497 Y120.452 E21.23792
G1 X63.425 Y119.448 E21.26471
G1 X63.425 Y115.552 E21.36837
G1 X63.465 Y114.805 E21.38828
G1 X63.584 Y114.067 E21.40817
G1 X63.782 Y113.345 E21.42809
G1 X64.055 Y112.649 E21.44798
G1 X64.402 Y111.986 E21.46789
G1 X64.817 Y111.363 E21.48781
G1 X65.475 Y110.602 E21.51458
G1 X65.592 Y110.485 E21.51898
G1 X66.149 Y109.985 E21.5389
G1 X66.755 Y109.548 E21.55878
G0 F3600 X67.007 Y109.861
G1 F1800 X67.641 Y109.507 E21.5781
G1 X68.31 Y109.224 E21.59742
G1 X69.006 Y109.016 E21.61675
G1 X69.721 Y108.886 E21.63609
G1 X70.542 Y108.835 E21.65798
G1 X164.458 Y108.835 E24.1569
G1 X165.183 Y108.875 E24.17622
G1 X165.9 Y108.994 E24.19556
G1 X166.599 Y109.192 E24.21489
G1 X167.272 Y109.465 E24.23422
G1 X167.911 Y109.81 E24.25354
G1 X168.508 Y110.224 E24.27287
G1 X169.125 Y110.768 E24.29476
G1 X169.242 Y110.885 E24.29916
G1 X169.726 Y111.426 E24.31848
G1 X170.149 Y112.017 E24.33782
G1 X170.503 Y112.651 E24.35714
G1 X170.786 Y113.32 E24.37646
G1 X170.994 Y114.016 E24.39579
G1 X171.124 Y114.731 E24.41513
G1 X171.175 Y115.552 E24.43702
G1 X171.175 Y119.448 E24.54068
G1 X171.135 Y120.173 E24.56
G1 X171.016 Y120.89 E24.57934
G1 X170.818 Y121.589 E24.59867
G1 X170.545 Y122.262 E24.618
G1 X170.2 Y122.901 E24.63732
G1 X169.786 Y123.498 E24.65665
G1 X169.242 Y124.115 E24.67854
G1 X169.125 Y124.232 E24.68294
G1 X168.584 Y124.716 E24.70225
G1 X167.993 Y125.139 E24.72159
G1 X167.359 Y125.493 E24.74091
G1 X166.915 Y125.681 E24.75374
G1 X166.994 Y125.946 E24.7611
G1 X167.124 Y126.661 E24.78044
G1 X167.175 Y127.482 E24.80233
G1 X167.175 Y131.518 E24.90972
G1 X167.135 Y132.243 E24.92904
G1 X167.016 Y132.96 E24.94837
G1 X166.818 Y133.659 E24.96771
G1 X166.545 Y134.332 E24.98703
G1 X166.2 Y134.971 E25.00635
G1 X165.786 Y135.568 E25.02568
G1 X165.242 Y136.185 E25.04757
G1 X165.125 Y136.302 E25.05197
G1 X164.584 Y136.786 E25.07129
G1 X163.993 Y137.209 E25.09063
G1 X163.359 Y137.563 E25.10995
G1 X162.69 Y137.846 E25.12928
G1 X161.994 Y138.054 E25.1486
G1 X161.279 Y138.184 E25.16794
G1 X160.458 Y138.235 E25.18983
G1 X66.542 Y138.235 E27.68875
G1 X65.817 Y138.195 E27.70808
G1 X65.1 Y138.076 E27.72741
G1 X64.401 Y137.878 E27.74675
G1 X63.728 Y137.605 E27.76607
G1 X63.089 Y137.26 E27.78539
G1 X62.492 Y136.846 E27.80472
G1 X61.875 Y136.302 E27.82661
G1 X61.758 Y136.185 E27.83101
G1 X61.274 Y135.644 E27.85033
G1 X60.851 Y135.053 E27.86967
G1 X60.497 Y134.419 E27.88899
G1 X60.214 Y133.75 E27.90831
G1 X60.006 Y133.054 E27.92764
G1 X59.876 Y132.339 E27.94698
G1 X59.825 Y131.518 E27.96887
G1 X59.825 Y127.482 E28.07626
G1 X59.865 Y126.757 E28.09558
G1 X59.984 Y126.04 E28.11492
G1 X60.182 Y125.341 E28.13425
G1 X60.455 Y124.668 E28.15357
G1 X60.8 Y124.029 E28.17289
G1 X61.214 Y123.432 E28.19223
G1 X61.758 Y122.815 E28.21411
G1 X61.875 Y122.698 E28.21852
G1 X62.416 Y122.214 E28.23783
G1 X63.007 Y121.791 E28.25717
G1 X63.641 Y121.437 E28.27649
G1 X64.085 Y121.249 E28.28932
G1 X64.006 Y120.984 E28.29668
G1 X63.876 Y120.269 E28.31601
G1 X63.825 Y119.448 E28.3379
G1 X63.825 Y115.552 E28.44157
G1 X63.865 Y114.827 E28.46089
G1 X63.984 Y114.11 E28.48023
G1 X64.182 Y113.411 E28.49956
G1 X64.455 Y112.738 E28.51888
G1 X64.8 Y112.099 E28.5382
G1 X65.214 Y111.502 E28.55753
G1 X65.758 Y110.885 E28.57942
G1 X65.875 Y110.768 E28.58382
G1 X66.416 Y110.284 E28.60314
G1 X67.007 Y109.861 E28.62248
G0 F3600 X67.258 Y110.176
G1 F1800 X67.876 Y109.838 E28.64122
G1 X68.527 Y109.571 E28.65994
G1 X69.205 Y109.381 E28.67868
G1 X69.9 Y109.268 E28.69741
G1 X70.542 Y109.235 E28.71452
G1 X164.458 Y109.235 E31.21344
G1 X165.161 Y109.275 E31.23218
G1 X165.855 Y109.394 E31.25092
G1 X166.53 Y109.592 E31.26963
G1 X167.179 Y109.864 E31.28836
G1 X167.793 Y110.209 E31.3071
G1 X168.364 Y110.62 E31.32582
G1 X168.842 Y111.051 E31.34294
G1 X168.959 Y111.168 E31.34734
G1 X169.428 Y111.693 E31.36608
G1 X169.834 Y112.268 E31.38481
G1 X170.172 Y112.886 E31.40355
G1 X170.439 Y113.537 E31.42227
G1 X170.629 Y114.215 E31.44101
G1 X170.742 Y114.91 E31.45974
G1 X170.775 Y115.552 E31.47685
G1 X170.775 Y119.448 E31.58051
G1 X170.735 Y120.151 E31.59925
G1 X170.616 Y120.845 E31.61798
G1 X170.418 Y121.52 E31.6367
G1 X170.146 Y122.169 E31.65542
G1 X169.801 Y122.783 E31.67416
G1 X169.39 Y123.354 E31.69288
G1 X168.959 Y123.832 E31.71001
G1 X168.842 Y123.949 E31.71441
G1 X168.317 Y124.418 E31.73314
G1 X167.742 Y124.824 E31.75187
G1 X167.124 Y125.162 E31.77061
G1 X166.473 Y125.429 E31.78934
G1 X166.429 Y125.441 E31.79055
G1 X166.439 Y125.467 E31.79129
G1 X166.629 Y126.145 E31.81003
G1 X166.742 Y126.84 E31.82876
G1 X166.775 Y127.482 E31.84587
G1 X166.775 Y131.518 E31.95326
G1 X166.735 Y132.221 E31.97199
G1 X166.616 Y132.915 E31.99073
G1 X166.418 Y133.59 E32.00945
G1 X166.146 Y134.239 E32.02817
G1 X165.801 Y134.853 E32.04691
G1 X165.39 Y135.424 E32.06563
G1 X164.959 Y135.902 E32.08275
G1 X164.842 Y136.019 E32.08716
G1 X164.317 Y136.488 E32.10589
G1 X163.742 Y136.894 E32.12462
G1 X163.124 Y137.232 E32.14336
G1 X162.473 Y137.499 E32.16208
G1 X161.795 Y137.689 E32.18082
G1 X161.1 Y137.802 E32.19955
G1 X160.458 Y137.835 E32.21666
G1 X66.542 Y137.835 E34.71559
G1 X65.839 Y137.795 E34.73432
G1 X65.145 Y137.676 E34.75306
G1 X64.47 Y137.478 E34.77177
G1 X63.821 Y137.206 E34.7905
G1 X63.207 Y136.861 E34.80924
G1 X62.636 Y136.45 E34.82796
G1 X62.158 Y136.019 E34.84508
G1 X62.041 Y135.902 E34.84949
G1 X61.572 Y135.377 E34.86822
G1 X61.166 Y134.802 E34.88695
G1 X60.828 Y134.184 E34.90569
G1 X60.561 Y133.533 E34.92441
G1 X60.371 Y132.855 E34.94315
G1 X60.258 Y132.16 E34.96188
G1 X60.225 Y131.518 E34.97899
G1 X60.225 Y127.482 E35.08638
G1 X60.265 Y126.779 E35.10511
G1 X60.384 Y126.085 E35.12385
G1 X60.582 Y125.41 E35.14257
G1 X60.854 Y124.761 E35.16129
G1 X61.199 Y124.147 E35.18003
G1 X61.61 Y123.576 E35.19875
G1 X62.041 Y123.098 E35.21587
G1 X62.158 Y122.981 E35.22028
G1 X62.683 Y122.512 E35.23901
G1 X63.258 Y122.106 E35.25774
G1 X63.876 Y121.768 E35.27648
G1 X64.527 Y121.501 E35.2952
G1 X64.571 Y121.489 E35.29642
G1 X64.561 Y121.463 E35.29716
G1 X64.371 Y120.785 E35.31589
G1 X64.258 Y120.09 E35.33463
G1 X64.225 Y119.448 E35.35173
G1 X64.225 Y115.552 E35.4554
G1 X64.265 Y114.849 E35.47413
G1 X64.384 Y114.155 E35.49287
G1 X64.582 Y113.48 E35.51159
G1 X64.854 Y112.831 E35.53031
G1 X65.199 Y112.217 E35.54905
G1 X65.61 Y111.646 E35.56777
G1 X66.041 Y111.168 E35.5849
G1 X66.158 Y111.051 E35.5893
G1 X66.683 Y110.582 E35.60803
G1 X67.258 Y110.176 E35.62676
G0 F3600 X67.508 Y110.492
G1 F1800 X68.108 Y110.17 E35.64488
G1 X68.742 Y109.921 E35.663
G1 X69.401 Y109.748 E35.68113
