;FLAVOR:Marlin
;TIME:2932
;Filament used: 2.45146m
;Layer height: 0.2
;MINX:100.481
;MINY:25.162
;MINZ:0.24
;MAXX:178.128
;MAXY:84.113
;MAXZ:6.89
;Generated with Cura_SteamEngine 4.5.0
M140 S60
M105
M190 S60
M104 S200
M105
M109 S200
M82 ;absolute extrusion mode
; Ender 3 Custom Start G-code
G28 ; Home all axes
M420 S1
G92 E0 ; Reset Extruder
G1 Z2.0 F3000 ; Move Z Axis up little to prevent scratching of Heat Bed
G1 X0.1 Y20 Z0.3 F5000.0 ; Move to start position
G1 X0.1 Y200.0 Z0.3 F1500.0 E15 ; Draw the first line
G1 X0.4 Y200.0 Z0.3 F5000.0 ; Move to side a little
G1 X0.4 Y20 Z0.3 F1500.0 E30 ; Draw the second line
G92 E0 ; Reset Extruder
G1 Z2.0 F3000 ; Move Z Axis up little to prevent scratching of Heat Bed
G92 E0
G92 E0
G1 F3000 E-8
;LAYER_COUNT:29
;LAYER:-6
M107
M204 S500
M205 X8 Y8
G0 F9000 X102.51 Y35.671 Z0.24
;TYPE:SUPPORT-INTERFACE
G1 F3000 E0
G1 F1350 X102.572 Y35.508 E0.01392
G1 X102.913 Y34.701 E0.08385
G1 X102.988 Y34.539 E0.0981
G1 X103.459 Y33.616 E0.18082
G1 X103.515 Y33.52 E0.18969
G1 X104.001 Y32.712 E0.26496
G1 X104.08 Y32.591 E0.27649
G1 X104.602 Y31.853 E0.34865
G1 X104.716 Y31.701 E0.36382
G1 X105.381 Y30.9 E0.44692
G1 X105.93 Y30.316 E0.5109
G1 X106.645 Y29.641 E0.58939
G1 X106.756 Y29.544 E0.60116
G1 X107.659 Y28.817 E0.6937
G1 X107.742 Y28.758 E0.70183
G1 X108.496 Y28.241 E0.7748
G1 X108.644 Y28.147 E0.7888
G1 X109.414 Y27.697 E0.85999
G1 X109.571 Y27.613 E0.8742
G1 X110.377 Y27.219 E0.94582
G1 X110.517 Y27.157 E0.95804
G1 X111.548 Y26.747 E1.04661
G1 X112.473 Y26.449 E1.12418
G1 X112.62 Y26.408 E1.13637
G1 X113.5 Y26.194 E1.20866
G1 X113.663 Y26.161 E1.22193
G1 X114.991 Y25.958 E1.32917
G1 X116.088 Y25.88 E1.41696
G1 X116.628 Y25.87 E1.46007
G1 X158.628 Y25.872 E4.81269
G1 X159.752 Y25.917 E4.90249
G1 X160.67 Y26.019 E4.97622
G1 X160.845 Y26.044 E4.99033
G1 X161.722 Y26.206 E5.06152
G1 X161.877 Y26.241 E5.0742
G1 X162.753 Y26.47 E5.14648
G1 X162.907 Y26.516 E5.15931
G1 X163.759 Y26.803 E5.23107
G1 X163.858 Y26.842 E5.23957
G1 X164.699 Y27.188 E5.31216
G1 X164.874 Y27.267 E5.32749
G1 X165.678 Y27.666 E5.39913
G1 X165.812 Y27.74 E5.41135
G1 X166.71 Y28.278 E5.49492
G1 X167.578 Y28.889 E5.57965
G1 X168.503 Y29.648 E5.67516
G1 X169.198 Y30.302 E5.75134
G1 X169.315 Y30.42 E5.7646
G1 X169.92 Y31.077 E5.8359
G1 X170.036 Y31.213 E5.85017
G1 X170.582 Y31.903 E5.9204
G1 X170.696 Y32.058 E5.93576
G1 X171.281 Y32.929 E6.01951
G1 X171.863 Y33.95 E6.11333
G1 X172.272 Y34.786 E6.18762
G1 X172.341 Y34.942 E6.20123
G1 X172.668 Y35.757 E6.27133
G1 X172.737 Y35.955 E6.28807
G1 X173.151 Y37.328 E6.40254
G1 X173.17 Y37.418 E6.40988
G1 X173.469 Y39.012 E6.53934
G1 X173.578 Y40.152 E6.63076
G1 X173.603 Y41.125 E6.70845
G1 X173.57 Y42.195 E6.79391
G1 X173.478 Y43.115 E6.86771
G1 X173.459 Y43.253 E6.87883
G1 X173.268 Y44.322 E6.96551
G1 X173.132 Y44.893 E7.01237
G1 X173.044 Y45.231 E7.04025
G1 X172.915 Y45.89 E7.09385
G1 X172.872 Y46.569 E7.14816
G1 X172.872 Y52.623 E7.63142
G1 X172.914 Y53.291 E7.68485
G1 X173.043 Y53.962 E7.73939
G1 X173.256 Y54.611 E7.79391
G1 X173.549 Y55.229 E7.84851
G1 X173.684 Y55.438 E7.86837
G1 X173.664 Y55.451 E7.87027
G1 X174.115 Y56.089 E7.93264
G1 X174.842 Y57.264 E8.04294
G1 X174.891 Y57.354 E8.05112
G1 X175.501 Y58.56 E8.159
G1 X175.563 Y58.702 E8.17137
G1 X176.11 Y60.074 E8.28927
G1 X176.493 Y61.326 E8.39378
G1 X176.536 Y61.506 E8.40855
G1 X176.821 Y62.841 E8.51752
G1 X176.845 Y63.001 E8.53043
G1 X177.007 Y64.296 E8.63461
G1 X177.014 Y64.41 E8.64373
G1 X177.068 Y65.787 E8.75373
G1 X177.064 Y65.945 E8.76635
G1 X177.011 Y67.172 E8.86438
G1 X176.992 Y67.371 E8.88034
G1 X176.814 Y68.708 E8.98801
G1 X176.791 Y68.829 E8.99784
G1 X176.481 Y70.226 E9.11207
G1 X176.442 Y70.365 E9.12359
G1 X176.09 Y71.494 E9.21799
G1 X176.004 Y71.727 E9.23782
G1 X175.424 Y73.113 E9.35775
G1 X174.771 Y74.369 E9.47075
G1 X174.713 Y74.467 E9.47984
G1 X173.991 Y75.603 E9.58729
G1 X173.934 Y75.682 E9.59506
G1 X173.197 Y76.659 E9.69275
G1 X173.101 Y76.772 E9.70459
G1 X172.267 Y77.713 E9.80496
G1 X172.022 Y77.964 E9.83296
G1 X171.016 Y78.899 E9.94259
G1 X170.922 Y78.977 E9.95234
G1 X169.831 Y79.826 E10.06269
G1 X169.724 Y79.899 E10.07303
G1 X168.688 Y80.577 E10.17186
G1 X168.45 Y80.714 E10.19378
G1 X167.389 Y81.284 E10.28992
G1 X167.2 Y81.374 E10.30663
G1 X165.902 Y81.928 E10.41929
G1 X165.804 Y81.963 E10.4276
G1 X164.499 Y82.393 E10.53728
G1 X164.389 Y82.422 E10.54636
G1 X163.169 Y82.715 E10.64651
G1 X162.941 Y82.757 E10.66502
G1 X161.689 Y82.945 E10.76608
G1 X161.498 Y82.964 E10.7814
G1 X159.996 Y83.049 E10.90149
G1 X158.589 Y83.012 E11.01384
G1 X157.228 Y82.864 E11.12312
G1 X157.038 Y82.834 E11.13848
G1 X155.7 Y82.565 E11.24742
G1 X155.586 Y82.535 E11.25683
G1 X154.443 Y82.208 E11.35173
G1 X154.105 Y82.094 E11.3802
G1 X152.991 Y81.666 E11.47546
G1 X152.767 Y81.568 E11.49498
G1 X151.523 Y80.958 E11.60558
G1 X151.407 Y80.892 E11.61623
G1 X150.287 Y80.218 E11.72057
G1 X150.136 Y80.118 E11.73503
G1 X149.754 Y79.844 E11.77256
G1 X149.186 Y79.488 E11.82607
G1 X148.566 Y79.201 E11.8806
G1 X147.916 Y78.995 E11.93503
G1 X147.245 Y78.873 E11.98947
G1 X146.626 Y78.837 E12.03897
G1 X116.869 Y78.835 E14.4143
G1 X115.745 Y78.79 E14.50409
G1 X114.827 Y78.688 E14.57782
G1 X114.652 Y78.663 E14.59193
G1 X113.772 Y78.5 E14.66337
G1 X113.62 Y78.466 E14.67581
G1 X112.738 Y78.235 E14.74859
G1 X112.598 Y78.193 E14.76025
G1 X111.742 Y77.901 E14.83245
G1 X111.576 Y77.838 E14.84662
G1 X110.773 Y77.497 E14.91626
G1 X110.584 Y77.409 E14.9329
G1 X109.673 Y76.935 E15.01488
G1 X108.894 Y76.46 E15.08771
G1 X108.743 Y76.36 E15.10217
G1 X108.023 Y75.844 E15.17288
G1 X107.893 Y75.744 E15.18597
G1 X107.194 Y75.163 E15.25852
G1 X107.058 Y75.041 E15.27311
G1 X106.434 Y74.44 E15.34226
G1 X106.297 Y74.297 E15.35807
G1 X105.699 Y73.63 E15.42958
G1 X105.608 Y73.52 E15.44098
G1 X105.052 Y72.802 E15.51347
G1 X104.959 Y72.671 E15.52629
G1 X104.457 Y71.912 E15.59893
G1 X104.365 Y71.762 E15.61298
G1 X103.938 Y71.001 E15.68263
G1 X103.841 Y70.812 E15.69959
G1 X103.474 Y70.029 E15.76862
G1 X103.407 Y69.873 E15.78217
G1 X103.081 Y69.021 E15.85499
G1 X103.031 Y68.873 E15.86746
G1 X102.771 Y68.011 E15.93933
G1 X102.732 Y67.864 E15.95147
G1 X102.505 Y66.816 E16.03706
G1 X102.371 Y65.909 E16.11025
G1 X102.355 Y65.755 E16.12261
G1 X102.28 Y64.681 E16.20855
G1 X102.272 Y64.18 E16.24855
G1 X102.272 Y46.592 E17.6525
G1 X102.23 Y45.922 E17.70608
G1 X102.156 Y45.549 E17.73644
G1 X102.174 Y45.54 E17.73805
G1 X101.999 Y44.858 E17.79425
G1 X101.789 Y43.906 E17.87207
G1 X101.765 Y43.772 E17.88294
G1 X101.633 Y42.867 E17.95594
G1 X101.615 Y42.692 E17.96998
G1 X101.545 Y41.638 E18.0543
G1 X101.541 Y40.838 E18.11816
G1 X101.548 Y40.649 E18.13326
G1 X101.608 Y39.586 E18.21825
G1 X101.618 Y39.498 E18.22532
G1 X101.767 Y38.405 E18.31337
G1 X101.987 Y37.358 E18.39878
G1 X102.17 Y36.687 E18.45429
G1 X102.207 Y36.571 E18.46401
G1 X102.51 Y35.671 E18.53982
G0 F9000 X102.4 Y35.997
G1 F1350 X102.4 Y66.105 E20.94317
G1 F3000 E12.94317
G0 F9000 X101.453 Y66.983
G0 X101.745 Y68.295
G0 X102.294 Y69.903
G0 X102.889 Y71.288
G0 X104 Y71.111
G1 F3000 E20.94317
G1 F1350 X104 Y32.713 E24.00826
G0 F9000 X105.6 Y30.667
G1 F1350 X105.6 Y73.509 E27.4281
G0 F9000 X107.2 Y75.167
G1 F1350 X107.2 Y29.186 E31.0985
G0 F9000 X108.8 Y28.055
G1 F1350 X108.8 Y76.397 E34.95737
G0 F9000 X110.4 Y77.313
G1 F1350 X110.4 Y27.208 E38.95696
G0 F9000 X112 Y26.601
G1 F1350 X112 Y77.989 E43.05898
G0 F9000 X113.6 Y78.46
G1 F1350 X113.6 Y26.173 E47.23275
G0 F9000 X115.2 Y25.943
G1 F1350 X115.2 Y78.729 E51.44636
G0 F9000 X116.8 Y78.832
G1 F1350 X116.8 Y25.871 E55.67393
G0 F9000 X118.4 Y25.871
G1 F1350 X118.4 Y78.835 E59.90175
G0 F9000 X120 Y78.835
G1 F1350 X120 Y25.871 E64.12956
G0 F9000 X121.6 Y25.871
G1 F1350 X121.6 Y78.835 E68.35738
G0 F9000 X123.2 Y78.835
G1 F1350 X123.2 Y25.871 E72.5852
G0 F9000 X124.8 Y25.871
G1 F1350 X124.8 Y78.835 E76.81301
G0 F9000 X126.4 Y78.835
G1 F1350 X126.4 Y25.871 E81.04083
G0 F9000 X128 Y25.871
G1 F1350 X128 Y78.835 E85.26864
G0 F9000 X129.6 Y78.835
G1 F1350 X129.6 Y25.871 E89.49646
G0 F9000 X131.2 Y25.871
G1 F1350 X131.2 Y78.835 E93.72427
G0 F9000 X132.8 Y78.836
G1 F1350 X132.8 Y25.871 E97.95217
G0 F9000 X134.4 Y25.871
G1 F1350 X134.4 Y78.836 E102.18006
G0 F9000 X136 Y78.836
G1 F1350 X136 Y25.871 E106.40796
G0 F9000 X137.6 Y25.871
G1 F1350 X137.6 Y78.836 E110.63585
G0 F9000 X139.2 Y78.836
G1 F1350 X139.2 Y25.872 E114.86367
G0 F9000 X140.8 Y25.872
G1 F1350 X140.8 Y78.836 E119.09149
G0 F9000 X142.4 Y78.836
G1 F1350 X142.4 Y25.872 E123.3193
G0 F9000 X144 Y25.872
G1 F1350 X144 Y78.836 E127.54712
G0 F9000 X145.6 Y78.836
G1 F1350 X145.6 Y25.872 E131.77493
G0 F9000 X147.2 Y25.872
G1 F1350 X147.2 Y78.87 E136.00546
G0 F9000 X148.8 Y79.309
G1 F1350 X148.8 Y25.872 E140.27103
G0 F9000 X150.4 Y25.872
G1 F1350 X150.4 Y80.286 E144.61459
G0 F9000 X152 Y81.191
G1 F1350 X152 Y25.872 E149.0304
G0 F9000 X153.6 Y25.872
G1 F1350 X153.6 Y81.899 E153.50271
G0 F9000 X155.2 Y82.424
G1 F1350 X155.2 Y25.872 E158.01694
G0 F9000 X156.8 Y25.872
G1 F1350 X156.8 Y82.786 E162.56006
G0 F9000 X158.4 Y82.991
G1 F1350 X158.4 Y25.872 E167.11955
G0 F9000 X160 Y25.945
G1 F1350 X160 Y83.049 E171.67783
G0 F9000 X161.6 Y82.954
G1 F1350 X161.6 Y26.184 E176.20946
G0 F9000 X163.2 Y26.615
G1 F1350 X163.2 Y82.708 E180.68705
G0 F9000 X164.8 Y82.294
G1 F1350 X164.8 Y27.234 E185.08217
G0 F9000 X166.4 Y28.093
G1 F1350 X166.4 Y81.716 E189.36259
G0 F9000 X168 Y80.956
G1 F1350 X168 Y29.236 E193.49111
G0 F9000 X169.6 Y30.73
G1 F1350 X169.6 Y79.981 E197.42254
G0 F9000 X171.2 Y78.728
G1 F1350 X171.2 Y32.809 E201.08799
G0 F9000 X172.8 Y36.164
G1 F1350 X172.8 Y77.112 E204.35664
G0 F9000 X174.4 Y74.96
G1 F1350 X174.4 Y56.55 E205.8262
G0 F9000 X176 Y59.799
G1 F1350 X176 Y71.737 E206.77914
G1 F3000 E198.77914
G0 F300 X176 Y71.737 Z0.54
G0 F9000 X177.124 Y71.758
G0 X177.575 Y70.235
G0 X177.897 Y68.681
G0 X178.08 Y67.106
G0 X178.128 Y65.515
G0 X178.044 Y63.975
G0 X174.497 Y38.692
G0 X174.153 Y36.958
G0 X173.661 Y35.374
G0 X172.759 Y33.366
G0 X172.57 Y33.042
G0 X171.577 Y31.46
G0 X170.694 Y32.058
;TIME_ELAPSED:127.578361
;LAYER:-5
M140 S60
;TYPE:SUPPORT
G1 F3000 E206.77914
G1 F1350 X170.581 Y31.903 E206.79828
G1 X170.035 Y31.213 E206.88608
G1 X169.919 Y31.077 E206.90392
G1 X169.313 Y30.419 E206.99317
G1 X169.197 Y30.301 E207.00968
G1 X168.502 Y29.647 E207.10491
G1 X167.577 Y28.889 E207.22423
G1 X167.256 Y28.663 E207.26341
G1 X170.785 Y32.192 E207.76139
G1 X171.28 Y32.929 E207.84997
G1 X171.862 Y33.949 E207.96715
G1 X172.271 Y34.786 E208.0601
G1 X172.34 Y34.942 E208.07712
G1 X172.487 Y35.308 E208.11648
G1 X164.136 Y26.957 E209.2949
G1 X163.857 Y26.842 E209.32501
G1 X163.758 Y26.802 E209.33566
G1 X162.906 Y26.515 E209.42537
G1 X162.751 Y26.469 E209.4415
G1 X162.051 Y26.286 E209.51369
G1 X173.166 Y37.402 E211.08221
G1 X173.169 Y37.417 E211.08374
G1 X173.468 Y39.011 E211.24556
G1 X173.479 Y39.129 E211.25739
G1 X160.332 Y25.981 E213.11264
G1 X159.75 Y25.916 E213.17107
G1 X158.816 Y25.88 E213.26434
G1 X173.59 Y40.654 E215.34911
G1 X173.602 Y41.124 E215.39602
G1 X173.574 Y42.052 E215.48866
G1 X157.394 Y25.872 E217.77183
G1 X155.979 Y25.872 E217.91302
G1 X173.444 Y43.336 E220.37745
G1 X173.267 Y44.322 E220.47741
G1 X173.219 Y44.525 E220.49822
G1 X154.565 Y25.872 E223.13043
G1 X153.151 Y25.872 E223.27152
G1 X172.956 Y45.676 E226.06615
G1 X172.914 Y45.889 E226.08781
G1 X172.871 Y46.569 E226.1558
G1 X172.871 Y47.006 E226.1994
G1 X151.737 Y25.872 E229.18164
G1 X150.323 Y25.872 E229.32273
G1 X172.871 Y48.42 E232.50449
G1 X172.871 Y49.834 E232.64558
G1 X148.908 Y25.872 E236.02695
G1 X147.494 Y25.872 E236.16804
G1 X172.871 Y51.248 E239.74894
G1 X172.871 Y52.623 E239.88614
G1 X172.874 Y52.666 E239.89044
G1 X146.08 Y25.872 E243.67136
G1 X144.666 Y25.872 E243.81245
G1 X173.182 Y54.388 E247.83637
G1 X173.255 Y54.611 E247.85978
G1 X173.548 Y55.229 E247.92802
G1 X173.683 Y55.437 E247.95276
G1 X173.663 Y55.45 E247.95515
G1 X174.113 Y56.089 E248.03313
G1 X174.841 Y57.263 E248.17096
G1 X174.89 Y57.354 E248.18128
G1 X175.051 Y57.671 E248.21675
G1 X143.251 Y25.871 E252.70408
G1 X141.837 Y25.871 E252.84517
G1 X176.14 Y60.174 E257.68569
G1 X176.492 Y61.325 E257.80579
G1 X176.535 Y61.506 E257.82435
G1 X176.665 Y62.114 E257.88639
G1 X140.422 Y25.871 E263.00067
G1 X139.008 Y25.871 E263.14176
G1 X176.944 Y63.807 E268.49494
G1 X177.005 Y64.295 E268.54401
G1 X177.013 Y64.409 E268.55541
G1 X177.049 Y65.326 E268.64698
G1 X137.594 Y25.871 E274.21451
G1 X136.18 Y25.871 E274.3556
G1 X177.029 Y66.721 E280.1199
G1 X177.01 Y67.172 E280.16494
G1 X176.99 Y67.371 E280.1849
G1 X176.906 Y68.011 E280.24931
G1 X134.766 Y25.871 E286.19572
G1 X133.351 Y25.871 E286.33691
G1 X176.703 Y69.222 E292.45427
G1 X176.48 Y70.226 E292.55689
G1 X176.44 Y70.364 E292.57123
G1 X176.438 Y70.372 E292.57205
G1 X131.937 Y25.871 E298.85162
G1 X130.522 Y25.87 E298.99281
G1 X176.102 Y71.451 E305.42471
G1 X176.089 Y71.494 E305.42919
G1 X176.003 Y71.727 E305.45398
G1 X175.696 Y72.459 E305.53318
G1 X129.108 Y25.87 E312.10732
G1 X127.694 Y25.87 E312.24841
G1 X175.257 Y73.433 E318.96006
G1 X174.773 Y74.364 E319.06476
G1 X126.28 Y25.87 E325.90772
G1 X124.865 Y25.87 E326.04891
G1 X174.226 Y75.231 E333.01428
G1 X173.989 Y75.603 E333.05829
G1 X173.933 Y75.682 E333.06795
G1 X173.645 Y76.064 E333.11569
G1 X123.451 Y25.87 E340.1986
G1 X122.037 Y25.87 E340.33969
G1 X173.024 Y76.857 E347.53451
G1 X172.36 Y77.607 E347.63446
G1 X120.623 Y25.87 E354.93511
G1 X119.209 Y25.87 E355.0762
G1 X171.648 Y78.309 E362.47591
G1 X171.015 Y78.898 E362.56218
G1 X170.921 Y78.977 E362.57443
G1 X170.909 Y78.985 E362.57587
G1 X117.794 Y25.87 E370.07097
G1 X116.627 Y25.87 E370.18742
G1 X116.384 Y25.875 E370.21167
G1 X170.114 Y79.604 E377.79348
G1 X169.83 Y79.825 E377.82939
G1 X169.723 Y79.899 E377.84237
G1 X169.282 Y80.187 E377.89492
G1 X115.049 Y25.954 E385.54779
G1 X114.989 Y25.957 E385.55378
G1 X113.818 Y26.137 E385.672
G1 X168.413 Y80.732 E393.37594
G1 X167.493 Y81.226 E393.48013
G1 X112.664 Y26.397 E401.2171
G1 X112.619 Y26.407 E401.2217
G1 X112.472 Y26.448 E401.23693
G1 X111.587 Y26.734 E401.32973
G1 X166.517 Y81.664 E409.08094
G1 X165.901 Y81.928 E409.14782
G1 X165.803 Y81.962 E409.15817
G1 X165.5 Y82.061 E409.18997
G1 X110.573 Y27.135 E416.94069
G1 X110.516 Y27.157 E416.94679
G1 X110.376 Y27.219 E416.96207
G1 X109.615 Y27.591 E417.04659
G1 X164.434 Y82.409 E424.78207
G1 X164.388 Y82.421 E424.78681
G1 X163.294 Y82.684 E424.89908
G1 X108.715 Y28.105 E432.60077
G1 X108.642 Y28.147 E432.60917
G1 X108.494 Y28.241 E432.62667
G1 X107.867 Y28.671 E432.70253
G1 X162.081 Y82.885 E440.35271
G1 X161.688 Y82.945 E440.39238
G1 X161.496 Y82.964 E440.41163
G1 X160.785 Y83.003 E440.48268
G1 X107.071 Y29.289 E448.06231
G1 X106.755 Y29.543 E448.10276
G1 X106.644 Y29.64 E448.11747
G1 X106.317 Y29.95 E448.16243
G1 X159.4 Y83.032 E455.65294
G1 X158.588 Y83.011 E455.73399
G1 X157.888 Y82.935 E455.80425
G1 X105.609 Y30.655 E463.18145
G1 X105.38 Y30.899 E463.21484
G1 X104.953 Y31.413 E463.28152
G1 X156.205 Y82.666 E470.5138
G1 X155.699 Y82.564 E470.5653
G1 X155.584 Y82.534 E470.57716
G1 X154.442 Y82.208 E470.69566
G1 X154.277 Y82.152 E470.71305
G1 X104.342 Y32.217 E477.75942
G1 X104.079 Y32.59 E477.80496
G1 X103.999 Y32.712 E477.81951
G1 X103.782 Y33.072 E477.86145
G1 X151.809 Y81.098 E484.63851
G1 X151.521 Y80.958 E484.67046
G1 X151.406 Y80.892 E484.68369
G1 X150.286 Y80.217 E484.81418
G1 X150.135 Y80.118 E484.83219
G1 X149.753 Y79.844 E484.8791
G1 X149.184 Y79.487 E484.94612
G1 X148.565 Y79.2 E485.0142
G1 X148.465 Y79.169 E485.02465
G1 X103.273 Y33.977 E491.40173
G1 X102.987 Y34.539 E491.46465
G1 X102.912 Y34.7 E491.48237
G1 X102.814 Y34.931 E491.50741
G1 X146.724 Y78.842 E497.70366
G1 X146.625 Y78.836 E497.71355
G1 X145.304 Y78.836 E497.84536
G1 X102.415 Y35.947 E503.89746
G1 X102.205 Y36.57 E503.96306
G1 X102.169 Y36.686 E503.97518
G1 X102.077 Y37.023 E504.01004
G1 X143.889 Y78.836 E509.91023
G1 X142.475 Y78.836 E510.05132
G1 X101.814 Y38.174 E515.7891
G1 X101.766 Y38.405 E515.81264
G1 X101.629 Y39.404 E515.91326
G1 X141.061 Y78.836 E521.47754
G1 X139.647 Y78.836 E521.61863
G1 X101.544 Y40.732 E526.99544
G1 X101.54 Y40.838 E527.00603
