;FLAVOR:Marlin
;TIME:12387
;Filament used: 9.30911m
;Layer height: 0.2
;MINX:8.144
;MINY:67.968
;MINZ:0.2
;MAXX:226.648
;MAXY:166.473
;MAXZ:10.6
;Generated with Cura_SteamEngine 4.1.0
M140 S60
M105
M190 S60
M104 S210
M105
M109 S210
M82 ;absolute extrusion mode
; Ender 3 Custom Start G-code
G28 ; Home all axes
M420 S1
G92 E0 ; Reset Extruder
G1 Z2.0 F3000 ; Move Z Axis up little to prevent scratching of Heat Bed
G1 X0.1 Y20 Z0.3 F5000.0 ; Move to start position
G1 X0.1 Y200.0 Z0.3 F1500.0 E15 ; Draw the first line
G1 X0.4 Y200.0 Z0.3 F5000.0 ; Move to side a little
G1 X0.4 Y20 Z0.3 F1500.0 E30 ; Draw the second line
G92 E0 ; Reset Extruder
G1 Z2.0 F3000 ; Move Z Axis up little to prevent scratching of Heat Bed
G92 E0
G92 E0
G1 F3600 E-6
;LAYER_COUNT:53
;LAYER:0
M107
M204 S500
M205 X10 Y10
G0 F3600 X14.622 Y69.359 Z0.2
;TYPE:SKIRT
G1 F3600 E0
G1 F1800 X15.4 Y69.221 E0.02365
G1 X16.325 Y69.16 E0.0514
G1 X33.775 Y69.055 E0.57376
G1 X34.564 Y69.09 E0.5974
G1 X35.345 Y69.205 E0.62103
G1 X35.636 Y69.278 E0.63001
G1 X36.652 Y69.272 E0.66043
G1 X36.675 Y69.272 E0.66112
G1 X43.48 Y69.249 E0.86482
G1 X93.884 Y69.011 E2.37364
G1 X144.283 Y68.772 E3.8823
G1 X192.842 Y68.543 E5.33589
G1 X197.88 Y68.507 E5.4867
G1 X197.909 Y68.507 E5.48757
G1 X199.206 Y68.502 E5.52639
G1 X199.379 Y68.454 E5.53177
G1 X200.157 Y68.319 E5.55541
G1 X201.05 Y68.262 E5.58219
G1 X201.531 Y68.259 E5.59659
G1 X201.555 Y68.259 E5.59731
G1 X210.342 Y68.231 E5.86034
G1 X210.452 Y68.199 E5.86377
G1 X211.229 Y68.056 E5.88742
G1 X212.202 Y67.989 E5.91661
G1 X212.712 Y67.986 E5.93188
G1 X212.732 Y67.986 E5.93248
G1 X218.064 Y67.968 E6.09209
G1 X218.852 Y68.005 E6.1157
G1 X219.633 Y68.122 E6.13934
G1 X220.74 Y68.432 E6.17375
G1 X221.075 Y68.553 E6.18442
G1 X221.803 Y68.858 E6.20804
G1 X222.497 Y69.236 E6.2317
G1 X223.148 Y69.682 E6.25532
G1 X223.752 Y70.191 E6.27897
G1 X224.301 Y70.759 E6.30261
G1 X224.789 Y71.379 E6.32623
G1 X225.213 Y72.046 E6.34989
G1 X225.566 Y72.752 E6.37352
G1 X225.772 Y73.293 E6.39085
G1 X225.856 Y73.476 E6.39687
G1 X226.112 Y74.224 E6.42054
G1 X226.29 Y74.993 E6.44417
G1 X226.398 Y75.881 E6.47094
G1 X226.435 Y76.47 E6.48861
G1 X226.448 Y76.819 E6.49906
G1 X226.451 Y76.84 E6.4997
G1 X226.492 Y77.628 E6.52332
G1 X226.471 Y78.215 E6.5409
G1 X226.456 Y78.415 E6.54691
G1 X226.432 Y78.881 E6.56087
G1 X226.312 Y79.662 E6.58453
G1 X226.274 Y79.809 E6.58907
G1 X226.297 Y83.055 E6.68624
G1 X226.297 Y83.074 E6.68681
G1 X226.556 Y137.677 E8.32132
G1 X226.648 Y157.171 E8.90486
G1 X226.642 Y157.503 E8.9148
G1 X226.627 Y157.899 E8.92666
G1 X226.558 Y158.686 E8.95031
G1 X226.409 Y159.461 E8.97394
G1 X226.182 Y160.218 E8.99759
G1 X225.88 Y160.947 E9.02121
G1 X225.506 Y161.643 E9.04487
G1 X225.063 Y162.297 E9.06851
G1 X224.557 Y162.903 E9.09214
G1 X224.251 Y163.215 E9.10522
G1 X224.135 Y163.327 E9.11005
G1 X223.54 Y163.846 E9.13369
G1 X222.895 Y164.303 E9.15735
G1 X222.208 Y164.691 E9.18097
G1 X221.485 Y165.009 E9.20461
G1 X220.733 Y165.251 E9.22826
G1 X219.961 Y165.416 E9.25189
G1 X219.176 Y165.502 E9.27553
G1 X218.754 Y165.516 E9.28817
G1 X67.483 Y166.232 E13.81638
G1 X16.71 Y166.473 E15.33624
G1 X15.921 Y166.437 E15.35989
G1 X15.14 Y166.321 E15.38352
G1 X14.374 Y166.127 E15.40717
G1 X13.633 Y165.856 E15.43079
G1 X12.922 Y165.512 E15.45444
G1 X12.25 Y165.097 E15.47808
G1 X11.623 Y164.617 E15.50172
G1 X11.205 Y164.236 E15.51865
G1 X11.088 Y164.121 E15.52356
G1 X10.554 Y163.539 E15.5472
G1 X10.081 Y162.907 E15.57083
G1 X9.674 Y162.23 E15.59448
G1 X9.338 Y161.515 E15.61812
G1 X9.076 Y160.77 E15.64176
G1 X8.891 Y160.003 E15.66538
G1 X8.784 Y159.22 E15.68904
G1 X8.756 Y158.639 E15.70645
G1 X8.716 Y154.779 E15.822
G1 X8.716 Y154.735 E15.82332
G1 X8.457 Y100.132 E17.45783
G1 X8.365 Y80.635 E18.04146
G1 X8.366 Y80.585 E18.04296
G1 X8.285 Y80.221 E18.05412
G1 X8.207 Y79.619 E18.07229
G1 X8.174 Y79.251 E18.08335
G1 X8.144 Y78.462 E18.10699
G1 X8.165 Y78.121 E18.11721
G1 X8.16 Y77.596 E18.13293
G1 X8.176 Y77.128 E18.14695
G1 X8.242 Y76.342 E18.17056
G1 X8.389 Y75.566 E18.1942
G1 X8.612 Y74.808 E18.21785
G1 X8.912 Y74.078 E18.24148
G1 X9.46 Y73.101 E18.27501
G1 X9.675 Y72.775 E18.2867
G1 X10.142 Y72.138 E18.31034
G1 X10.672 Y71.552 E18.33399
G1 X11.258 Y71.023 E18.35763
G1 X11.894 Y70.556 E18.38125
G1 X12.242 Y70.339 E18.39352
G1 X12.428 Y70.23 E18.39998
G1 X13.129 Y69.866 E18.42362
G1 X13.863 Y69.575 E18.44725
G1 X14.622 Y69.359 E18.47088
G0 F3600 X14.771 Y69.735
G1 F1800 X15.529 Y69.608 E18.49388
G1 X16.327 Y69.56 E18.51781
G1 X33.777 Y69.455 E19.04017
G1 X34.546 Y69.49 E19.06322
G1 X35.306 Y69.605 E19.08623
G1 X35.589 Y69.679 E19.09498
G1 X36.655 Y69.672 E19.12689
G1 X36.676 Y69.672 E19.12752
G1 X43.482 Y69.649 E19.33125
G1 X93.886 Y69.411 E20.84007
G1 X144.285 Y69.172 E22.34874
G1 X192.845 Y68.943 E23.80235
G1 X197.883 Y68.907 E23.95317
G1 X197.91 Y68.907 E23.95397
G1 X199.266 Y68.902 E23.99457
G1 X199.545 Y68.827 E24.00321
G1 X200.304 Y68.705 E24.02623
G1 X201.053 Y68.662 E24.04868
G1 X201.534 Y68.659 E24.06308
G1 X201.556 Y68.659 E24.06374
G1 X210.406 Y68.631 E24.32866
G1 X210.622 Y68.57 E24.33538
G1 X211.38 Y68.44 E24.3584
G1 X212.204 Y68.389 E24.38311
G1 X212.714 Y68.386 E24.39838
G1 X212.733 Y68.386 E24.39895
G1 X218.065 Y68.368 E24.55856
G1 X218.833 Y68.405 E24.58157
G1 X219.593 Y68.522 E24.60459
G1 X220.604 Y68.808 E24.63604
G1 X220.939 Y68.929 E24.6467
G1 X221.648 Y69.228 E24.66974
G1 X222.322 Y69.598 E24.69275
G1 X222.954 Y70.037 E24.71579
G1 X223.537 Y70.538 E24.7388
G1 X224.065 Y71.098 E24.76184
G1 X224.531 Y71.709 E24.78484
G1 X224.932 Y72.365 E24.80785
G1 X225.263 Y73.06 E24.8309
G1 X225.394 Y73.429 E24.84262
G1 X225.5 Y73.662 E24.85028
G1 X225.744 Y74.391 E24.87329
G1 X225.91 Y75.142 E24.89632
G1 X225.998 Y75.906 E24.91934
G1 X226.035 Y76.495 E24.937
G1 X226.049 Y76.858 E24.94788
G1 X226.049 Y76.862 E24.948
G1 X226.055 Y76.901 E24.94918
G1 X226.092 Y77.669 E24.97219
G1 X226.072 Y78.186 E24.98768
G1 X226.061 Y78.328 E24.99194
G1 X226.028 Y78.9 E25.00909
G1 X225.903 Y79.659 E25.03212
G1 X225.873 Y79.768 E25.0355
G1 X225.897 Y83.058 E25.13399
G1 X225.897 Y83.076 E25.13453
G1 X226.156 Y137.679 E26.76904
G1 X226.248 Y157.173 E27.35258
G1 X226.243 Y157.488 E27.36201
G1 X226.228 Y157.884 E27.37388
G1 X226.159 Y158.65 E27.3969
G1 X226.011 Y159.405 E27.41993
G1 X225.785 Y160.14 E27.44295
G1 X225.484 Y160.848 E27.46598
G1 X225.111 Y161.521 E27.48901
G1 X224.671 Y162.151 E27.51201
G1 X223.973 Y162.928 E27.54328
G1 X223.857 Y163.04 E27.5481
G1 X223.277 Y163.544 E27.5711
G1 X222.647 Y163.986 E27.59414
G1 X221.975 Y164.36 E27.61716
G1 X221.268 Y164.663 E27.64019
G1 X220.533 Y164.89 E27.66321
G1 X219.778 Y165.039 E27.68625
G1 X218.752 Y165.116 E27.71705
G1 X67.481 Y165.832 E32.24527
G1 X16.708 Y166.073 E33.76513
G1 X15.94 Y166.037 E33.78814
G1 X15.179 Y165.921 E33.81119
G1 X14.435 Y165.727 E33.8342
G1 X13.715 Y165.456 E33.85723
G1 X13.027 Y165.112 E33.88025
G1 X12.378 Y164.699 E33.90328
G1 X11.776 Y164.221 E33.92629
G1 X11.486 Y163.951 E33.93815
G1 X11.369 Y163.836 E33.94306
G1 X10.849 Y163.269 E33.96609
G1 X10.391 Y162.651 E33.98912
G1 X9.999 Y161.989 E34.01215
G1 X9.679 Y161.29 E34.03516
G1 X9.432 Y160.561 E34.0582
G1 X9.263 Y159.811 E34.08122
G1 X9.172 Y159.047 E34.10425
G1 X9.156 Y158.635 E34.11659
G1 X9.116 Y154.775 E34.23214
G1 X9.116 Y154.733 E34.2334
G1 X8.857 Y100.13 E35.86791
G1 X8.765 Y80.633 E36.45154
G1 X8.766 Y80.579 E36.45316
G1 X8.754 Y80.537 E36.45447
G1 X8.606 Y79.583 E36.48336
G1 X8.573 Y79.215 E36.49442
G1 X8.544 Y78.446 E36.51746
G1 X8.563 Y78.164 E36.52592
G1 X8.559 Y77.61 E36.5425
G1 X8.575 Y77.142 E36.55652
G1 X8.642 Y76.376 E36.57954
G1 X8.787 Y75.621 E36.60255
G1 X9.01 Y74.884 E36.6256
G1 X9.308 Y74.175 E36.64862
G1 X9.793 Y73.321 E36.67802
G1 X10.008 Y72.995 E36.68971
G1 X10.465 Y72.376 E36.71274
G1 X10.983 Y71.807 E36.73578
G1 X11.557 Y71.295 E36.7588
G1 X12.445 Y70.685 E36.79105
G1 X12.631 Y70.576 E36.7975
G1 X13.313 Y70.222 E36.82051
G1 X14.029 Y69.941 E36.84353
G1 X14.771 Y69.735 E36.86658
G0 F3600 X14.917 Y70.113
G1 F1800 X15.656 Y69.997 E36.88897
G1 X16.33 Y69.96 E36.90918
G1 X33.78 Y69.855 E37.43154
G1 X34.527 Y69.891 E37.45393
G1 X35.266 Y70.006 E37.47631
G1 X35.539 Y70.079 E37.48477
G1 X36.657 Y70.072 E37.51824
G1 X36.677 Y70.072 E37.51884
G1 X43.484 Y70.049 E37.7226
G1 X93.888 Y69.811 E39.23142
G1 X144.287 Y69.572 E40.74008
G1 X192.848 Y69.343 E42.19373
G1 X197.886 Y69.307 E42.34454
G1 X197.911 Y69.307 E42.34529
G1 X199.32 Y69.302 E42.38747
G1 X199.709 Y69.201 E42.3995
G1 X200.449 Y69.092 E42.42189
G1 X201.055 Y69.062 E42.44005
G1 X201.536 Y69.059 E42.45445
G1 X201.558 Y69.059 E42.45511
G1 X210.462 Y69.031 E42.72164
G1 X210.79 Y68.942 E42.73182
G1 X211.529 Y68.826 E42.75421
G1 X212.207 Y68.789 E42.77453
G1 X212.717 Y68.786 E42.7898
G1 X212.734 Y68.786 E42.79031
G1 X218.066 Y68.768 E42.94992
G1 X218.813 Y68.805 E42.97231
G1 X219.552 Y68.922 E42.9947
G1 X220.468 Y69.184 E43.02322
G1 X220.803 Y69.305 E43.03389
G1 X221.492 Y69.597 E43.05629
G1 X222.146 Y69.96 E43.07868
G1 X222.757 Y70.391 E43.10106
G1 X223.319 Y70.885 E43.12346
G1 X223.826 Y71.435 E43.14585
G1 X224.27 Y72.037 E43.16824
G1 X224.648 Y72.683 E43.19065
G1 X224.954 Y73.365 E43.21302
G1 X225.029 Y73.595 E43.22026
G1 X225.142 Y73.847 E43.22853
G1 X225.374 Y74.558 E43.25092
G1 X225.529 Y75.29 E43.27331
G1 X225.599 Y75.931 E43.29262
G1 X225.636 Y76.52 E43.31028
G1 X225.649 Y76.863 E43.32056
G1 X225.649 Y76.898 E43.32161
G1 X225.659 Y76.961 E43.32351
G1 X225.692 Y77.708 E43.3459
G1 X225.673 Y78.156 E43.35932
G1 X225.672 Y78.17 E43.35974
G1 X225.672 Y78.171 E43.35977
G1 X225.623 Y78.917 E43.38215
G1 X225.494 Y79.654 E43.40455
G1 X225.473 Y79.727 E43.40682
G1 X225.497 Y83.061 E43.50662
G1 X225.497 Y83.078 E43.50713
G1 X225.756 Y137.681 E45.14164
G1 X225.848 Y157.175 E45.72518
G1 X225.843 Y157.473 E45.73411
G1 X225.828 Y157.869 E45.74597
G1 X225.76 Y158.614 E45.76836
G1 X225.612 Y159.347 E45.79075
G1 X225.388 Y160.061 E45.81315
G1 X225.088 Y160.746 E45.83553
G1 X224.717 Y161.396 E45.85794
G1 X224.279 Y162.002 E45.88032
G1 X223.695 Y162.64 E45.90621
G1 X223.579 Y162.752 E45.91104
G1 X223.014 Y163.242 E45.93342
G1 X222.4 Y163.669 E45.95581
G1 X221.743 Y164.028 E45.97822
G1 X221.053 Y164.315 E46.00059
G1 X220.335 Y164.526 E46.02299
G1 X219.599 Y164.66 E46.04539
G1 X218.75 Y164.716 E46.07086
G1 X67.479 Y165.432 E50.59907
G1 X16.706 Y165.673 E52.11893
G1 X15.959 Y165.636 E52.14132
G1 X15.22 Y165.521 E52.16371
G1 X14.498 Y165.326 E52.1861
G1 X13.8 Y165.056 E52.2085
G1 X13.135 Y164.713 E52.2309
G1 X12.511 Y164.301 E52.25328
G1 X11.766 Y163.665 E52.2826
G1 X11.649 Y163.55 E52.28751
G1 X11.144 Y162.998 E52.30991
G1 X10.701 Y162.395 E52.33231
G1 X10.325 Y161.749 E52.35468
G1 X10.021 Y161.065 E52.37709
G1 X9.79 Y160.354 E52.39946
G1 X9.637 Y159.621 E52.42188
G1 X9.556 Y158.631 E52.45161
G1 X9.516 Y154.771 E52.56716
G1 X9.516 Y154.731 E52.56836
G1 X9.257 Y100.128 E54.20287
G1 X9.165 Y80.631 E54.78651
G1 X9.167 Y80.503 E54.79034
G1 X9.074 Y80.087 E54.8031
G1 X9.004 Y79.547 E54.8194
G1 X8.971 Y79.179 E54.83046
G1 X8.944 Y78.432 E54.85283
G1 X8.964 Y78.153 E54.86121
G1 X8.959 Y78.098 E54.86286
G1 X8.959 Y77.624 E54.87705
G1 X8.975 Y77.156 E54.89106
G1 X9.041 Y76.411 E54.91345
G1 X9.185 Y75.677 E54.93584
G1 X9.407 Y74.962 E54.95825
G1 X9.704 Y74.276 E54.98063
G1 X10.127 Y73.541 E55.00602
G1 X10.342 Y73.215 E55.01771
G1 X10.787 Y72.614 E55.04009
G1 X11.293 Y72.063 E55.06248
G1 X11.856 Y71.569 E55.0849
G1 X12.647 Y71.03 E55.11356
G1 X12.833 Y70.921 E55.12001
G1 X13.497 Y70.577 E55.1424
G1 X14.195 Y70.307 E55.1648
G1 X14.917 Y70.113 E55.18718
G0 F3600 X15.062 Y70.491
G1 F1800 X15.781 Y70.386 E55.20893
G1 X16.332 Y70.36 E55.22544
G1 X33.782 Y70.255 E55.7478
G1 X34.508 Y70.291 E55.76956
G1 X35.225 Y70.406 E55.7913
G1 X35.491 Y70.479 E55.79955
G1 X36.66 Y70.472 E55.83455
G1 X36.679 Y70.472 E55.83512
G1 X43.486 Y70.449 E56.03888
G1 X93.89 Y70.211 E57.54769
G1 X144.289 Y69.972 E59.05636
G1 X192.851 Y69.743 E60.51004
G1 X197.889 Y69.707 E60.66085
G1 X197.913 Y69.707 E60.66157
G1 X199.365 Y69.702 E60.70503
G1 X199.872 Y69.577 E60.72066
G1 X200.592 Y69.482 E60.7424
G1 X201.058 Y69.462 E60.75637
G1 X201.539 Y69.459 E60.77076
G1 X201.559 Y69.459 E60.77136
G1 X210.515 Y69.43 E61.03945
G1 X210.956 Y69.317 E61.05308
G1 X211.675 Y69.214 E61.07482
G1 X212.209 Y69.189 E61.09083
G1 X212.719 Y69.186 E61.10609
G1 X212.736 Y69.186 E61.1066
G1 X218.068 Y69.168 E61.26621
G1 X218.793 Y69.206 E61.28794
G1 X219.51 Y69.323 E61.30969
G1 X220.332 Y69.561 E61.33531
G1 X220.667 Y69.682 E61.34597
G1 X221.336 Y69.965 E61.36771
G1 X221.969 Y70.321 E61.38945
G1 X222.559 Y70.744 E61.41118
G1 X223.1 Y71.23 E61.43295
G1 X223.583 Y71.772 E61.45468
G1 X224.005 Y72.363 E61.47642
G1 X224.358 Y72.998 E61.49817
G1 X224.64 Y73.667 E61.5199
G1 X224.674 Y73.781 E61.52346
G1 X224.784 Y74.03 E61.53161
G1 X225.004 Y74.722 E61.55335
G1 X225.146 Y75.435 E61.57511
G1 X225.2 Y75.956 E61.59079
G1 X225.237 Y76.545 E61.60846
G1 X225.249 Y76.869 E61.61816
G1 X225.25 Y76.934 E61.62011
G1 X225.263 Y77.021 E61.62274
G1 X225.291 Y77.747 E61.64449
G1 X225.274 Y78.127 E61.65587
G1 X225.271 Y78.172 E61.65722
G1 X225.272 Y78.208 E61.6583
G1 X225.218 Y78.932 E61.68004
G1 X225.085 Y79.646 E61.70178
G1 X225.073 Y79.687 E61.70305
G1 X225.097 Y83.063 E61.80412
G1 X225.097 Y83.08 E61.80462
G1 X225.356 Y137.683 E63.43914
G1 X225.448 Y157.177 E64.02268
G1 X225.443 Y157.458 E64.03109
G1 X225.428 Y157.854 E64.04295
G1 X225.361 Y158.577 E64.06469
G1 X225.214 Y159.288 E64.08642
G1 X224.991 Y159.98 E64.10818
G1 X224.692 Y160.642 E64.12993
G1 X224.323 Y161.267 E64.15165
G1 X223.887 Y161.848 E64.1734
G1 X223.417 Y162.352 E64.19403
G1 X223.301 Y162.464 E64.19885
G1 X222.752 Y162.939 E64.22059
G1 X222.153 Y163.351 E64.24235
G1 X221.513 Y163.694 E64.26408
G1 X220.84 Y163.965 E64.2858
G1 X220.14 Y164.161 E64.30756
G1 X219.423 Y164.278 E64.32931
G1 X218.748 Y164.316 E64.34955
G1 X67.477 Y165.032 E68.87776
G1 X16.704 Y165.273 E70.39762
G1 X15.979 Y165.236 E70.41935
G1 X15.262 Y165.12 E70.44109
G1 X14.562 Y164.926 E70.46284
G1 X13.887 Y164.656 E70.4846
G1 X13.247 Y164.314 E70.50632
G1 X12.648 Y163.903 E70.52807
G1 X12.046 Y163.38 E70.55194
G1 X11.929 Y163.265 E70.55685
G1 X11.44 Y162.728 E70.57859
G1 X11.013 Y162.141 E70.60032
G1 X10.653 Y161.51 E70.62207
G1 X10.364 Y160.843 E70.64382
G1 X10.151 Y160.149 E70.66556
G1 X10.015 Y159.436 E70.68728
G1 X9.956 Y158.626 E70.71159
G1 X9.916 Y154.766 E70.82715
G1 X9.916 Y154.729 E70.82825
G1 X9.657 Y100.126 E72.46276
G1 X9.565 Y80.629 E73.0464
G1 X9.567 Y80.477 E73.05095
G1 X9.535 Y80.362 E73.05452
G1 X9.402 Y79.511 E73.0803
G1 X9.369 Y79.143 E73.09136
G1 X9.344 Y78.418 E73.11308
G1 X9.38 Y78.069 E73.12358
G1 X9.359 Y77.637 E73.13653
G1 X9.375 Y77.169 E73.15055
G1 X9.44 Y76.446 E73.17228
G1 X9.583 Y75.734 E73.19401
G1 X9.805 Y75.042 E73.21577
G1 X10.101 Y74.379 E73.2375
G1 X10.461 Y73.761 E73.25891
G1 X10.676 Y73.435 E73.2706
G1 X11.109 Y72.852 E73.29234
G1 X11.603 Y72.32 E73.31407
G1 X12.153 Y71.845 E73.33583
G1 X12.849 Y71.375 E73.36096
G1 X13.035 Y71.266 E73.36742
G1 X13.681 Y70.934 E73.38916
G1 X14.36 Y70.674 E73.41092
G1 X15.062 Y70.491 E73.43264
G0 F3600 X15.206 Y70.871
G1 F1800 X15.903 Y70.778 E73.45369
G1 X16.335 Y70.76 E73.46663
G1 X33.785 Y70.655 E73.98899
G1 X34.488 Y70.691 E74.01006
G1 X35.182 Y70.806 E74.03112
G1 X35.44 Y70.88 E74.03916
G1 X36.662 Y70.872 E74.07574
G1 X36.68 Y70.872 E74.07627
G1 X43.488 Y70.849 E74.28007
G1 X93.892 Y70.611 E75.78888
G1 X144.291 Y70.372 E77.29755
G1 X192.854 Y70.143 E78.75126
G1 X197.892 Y70.107 E78.90207
G1 X197.914 Y70.107 E78.90273
G1 X199.403 Y70.102 E78.9473
G1 X200.031 Y69.955 E78.96661
G1 X201.06 Y69.862 E78.99753
G1 X201.541 Y69.859 E79.01193
G1 X201.56 Y69.859 E79.0125
G1 X210.557 Y69.83 E79.28182
G1 X211.119 Y69.693 E79.29914
G1 X211.818 Y69.604 E79.32023
G1 X212.212 Y69.589 E79.33203
G1 X212.722 Y69.586 E79.3473
G1 X212.737 Y69.586 E79.34775
G1 X218.069 Y69.568 E79.50736
G1 X218.772 Y69.606 E79.52843
G1 X219.466 Y69.723 E79.5495
G1 X220.196 Y69.937 E79.57227
G1 X220.531 Y70.058 E79.58293
G1 X221.179 Y70.334 E79.60402
G1 X221.791 Y70.682 E79.62509
