;FLAVOR:Marlin
;TIME:214
;Filament used: 0.059307m
;Layer height: 0.12
;MINX:87.6
;MINY:96.6
;MINZ:0.2
;MAXX:131.4
;MAXY:138.4
;MAXZ:0.92
;Generated with Cura_SteamEngine 4.2.1
M140 S70
M105
M190 S70
M104 S210
M105
M109 S210
M82 ;absolute extrusion mode
; Ender 3 Custom Start G-code
G28 ; Home all axes
M420 S1
G92 E0 ; Reset Extruder
G1 Z2.0 F3000 ; Move Z Axis up little to prevent scratching of Heat Bed
G1 X0.1 Y20 Z0.3 F5000.0 ; Move to start position
G1 X0.1 Y200.0 Z0.3 F1500.0 E15 ; Draw the first line
G1 X0.4 Y200.0 Z0.3 F5000.0 ; Move to side a little
G1 X0.4 Y20 Z0.3 F1500.0 E30 ; Draw the second line
G92 E0 ; Reset Extruder
G1 Z2.0 F3000 ; Move Z Axis up little to prevent scratching of Heat Bed
G92 E0
G92 E0
G1 F3000 E-8
;LAYER_COUNT:7
;LAYER:0
M107
M204 S500
M205 X8 Y8
G0 F6000 X91.51 Y99.423 Z0.2
;TYPE:SKIRT
G1 F3000 E0
G1 F1200 X92.255 Y98.826 E0.03175
G1 X93.047 Y98.293 E0.0635
G1 X93.881 Y97.828 E0.09526
G1 X94.751 Y97.434 E0.12703
G1 X95.651 Y97.115 E0.15879
G1 X96.574 Y96.872 E0.19053
G1 X97.515 Y96.708 E0.2223
G1 X98.69 Y96.614 E0.26151
G1 X99.01 Y96.605 E0.27216
G1 X99.33 Y96.6 E0.2828
G1 X103.293 Y96.6 E0.41461
G1 X103.453 Y96.601 E0.41993
G1 X104.164 Y96.611 E0.44358
G1 X104.49 Y96.62 E0.45443
G1 X105.771 Y96.675 E0.49707
G1 X108.296 Y96.747 E0.58109
G1 X110.797 Y96.747 E0.66427
G1 X113.355 Y96.675 E0.74939
G1 X114.338 Y96.626 E0.78212
G1 X114.585 Y96.617 E0.79034
G1 X115.004 Y96.605 E0.80429
G1 X115.33 Y96.6 E0.81513
G1 X119.293 Y96.6 E0.94694
G1 X119.456 Y96.601 E0.95236
G1 X120.154 Y96.611 E0.97558
G1 X121.108 Y96.665 E1.00736
G1 X122.053 Y96.798 E1.0391
G1 X122.984 Y97.01 E1.07086
G1 X123.894 Y97.299 E1.10261
G1 X124.777 Y97.663 E1.13438
G1 X125.626 Y98.1 E1.16614
G1 X126.435 Y98.606 E1.19788
G1 X127.199 Y99.178 E1.22962
G1 X127.913 Y99.812 E1.26138
G1 X128.571 Y100.504 E1.29314
G1 X129.169 Y101.248 E1.32489
G1 X129.703 Y102.04 E1.35666
G1 X130.168 Y102.874 E1.38842
G1 X130.563 Y103.743 E1.42017
G1 X130.882 Y104.643 E1.45192
G1 X131.126 Y105.566 E1.48368
G1 X131.291 Y106.507 E1.51545
G1 X131.386 Y107.682 E1.55466
G1 X131.395 Y107.995 E1.56508
G1 X131.4 Y108.323 E1.57599
G1 X131.4 Y126.264 E2.17271
G1 X131.399 Y126.405 E2.1774
G1 X131.39 Y127.132 E2.20158
G1 X131.338 Y128.085 E2.23332
G1 X131.207 Y129.031 E2.26509
G1 X130.997 Y129.963 E2.29686
G1 X130.71 Y130.873 E2.3286
G1 X130.347 Y131.756 E2.36035
G1 X129.912 Y132.606 E2.39211
G1 X129.407 Y133.417 E2.42389
G1 X128.837 Y134.182 E2.45562
G1 X128.204 Y134.897 E2.48738
G1 X127.514 Y135.557 E2.51914
G1 X126.77 Y136.156 E2.55091
G1 X125.98 Y136.691 E2.58264
G1 X125.147 Y137.158 E2.6144
G1 X124.278 Y137.554 E2.64616
G1 X123.379 Y137.876 E2.67793
G1 X122.456 Y138.121 E2.70969
G1 X121.516 Y138.288 E2.74144
G1 X120.311 Y138.387 E2.78165
G1 X119.99 Y138.396 E2.79234
G1 X119.67 Y138.4 E2.80298
G1 X115.707 Y138.4 E2.93479
G1 X115.546 Y138.399 E2.94014
G1 X114.836 Y138.389 E2.96376
G1 X114.512 Y138.38 E2.97454
G1 X113.232 Y138.325 E3.01715
G1 X110.704 Y138.253 E3.10127
G1 X108.203 Y138.253 E3.18445
G1 X105.647 Y138.324 E3.2695
G1 X104.663 Y138.374 E3.30227
G1 X104.415 Y138.383 E3.31052
G1 X103.996 Y138.395 E3.32447
G1 X103.67 Y138.4 E3.33531
G1 X99.707 Y138.4 E3.46712
G1 X99.56 Y138.399 E3.47201
G1 X98.862 Y138.39 E3.49523
G1 X97.909 Y138.338 E3.52697
G1 X96.963 Y138.206 E3.55874
G1 X96.032 Y137.995 E3.59049
G1 X95.121 Y137.708 E3.62226
G1 X94.238 Y137.345 E3.65401
G1 X93.389 Y136.909 E3.68575
G1 X92.578 Y136.404 E3.71753
G1 X91.813 Y135.833 E3.74928
G1 X91.099 Y135.2 E3.78102
G1 X90.439 Y134.509 E3.8128
G1 X89.84 Y133.766 E3.84454
G1 X89.306 Y132.975 E3.87629
G1 X88.839 Y132.142 E3.90805
G1 X88.444 Y131.273 E3.9398
G1 X88.122 Y130.374 E3.97156
G1 X87.878 Y129.451 E4.00331
G1 X87.711 Y128.511 E4.03507
G1 X87.613 Y127.299 E4.07551
G1 X87.604 Y126.966 E4.08659
G1 X87.6 Y126.658 E4.09683
G1 X87.6 Y125.685 E4.12919
G1 X87.601 Y125.513 E4.13492
G1 X87.611 Y124.852 E4.1569
G1 X87.629 Y124.367 E4.17305
G1 X87.793 Y121.527 E4.26766
G1 X87.864 Y119.049 E4.35011
G1 X87.864 Y116.548 E4.4333
G1 X87.793 Y113.998 E4.51814
G1 X87.647 Y111.388 E4.60509
G1 X87.631 Y110.988 E4.6184
G1 X87.602 Y109.586 E4.66504
G1 X87.6 Y109.35 E4.67289
G1 X87.6 Y108.674 E4.69538
G1 X87.601 Y108.503 E4.70106
G1 X87.611 Y107.838 E4.72319
G1 X87.666 Y106.884 E4.75497
G1 X87.8 Y105.939 E4.78671
G1 X88.012 Y105.008 E4.81847
G1 X88.302 Y104.098 E4.85024
G1 X88.667 Y103.216 E4.88199
G1 X89.104 Y102.367 E4.91375
G1 X89.611 Y101.558 E4.9455
G1 X90.183 Y100.794 E4.97724
G1 X90.818 Y100.081 E5.009
G1 X91.51 Y99.423 E5.04076
G0 F6000 X91.899 Y99.616
G1 F1200 X92.64 Y99.041 E5.07195
G1 X93.427 Y98.531 E5.10315
G1 X94.255 Y98.09 E5.13435
G1 X95.117 Y97.721 E5.16553
G1 X96.008 Y97.427 E5.19674
G1 X96.92 Y97.209 E5.22793
G1 X97.847 Y97.071 E5.2591
G1 X98.701 Y97.013 E5.28757
G1 X99.021 Y97.004 E5.29822
G1 X99.33 Y97 E5.3085
G1 X103.293 Y97 E5.44031
G1 X103.448 Y97.001 E5.44546
G1 X104.159 Y97.011 E5.46911
G1 X104.473 Y97.02 E5.47956
G1 X105.744 Y97.074 E5.52187
G1 X108.284 Y97.147 E5.60639
G1 X110.809 Y97.147 E5.69037
G1 X113.385 Y97.075 E5.77608
G1 X114.358 Y97.026 E5.80848
G1 X114.596 Y97.017 E5.81641
G1 X115.015 Y97.005 E5.83035
G1 X115.33 Y97 E5.84083
G1 X119.293 Y97 E5.97264
G1 X119.451 Y97.001 E5.97789
G1 X120.149 Y97.011 E6.00111
G1 X121.085 Y97.065 E6.03229
G1 X122.013 Y97.197 E6.06347
G1 X122.927 Y97.409 E6.09467
G1 X123.819 Y97.698 E6.12586
G1 X124.684 Y98.061 E6.15706
G1 X125.514 Y98.497 E6.18824
G1 X126.305 Y99.002 E6.21946
G1 X127.049 Y99.573 E6.25065
G1 X127.742 Y100.205 E6.28185
G1 X128.379 Y100.893 E6.31303
G1 X128.954 Y101.634 E6.34423
G1 X129.465 Y102.42 E6.37541
G1 X129.907 Y103.248 E6.40663
G1 X130.276 Y104.11 E6.43781
G1 X130.571 Y105 E6.469
G1 X130.789 Y105.912 E6.50019
G1 X130.929 Y106.84 E6.5314
G1 X130.986 Y107.694 E6.55987
G1 X130.995 Y108.007 E6.57028
G1 X131 Y108.323 E6.58079
G1 X131 Y126.264 E7.17751
G1 X130.999 Y126.4 E7.18204
G1 X130.99 Y127.127 E7.20622
G1 X130.939 Y128.064 E7.23743
G1 X130.807 Y128.992 E7.26861
G1 X130.598 Y129.906 E7.29979
G1 X130.311 Y130.799 E7.33099
G1 X129.949 Y131.665 E7.36221
G1 X129.515 Y132.496 E7.39339
G1 X129.011 Y133.287 E7.42458
G1 X128.442 Y134.032 E7.45576
G1 X127.811 Y134.727 E7.48698
G1 X127.124 Y135.365 E7.51817
G1 X126.385 Y135.942 E7.54935
G1 X125.599 Y136.454 E7.58055
G1 X124.773 Y136.897 E7.61173
G1 X123.911 Y137.269 E7.64295
G1 X123.022 Y137.565 E7.67412
G1 X122.11 Y137.785 E7.70532
G1 X121.183 Y137.926 E7.73651
G1 X120.299 Y137.987 E7.76598
G1 X119.978 Y137.996 E7.77666
G1 X119.67 Y138 E7.7869
G1 X115.707 Y138 E7.91871
G1 X115.552 Y137.999 E7.92387
G1 X114.842 Y137.989 E7.94749
G1 X114.529 Y137.98 E7.9579
G1 X113.259 Y137.926 E8.00018
G1 X110.716 Y137.853 E8.0848
G1 X108.192 Y137.853 E8.16874
G1 X105.616 Y137.925 E8.25446
G1 X104.643 Y137.974 E8.28686
G1 X104.404 Y137.983 E8.29481
G1 X103.985 Y137.995 E8.30875
G1 X103.67 Y138 E8.31923
G1 X99.707 Y138 E8.45104
G1 X99.565 Y137.999 E8.45577
G1 X98.867 Y137.99 E8.47898
G1 X97.931 Y137.938 E8.51016
G1 X97.002 Y137.806 E8.54137
G1 X96.088 Y137.596 E8.57256
G1 X95.195 Y137.309 E8.60376
G1 X94.33 Y136.946 E8.63496
G1 X93.499 Y136.512 E8.66614
G1 X92.708 Y136.008 E8.69734
G1 X91.963 Y135.438 E8.72854
G1 X91.269 Y134.807 E8.75974
G1 X90.632 Y134.12 E8.7909
G1 X90.055 Y133.38 E8.82211
G1 X89.543 Y132.594 E8.85331
G1 X89.1 Y131.767 E8.88451
G1 X88.729 Y130.906 E8.91569
G1 X88.433 Y130.016 E8.94689
G1 X88.214 Y129.104 E8.97808
G1 X88.073 Y128.177 E9.00927
G1 X88.013 Y127.288 E9.03891
G1 X88.004 Y126.955 E9.04999
G1 X88 Y126.658 E9.05986
G1 X88 Y125.685 E9.09223
G1 X88.001 Y125.519 E9.09775
G1 X88.011 Y124.858 E9.11974
G1 X88.028 Y124.39 E9.13531
G1 X88.193 Y121.527 E9.23069
G1 X88.264 Y119.061 E9.31275
G1 X88.264 Y116.537 E9.3967
G1 X88.193 Y113.999 E9.48114
G1 X88.046 Y111.365 E9.56889
G1 X88.031 Y110.979 E9.58173
G1 X88.002 Y109.577 E9.62838
G1 X88 Y109.35 E9.63593
G1 X88 Y108.674 E9.65841
G1 X88.001 Y108.509 E9.6639
G1 X88.011 Y107.844 E9.68602
G1 X88.065 Y106.907 E9.71723
G1 X88.199 Y105.979 E9.74842
G1 X88.411 Y105.065 E9.77963
G1 X88.7 Y104.173 E9.81081
G1 X89.065 Y103.309 E9.84201
G1 X89.501 Y102.479 E9.87319
G1 X90.007 Y101.689 E9.90439
G1 X90.578 Y100.945 E9.93559
G1 X91.21 Y100.252 E9.96678
G1 X91.899 Y99.616 E9.99797
G0 F6000 X92.288 Y99.813
G1 F1200 X93.024 Y99.261 E10.02857
G1 X93.806 Y98.774 E10.05921
G1 X94.627 Y98.358 E10.08982
G1 X95.481 Y98.014 E10.12044
G1 X96.361 Y97.745 E10.15105
G1 X97.262 Y97.554 E10.18168
G1 X98.176 Y97.442 E10.21231
G1 X98.712 Y97.413 E10.23016
G1 X99.032 Y97.404 E10.24081
G1 X99.33 Y97.4 E10.25072
G1 X103.293 Y97.4 E10.38253
G1 X103.442 Y97.401 E10.38749
G1 X104.153 Y97.411 E10.41114
G1 X104.456 Y97.42 E10.42122
G1 X105.643 Y97.471 E10.46074
G1 X108.308 Y97.547 E10.54941
G1 X110.82 Y97.547 E10.63296
G1 X113.372 Y97.476 E10.71787
G1 X114.378 Y97.425 E10.75138
G1 X114.608 Y97.416 E10.75903
G1 X115.027 Y97.404 E10.77297
G1 X115.33 Y97.4 E10.78305
G1 X119.293 Y97.4 E10.91486
G1 X119.445 Y97.401 E10.91992
G1 X120.143 Y97.411 E10.94314
G1 X121.062 Y97.464 E10.97375
G1 X121.973 Y97.597 E11.00438
G1 X122.869 Y97.808 E11.03499
G1 X123.743 Y98.096 E11.0656
G1 X124.59 Y98.459 E11.09625
G1 X125.401 Y98.894 E11.12686
G1 X126.171 Y99.398 E11.15747
G1 X126.895 Y99.967 E11.18809
G1 X127.567 Y100.597 E11.21873
G1 X128.182 Y101.282 E11.24935
G1 X128.735 Y102.018 E11.27997
G1 X129.222 Y102.799 E11.31058
G1 X129.639 Y103.62 E11.34121
G1 X129.984 Y104.474 E11.37184
G1 X130.253 Y105.354 E11.40245
G1 X130.445 Y106.255 E11.43309
G1 X130.558 Y107.168 E11.46369
G1 X130.587 Y107.705 E11.48157
G1 X130.596 Y108.018 E11.49199
G1 X130.6 Y108.323 E11.50213
G1 X130.6 Y126.264 E12.09885
G1 X130.599 Y126.395 E12.10321
G1 X130.59 Y127.122 E12.12739
G1 X130.539 Y128.041 E12.158
G1 X130.408 Y128.953 E12.18865
G1 X130.198 Y129.849 E12.21926
G1 X129.912 Y130.724 E12.24988
G1 X129.551 Y131.571 E12.2805
G1 X129.117 Y132.383 E12.31112
G1 X128.615 Y133.155 E12.34175
G1 X128.047 Y133.88 E12.37238
G1 X127.419 Y134.553 E12.403
G1 X126.735 Y135.169 E12.43361
G1 X126 Y135.723 E12.46423
G1 X125.22 Y136.212 E12.49485
G1 X124.4 Y136.631 E12.52547
G1 X123.547 Y136.977 E12.55609
G1 X122.667 Y137.248 E12.58672
G1 X121.767 Y137.441 E12.61733
G1 X120.853 Y137.556 E12.64797
G1 X120.288 Y137.587 E12.66679
G1 X119.967 Y137.596 E12.67747
G1 X119.67 Y137.6 E12.68735
G1 X115.707 Y137.6 E12.81916
G1 X115.558 Y137.599 E12.82412
G1 X114.848 Y137.589 E12.84773
G1 X114.546 Y137.58 E12.85778
G1 X113.36 Y137.529 E12.89726
G1 X110.692 Y137.453 E12.98604
G1 X108.181 Y137.453 E13.06955
G1 X105.629 Y137.524 E13.15447
G1 X104.623 Y137.575 E13.18797
G1 X104.392 Y137.584 E13.19566
G1 X103.973 Y137.596 E13.2096
G1 X103.67 Y137.6 E13.21968
G1 X99.707 Y137.6 E13.35149
G1 X99.57 Y137.599 E13.35605
G1 X98.872 Y137.59 E13.37926
G1 X97.953 Y137.538 E13.40988
G1 X97.042 Y137.407 E13.44049
G1 X96.146 Y137.197 E13.4711
G1 X95.271 Y136.91 E13.50173
G1 X94.424 Y136.548 E13.53236
G1 X93.612 Y136.114 E13.56299
G1 X92.841 Y135.612 E13.59359
G1 X92.116 Y135.044 E13.62422
G1 X91.443 Y134.415 E13.65486
G1 X90.828 Y133.731 E13.68545
G1 X90.274 Y132.996 E13.71606
G1 X89.786 Y132.215 E13.74669
G1 X89.367 Y131.395 E13.77732
G1 X89.021 Y130.542 E13.80794
G1 X88.751 Y129.662 E13.83855
G1 X88.558 Y128.761 E13.8692
G1 X88.444 Y127.848 E13.8998
G1 X88.413 Y127.277 E13.91882
G1 X88.404 Y126.944 E13.9299
G1 X88.4 Y126.658 E13.93941
G1 X88.4 Y125.685 E13.97178
G1 X88.401 Y125.525 E13.9771
G1 X88.411 Y124.864 E13.99909
G1 X88.428 Y124.413 E14.0141
G1 X88.591 Y121.596 E14.10795
G1 X88.664 Y119.037 E14.1931
G1 X88.664 Y116.526 E14.27661
G1 X88.593 Y114.001 E14.36063
G1 X88.445 Y111.343 E14.44917
G1 X88.431 Y110.971 E14.46155
G1 X88.402 Y109.569 E14.50819
G1 X88.4 Y109.35 E14.51548
G1 X88.4 Y108.674 E14.53796
G1 X88.401 Y108.515 E14.54325
G1 X88.411 Y107.85 E14.56537
G1 X88.465 Y106.931 E14.59599
G1 X88.598 Y106.02 E14.62661
G1 X88.81 Y105.124 E14.65723
G1 X89.099 Y104.249 E14.68788
G1 X89.463 Y103.404 E14.71848
G1 X89.898 Y102.593 E14.74909
G1 X90.403 Y101.822 E14.77975
G1 X90.972 Y101.099 E14.81035
G1 X91.602 Y100.427 E14.84098
G1 X92.288 Y99.813 E14.8716
G0 F6000 X91.993 Y100.606
G1 F1200 X92.675 Y100.014 E14.90164
G1 X93.407 Y99.485 E14.93168
G1 X94.183 Y99.023 E14.96172
G1 X94.997 Y98.632 E14.99175
G1 X95.842 Y98.313 E15.02179
G1 X96.712 Y98.071 E15.05183
G1 X97.6 Y97.907 E15.08186
G1 X98.723 Y97.813 E15.11935
G1 X99.043 Y97.804 E15.12999
G1 X99.33 Y97.8 E15.13954
G1 X103.293 Y97.8 E15.27135
G1 X103.436 Y97.801 E15.27611
G1 X104.147 Y97.811 E15.29976
G1 X104.439 Y97.819 E15.30947
G1 X105.688 Y97.872 E15.35105
G1 X108.296 Y97.947 E15.43783
G1 X110.831 Y97.947 E15.52214
G1 X113.403 Y97.875 E15.60772
G1 X114.398 Y97.825 E15.64086
G1 X114.619 Y97.816 E15.64821
G1 X115.038 Y97.804 E15.66216
G1 X115.33 Y97.8 E15.67187
G1 X119.293 Y97.8 E15.80368
G1 X119.439 Y97.801 E15.80854
G1 X120.137 Y97.811 E15.83175
G1 X121.039 Y97.864 E15.86181
G1 X121.932 Y97.996 E15.89183
G1 X122.81 Y98.207 E15.92186
G1 X123.666 Y98.495 E15.9519
G1 X124.493 Y98.857 E15.98193
G1 X125.285 Y99.292 E16.01198
G1 X126.036 Y99.794 E16.04203
G1 X126.739 Y100.361 E16.07207
G1 X127.389 Y100.988 E16.1021
G1 X127.981 Y101.67 E16.13214
G1 X128.511 Y102.401 E16.16217
G1 X128.973 Y103.177 E16.19221
G1 X129.366 Y103.99 E16.22224
G1 X129.684 Y104.835 E16.25227
G1 X129.927 Y105.705 E16.28232
G1 X130.092 Y106.593 E16.31236
G1 X130.187 Y107.717 E16.34988
G1 X130.196 Y108.03 E16.36029
G1 X130.2 Y108.323 E16.37004
G1 X130.2 Y126.264 E16.96676
G1 X130.199 Y126.39 E16.97095
G1 X130.19 Y127.117 E16.99513
G1 X130.139 Y128.019 E17.02518
G1 X130.008 Y128.913 E17.05523
G1 X129.799 Y129.791 E17.08525
G1 X129.513 Y130.648 E17.1153
G1 X129.152 Y131.476 E17.14534
G1 X128.72 Y132.268 E17.17535
G1 X128.219 Y133.02 E17.2054
G1 X127.653 Y133.724 E17.23544
G1 X127.028 Y134.375 E17.26546
G1 X126.347 Y134.969 E17.29552
G1 X125.616 Y135.5 E17.32557
G1 X124.842 Y135.964 E17.35558
G1 X124.029 Y136.358 E17.38563
G1 X123.185 Y136.678 E17.41565
G1 X122.315 Y136.923 E17.44571
G1 X121.428 Y137.089 E17.47573
G1 X120.277 Y137.187 E17.51415
G1 X119.956 Y137.196 E17.52483
G1 X119.67 Y137.2 E17.53434
G1 X115.707 Y137.2 E17.66615
G1 X115.563 Y137.199 E17.67094
G1 X114.853 Y137.189 E17.69456
G1 X114.563 Y137.181 E17.70421
G1 X113.316 Y137.128 E17.74572
G1 X110.704 Y137.053 E17.83263
G1 X108.17 Y137.053 E17.91691
G1 X105.596 Y137.125 E18.00256
G1 X104.602 Y137.175 E18.03566
G1 X104.381 Y137.184 E18.04302
G1 X103.962 Y137.196 E18.05696
G1 X103.67 Y137.2 E18.06667
G1 X99.707 Y137.2 E18.19848
G1 X99.575 Y137.199 E18.20287
G1 X98.877 Y137.19 E18.22609
G1 X97.976 Y137.139 E18.25611
G1 X97.082 Y137.007 E18.28616
G1 X96.204 Y136.798 E18.31618
G1 X95.347 Y136.511 E18.34624
G1 X94.52 Y136.15 E18.37625
G1 X93.727 Y135.717 E18.4063
G1 X92.976 Y135.216 E18.43633
G1 X92.272 Y134.65 E18.46637
G1 X91.621 Y134.024 E18.49641
G1 X91.028 Y133.343 E18.52645
G1 X90.498 Y132.612 E18.55648
G1 X90.034 Y131.837 E18.58652
G1 X89.64 Y131.024 E18.61657
G1 X89.32 Y130.18 E18.64659
G1 X89.076 Y129.31 E18.67664
G1 X88.91 Y128.422 E18.70669
G1 X88.813 Y127.267 E18.74524
G1 X88.804 Y126.934 E18.75632
G1 X88.8 Y126.658 E18.7655
G1 X88.8 Y125.685 E18.79786
G1 X88.801 Y125.531 E18.80299
G1 X88.811 Y124.87 E18.82497
G1 X88.827 Y124.436 E18.83942
G1 X88.991 Y121.595 E18.93407
G1 X89.064 Y119.049 E19.01878
G1 X89.064 Y116.515 E19.10306
G1 X88.993 Y113.968 E19.18781
G1 X88.845 Y111.321 E19.27599
G1 X88.831 Y110.963 E19.2879
G1 X88.802 Y109.561 E19.33455
G1 X88.8 Y109.35 E19.34156
G1 X88.8 Y108.674 E19.36405
G1 X88.801 Y108.521 E19.36914
G1 X88.811 Y107.856 E19.39126
G1 X88.865 Y106.954 E19.42131
G1 X88.998 Y106.061 E19.45134
G1 X89.209 Y105.183 E19.48137
G1 X89.498 Y104.327 E19.51142
G1 X89.861 Y103.5 E19.54146
G1 X90.295 Y102.709 E19.57147
G1 X90.798 Y101.958 E19.60153
G1 X91.366 Y101.256 E19.63157
G1 X91.993 Y100.606 E19.66161
G1 F3000 E11.66161
;MESH:Object 1(1)
G0 F6000 X99.414 Y107.335
G0 X99.414 Y108.414
G0 X99.6 Y108.6
;TYPE:WALL-INNER
G1 F3000 E19.66161
G1 F1200 X103.4 Y108.6 E19.788
G1 X103.4 Y126.4 E20.38003
G1 X99.6 Y126.4 E20.50641
