;FLAVOR:Marlin
;TIME:614
;Filament used: 0.233493m
;Layer height: 0.1
;MINX:106.725
;MINY:101.3
;MINZ:0.2
;MAXX:128.275
;MAXY:133.7
;MAXZ:9.1
;Generated with Cura_SteamEngine 4.1.0
M140 S70
M105
M190 S70
M104 S190
M105
M109 S190
M82 ;absolute extrusion mode
; Ender 3 Custom Start G-code
G28 ; Home all axes
M420 S1
G92 E0 ; Reset Extruder
G1 Z2.0 F3000 ; Move Z Axis up little to prevent scratching of Heat Bed
G1 X0.1 Y20 Z0.3 F5000.0 ; Move to start position
G1 X0.1 Y200.0 Z0.3 F1500.0 E15 ; Draw the first line
G1 X0.4 Y200.0 Z0.3 F5000.0 ; Move to side a little
G1 X0.4 Y20 Z0.3 F1500.0 E30 ; Draw the second line
G92 E0 ; Reset Extruder
G1 Z2.0 F3000 ; Move Z Axis up little to prevent scratching of Heat Bed
G92 E0
G92 E0
G1 F3600 E-6
;LAYER_COUNT:90
;LAYER:0
M107
M204 S500
M205 X10 Y10
G0 F3600 X108.941 Y103.866 Z0.2
;TYPE:SKIRT
G1 F3600 E0
G1 F1800 X109.509 Y103.318 E0.02625
G1 X110.13 Y102.83 E0.05252
G1 X110.77 Y102.422 E0.07776
G1 X110.919 Y102.337 E0.08347
G1 X111.624 Y101.981 E0.10974
G1 X112.361 Y101.698 E0.136
G1 X113.123 Y101.491 E0.16226
G1 X113.902 Y101.362 E0.18852
G1 X114.766 Y101.312 E0.21731
G1 X120.029 Y101.3 E0.39235
G1 X120.818 Y101.338 E0.41863
G1 X121.495 Y101.436 E0.44138
G1 X121.749 Y101.484 E0.44998
G1 X122.517 Y101.669 E0.47625
G1 X123.262 Y101.932 E0.50253
G1 X123.976 Y102.268 E0.52877
G1 X124.653 Y102.675 E0.55505
G1 X125.285 Y103.148 E0.5813
G1 X125.919 Y103.738 E0.61011
G1 X126.049 Y103.873 E0.61634
G1 X126.568 Y104.468 E0.6426
G1 X127.023 Y105.114 E0.66888
G1 X127.411 Y105.801 E0.69512
G1 X127.727 Y106.525 E0.7214
G1 X127.969 Y107.277 E0.74767
G1 X128.133 Y108.049 E0.77392
G1 X128.218 Y108.834 E0.80018
G1 X128.231 Y109.262 E0.81443
G1 X128.275 Y125.298 E1.34779
G1 X128.267 Y125.674 E1.3603
G1 X128.252 Y126.003 E1.37125
G1 X128.176 Y126.789 E1.39752
G1 X128.021 Y127.564 E1.4238
G1 X127.789 Y128.318 E1.45004
G1 X127.481 Y129.046 E1.47633
G1 X127.11 Y129.724 E1.50204
G1 X127.015 Y129.879 E1.50808
G1 X126.569 Y130.531 E1.53436
G1 X126.059 Y131.134 E1.56063
G1 X125.491 Y131.682 E1.58688
G1 X124.87 Y132.17 E1.61314
G1 X124.23 Y132.578 E1.63839
G1 X124.081 Y132.663 E1.64409
G1 X123.376 Y133.019 E1.67036
G1 X122.639 Y133.302 E1.69662
G1 X121.877 Y133.509 E1.72288
G1 X121.098 Y133.638 E1.74915
G1 X120.234 Y133.688 E1.77793
G1 X114.971 Y133.7 E1.95298
G1 X114.182 Y133.662 E1.97925
G1 X113.505 Y133.564 E2.002
G1 X113.251 Y133.516 E2.0106
G1 X112.483 Y133.331 E2.03688
G1 X111.738 Y133.068 E2.06315
G1 X111.024 Y132.732 E2.0894
G1 X110.347 Y132.325 E2.11567
G1 X109.715 Y131.852 E2.14193
G1 X109.081 Y131.262 E2.17073
G1 X108.951 Y131.127 E2.17697
G1 X108.432 Y130.532 E2.20323
G1 X107.977 Y129.886 E2.22951
G1 X107.589 Y129.199 E2.25575
G1 X107.273 Y128.475 E2.28202
G1 X107.035 Y127.738 E2.30778
G1 X106.991 Y127.574 E2.31343
G1 X106.826 Y126.802 E2.33969
G1 X106.739 Y126.017 E2.36596
G1 X106.725 Y125.553 E2.3814
G1 X106.725 Y109.681 E2.9093
G1 X106.733 Y109.326 E2.92111
G1 X106.748 Y108.997 E2.93206
G1 X106.824 Y108.211 E2.95833
G1 X106.979 Y107.436 E2.98462
G1 X107.211 Y106.682 E3.01085
G1 X107.519 Y105.954 E3.03715
G1 X107.89 Y105.276 E3.06285
G1 X107.985 Y105.121 E3.0689
G1 X108.431 Y104.469 E3.09517
G1 X108.941 Y103.866 E3.12144
G0 F3600 X109.26 Y104.111
G1 F1800 X109.817 Y103.58 E3.14703
G1 X110.426 Y103.11 E3.17262
G1 X110.968 Y102.769 E3.19392
G1 X111.117 Y102.684 E3.19962
G1 X111.804 Y102.338 E3.22521
G1 X112.523 Y102.066 E3.25078
G1 X113.267 Y101.869 E3.27637
G1 X114.027 Y101.751 E3.30196
G1 X114.767 Y101.712 E3.3266
G1 X120.03 Y101.7 E3.50165
G1 X120.798 Y101.738 E3.52723
G1 X121.421 Y101.829 E3.54817
G1 X121.675 Y101.877 E3.55676
G1 X122.422 Y102.059 E3.58234
G1 X123.147 Y102.317 E3.60793
G1 X123.841 Y102.649 E3.63352
G1 X124.496 Y103.052 E3.6591
G1 X125.106 Y103.52 E3.68467
G1 X125.631 Y104.015 E3.70867
G1 X125.761 Y104.15 E3.7149
G1 X126.265 Y104.731 E3.74048
G1 X126.706 Y105.361 E3.76606
G1 X127.08 Y106.034 E3.79167
G1 X127.381 Y106.741 E3.81723
G1 X127.607 Y107.477 E3.84283
G1 X127.756 Y108.231 E3.8684
G1 X127.831 Y109.263 E3.90281
G1 X127.875 Y125.299 E4.43617
G1 X127.867 Y125.656 E4.44805
G1 X127.852 Y125.985 E4.45901
G1 X127.777 Y126.751 E4.4846
G1 X127.623 Y127.504 E4.51017
G1 X127.392 Y128.238 E4.53576
G1 X127.086 Y128.943 E4.56132
G1 X126.769 Y129.515 E4.58307
G1 X126.674 Y129.67 E4.58912
G1 X126.239 Y130.304 E4.61469
G1 X125.74 Y130.889 E4.64027
G1 X125.183 Y131.42 E4.66586
G1 X124.574 Y131.89 E4.69145
G1 X124.032 Y132.231 E4.71275
G1 X123.883 Y132.316 E4.71845
G1 X123.196 Y132.662 E4.74404
G1 X122.477 Y132.934 E4.7696
G1 X121.733 Y133.131 E4.7952
G1 X120.973 Y133.249 E4.82078
G1 X120.233 Y133.288 E4.84543
G1 X114.97 Y133.3 E5.02048
G1 X114.202 Y133.262 E5.04605
G1 X113.579 Y133.171 E5.06699
G1 X113.325 Y133.123 E5.07559
G1 X112.578 Y132.941 E5.10116
G1 X111.853 Y132.683 E5.12676
G1 X111.159 Y132.351 E5.15235
G1 X110.504 Y131.948 E5.17793
G1 X109.894 Y131.48 E5.2035
G1 X109.369 Y130.985 E5.2275
G1 X109.239 Y130.85 E5.23373
G1 X108.735 Y130.269 E5.25931
G1 X108.294 Y129.639 E5.28489
G1 X107.92 Y128.966 E5.3105
G1 X107.619 Y128.259 E5.33606
G1 X107.422 Y127.635 E5.35782
G1 X107.378 Y127.471 E5.36347
G1 X107.217 Y126.718 E5.38908
G1 X107.136 Y125.953 E5.41466
G1 X107.125 Y125.553 E5.42797
G1 X107.125 Y109.681 E5.95588
G1 X107.133 Y109.344 E5.96709
G1 X107.148 Y109.015 E5.97804
G1 X107.223 Y108.249 E6.00364
G1 X107.377 Y107.496 E6.02921
G1 X107.608 Y106.762 E6.0548
G1 X107.914 Y106.057 E6.08036
G1 X108.231 Y105.485 E6.10211
G1 X108.326 Y105.33 E6.10816
G1 X108.761 Y104.696 E6.13373
G1 X109.26 Y104.111 E6.15931
G0 F3600 X109.579 Y104.356
G1 F1800 X110.124 Y103.844 E6.18418
G1 X110.721 Y103.393 E6.20906
G1 X111.166 Y103.117 E6.22648
G1 X111.315 Y103.032 E6.23218
G1 X111.984 Y102.696 E6.25708
G1 X112.685 Y102.434 E6.28198
G1 X113.409 Y102.248 E6.30684
G1 X114.15 Y102.141 E6.33174
G1 X114.768 Y102.112 E6.35232
G1 X120.031 Y102.1 E6.52736
G1 X120.778 Y102.138 E6.55224
G1 X121.347 Y102.222 E6.57137
G1 X121.601 Y102.27 E6.57997
G1 X122.327 Y102.448 E6.60483
G1 X123.031 Y102.702 E6.62972
G1 X123.703 Y103.03 E6.6546
G1 X124.337 Y103.428 E6.67949
G1 X124.924 Y103.892 E6.70438
G1 X125.343 Y104.293 E6.72367
G1 X125.473 Y104.428 E6.7299
G1 X125.963 Y104.993 E6.75478
G1 X126.389 Y105.608 E6.77966
G1 X126.747 Y106.265 E6.80455
G1 X127.033 Y106.956 E6.82942
G1 X127.244 Y107.674 E6.85431
G1 X127.376 Y108.41 E6.87918
G1 X127.431 Y109.264 E6.90764
G1 X127.475 Y125.3 E7.441
G1 X127.468 Y125.638 E7.45225
G1 X127.453 Y125.967 E7.4632
G1 X127.379 Y126.711 E7.48807
G1 X127.226 Y127.443 E7.51294
G1 X126.996 Y128.155 E7.53783
G1 X126.691 Y128.838 E7.56271
G1 X126.428 Y129.306 E7.58056
G1 X126.333 Y129.461 E7.58661
G1 X125.909 Y130.077 E7.61148
G1 X125.421 Y130.644 E7.63636
G1 X124.876 Y131.156 E7.66124
G1 X124.279 Y131.607 E7.68612
G1 X123.834 Y131.883 E7.70354
G1 X123.685 Y131.968 E7.70924
G1 X123.016 Y132.304 E7.73414
G1 X122.315 Y132.566 E7.75903
G1 X121.591 Y132.752 E7.7839
G1 X120.85 Y132.859 E7.8088
G1 X120.232 Y132.888 E7.82937
G1 X114.969 Y132.9 E8.00442
G1 X114.222 Y132.862 E8.0293
G1 X113.653 Y132.778 E8.04843
G1 X113.399 Y132.73 E8.05703
G1 X112.673 Y132.552 E8.08189
G1 X111.969 Y132.298 E8.10678
G1 X111.297 Y131.97 E8.13165
G1 X110.663 Y131.572 E8.15655
G1 X110.076 Y131.108 E8.18144
G1 X109.657 Y130.707 E8.20073
G1 X109.527 Y130.572 E8.20696
G1 X109.037 Y130.007 E8.23184
G1 X108.611 Y129.392 E8.25672
G1 X108.253 Y128.735 E8.2816
G1 X107.967 Y128.044 E8.30648
G1 X107.808 Y127.531 E8.32434
G1 X107.764 Y127.367 E8.32999
G1 X107.609 Y126.635 E8.35487
G1 X107.525 Y125.553 E8.39097
G1 X107.525 Y109.681 E8.91887
G1 X107.532 Y109.362 E8.92949
G1 X107.547 Y109.033 E8.94044
G1 X107.621 Y108.289 E8.96531
G1 X107.774 Y107.557 E8.99018
G1 X108.004 Y106.845 E9.01507
G1 X108.309 Y106.162 E9.03995
G1 X108.572 Y105.694 E9.0578
G1 X108.667 Y105.539 E9.06385
G1 X109.091 Y104.923 E9.08872
G1 X109.579 Y104.356 E9.1136
G0 F3600 X109.897 Y104.602
G1 F1800 X110.431 Y104.109 E9.13778
G1 X111.015 Y103.678 E9.16192
G1 X111.365 Y103.464 E9.17556
G1 X111.514 Y103.379 E9.18127
G1 X112.163 Y103.055 E9.20539
G1 X112.845 Y102.803 E9.22957
G1 X113.55 Y102.628 E9.25373
G1 X114.27 Y102.532 E9.27789
G1 X114.769 Y102.512 E9.2945
G1 X120.032 Y102.5 E9.46955
G1 X120.757 Y102.538 E9.4937
G1 X121.273 Y102.615 E9.51105
G1 X121.527 Y102.663 E9.51965
G1 X122.232 Y102.837 E9.5438
G1 X122.914 Y103.087 E9.56796
G1 X123.564 Y103.411 E9.59212
G1 X124.174 Y103.804 E9.61625
G1 X124.738 Y104.262 E9.64042
G1 X125.055 Y104.57 E9.65512
G1 X125.185 Y104.705 E9.66135
G1 X125.659 Y105.255 E9.6855
G1 X126.07 Y105.854 E9.70966
G1 X126.413 Y106.495 E9.73384
G1 X126.683 Y107.169 E9.75799
G1 X126.878 Y107.869 E9.78216
G1 X126.994 Y108.586 E9.80632
G1 X127.031 Y109.265 E9.82893
G1 X127.075 Y125.301 E10.3623
G1 X127.068 Y125.62 E10.37291
G1 X127.053 Y125.949 E10.38386
G1 X126.98 Y126.671 E10.408
G1 X126.828 Y127.382 E10.43218
G1 X126.599 Y128.071 E10.45633
G1 X126.296 Y128.731 E10.48048
G1 X126.087 Y129.097 E10.4945
G1 X125.992 Y129.252 E10.50055
G1 X125.579 Y129.849 E10.52469
G1 X125.103 Y130.398 E10.54886
G1 X124.569 Y130.891 E10.57303
G1 X123.985 Y131.322 E10.59717
G1 X123.635 Y131.536 E10.61082
G1 X123.486 Y131.621 E10.61652
G1 X122.837 Y131.945 E10.64065
G1 X122.155 Y132.197 E10.66483
G1 X121.45 Y132.372 E10.68899
G1 X120.73 Y132.468 E10.71315
G1 X120.231 Y132.488 E10.72976
G1 X114.968 Y132.5 E10.90481
G1 X114.243 Y132.462 E10.92896
G1 X113.727 Y132.385 E10.94631
G1 X113.473 Y132.337 E10.95491
G1 X112.768 Y132.163 E10.97906
G1 X112.086 Y131.913 E11.00322
G1 X111.436 Y131.589 E11.02737
G1 X110.826 Y131.196 E11.05151
G1 X110.262 Y130.738 E11.07567
G1 X109.945 Y130.43 E11.09037
G1 X109.815 Y130.295 E11.09661
G1 X109.341 Y129.745 E11.12076
G1 X108.93 Y129.146 E11.14492
G1 X108.587 Y128.505 E11.1691
G1 X108.317 Y127.831 E11.19325
G1 X108.194 Y127.427 E11.20729
G1 X108.15 Y127.263 E11.21294
G1 X108.001 Y126.552 E11.2371
G1 X107.925 Y125.553 E11.27043
G1 X107.925 Y109.681 E11.79833
G1 X107.932 Y109.38 E11.80835
G1 X107.947 Y109.051 E11.8193
G1 X108.02 Y108.329 E11.84344
G1 X108.172 Y107.618 E11.86762
G1 X108.401 Y106.929 E11.89177
G1 X108.704 Y106.269 E11.91592
G1 X108.913 Y105.903 E11.92994
G1 X109.008 Y105.748 E11.93599
G1 X109.421 Y105.151 E11.96013
G1 X109.897 Y104.602 E11.9843
G0 F3600 X110.215 Y104.85
G1 F1800 X110.736 Y104.377 E12.0077
G1 X111.563 Y103.812 E12.04102
G1 X111.712 Y103.727 E12.04672
G1 X112.342 Y103.413 E12.07013
G1 X113.004 Y103.173 E12.09355
G1 X113.689 Y103.01 E12.11697
G1 X114.388 Y102.925 E12.14039
G1 X114.77 Y102.912 E12.15311
G1 X120.033 Y102.9 E12.32815
G1 X120.736 Y102.938 E12.35157
G1 X121.198 Y103.008 E12.36711
G1 X121.452 Y103.056 E12.37571
G1 X122.135 Y103.226 E12.39912
G1 X122.795 Y103.472 E12.42255
G1 X123.422 Y103.791 E12.44594
G1 X124.01 Y104.179 E12.46938
G1 X124.767 Y104.847 E12.50295
G1 X124.897 Y104.982 E12.50919
G1 X125.356 Y105.516 E12.53261
G1 X125.751 Y106.099 E12.55603
G1 X126.078 Y106.723 E12.57946
G1 X126.331 Y107.379 E12.60285
G1 X126.509 Y108.06 E12.62626
G1 X126.609 Y108.757 E12.64968
G1 X126.631 Y109.266 E12.66662
G1 X126.675 Y125.302 E13.19998
G1 X126.669 Y125.601 E13.20993
G1 X126.654 Y125.93 E13.22088
G1 X126.582 Y126.631 E13.24432
G1 X126.431 Y127.318 E13.26772
G1 X126.203 Y127.984 E13.29113
G1 X125.746 Y128.888 E13.32482
G1 X125.651 Y129.043 E13.33087
G1 X125.25 Y129.621 E13.35427
G1 X124.785 Y130.15 E13.37769
G1 X124.264 Y130.623 E13.4011
G1 X123.437 Y131.188 E13.43441
G1 X123.288 Y131.273 E13.44012
G1 X122.658 Y131.587 E13.46353
G1 X121.996 Y131.827 E13.48695
G1 X121.311 Y131.99 E13.51037
G1 X120.612 Y132.075 E13.53379
G1 X120.23 Y132.088 E13.5465
G1 X114.967 Y132.1 E13.72155
G1 X114.264 Y132.062 E13.74496
G1 X113.802 Y131.992 E13.76051
G1 X113.548 Y131.944 E13.7691
G1 X112.865 Y131.774 E13.79251
G1 X112.205 Y131.528 E13.81594
G1 X111.578 Y131.209 E13.83934
G1 X110.99 Y130.821 E13.86277
G1 X110.233 Y130.153 E13.89635
G1 X110.103 Y130.018 E13.90258
G1 X109.644 Y129.484 E13.926
G1 X109.249 Y128.901 E13.94942
G1 X108.922 Y128.277 E13.97286
G1 X108.581 Y127.324 E14.00652
G1 X108.537 Y127.16 E14.01217
G1 X108.393 Y126.47 E14.03561
G1 X108.325 Y125.553 E14.0662
G1 X108.325 Y109.681 E14.5941
G1 X108.331 Y109.399 E14.60348
G1 X108.346 Y109.07 E14.61444
G1 X108.418 Y108.369 E14.63787
G1 X108.569 Y107.682 E14.66127
G1 X108.797 Y107.016 E14.68468
G1 X109.254 Y106.112 E14.71837
G1 X109.349 Y105.957 E14.72442
G1 X109.75 Y105.379 E14.74782
G1 X110.215 Y104.85 E14.77124
G0 F3600 X110.531 Y105.098
G1 F1800 X111.04 Y104.646 E14.79388
G1 X111.761 Y104.159 E14.82282
G1 X111.91 Y104.074 E14.82853
G1 X112.52 Y103.772 E14.85117
G1 X113.162 Y103.544 E14.87383
G1 X113.825 Y103.392 E14.89645
G1 X114.771 Y103.312 E14.92803
G1 X120.034 Y103.3 E15.10308
G1 X120.714 Y103.338 E15.12573
G1 X121.124 Y103.401 E15.13952
G1 X121.378 Y103.449 E15.14812
G1 X122.038 Y103.614 E15.17075
G1 X122.675 Y103.856 E15.19341
G1 X123.279 Y104.171 E15.21607
G1 X123.842 Y104.554 E15.23872
G1 X124.479 Y105.125 E15.26717
G1 X124.609 Y105.26 E15.2734
G1 X125.052 Y105.777 E15.29605
G1 X125.431 Y106.343 E15.3187
G1 X125.741 Y106.949 E15.34134
G1 X125.978 Y107.587 E15.36398
G1 X126.138 Y108.249 E15.38663
G1 X126.22 Y108.925 E15.40928
G1 X126.231 Y109.267 E15.42066
G1 X126.275 Y125.303 E15.95402
G1 X126.269 Y125.583 E15.96334
G1 X126.254 Y125.912 E15.97429
G1 X126.183 Y126.589 E15.99693
G1 X126.033 Y127.254 E16.01961
G1 X125.807 Y127.896 E16.04225
G1 X125.405 Y128.679 E16.07152
G1 X125.31 Y128.834 E16.07757
G1 X124.921 Y129.392 E16.10019
G1 X124.469 Y129.902 E16.12286
G1 X123.96 Y130.354 E16.1455
G1 X123.239 Y130.841 E16.17444
G1 X123.09 Y130.926 E16.18014
G1 X122.48 Y131.228 E16.20278
G1 X121.838 Y131.456 E16.22544
G1 X121.175 Y131.608 E16.24806
G1 X120.229 Y131.688 E16.27964
G1 X114.966 Y131.7 E16.45469
G1 X114.286 Y131.662 E16.47734
G1 X113.876 Y131.599 E16.49114
G1 X113.622 Y131.551 E16.49973
G1 X112.962 Y131.386 E16.52236
G1 X112.325 Y131.144 E16.54503
G1 X111.721 Y130.829 E16.56768
G1 X111.158 Y130.446 E16.59033
G1 X110.521 Y129.875 E16.61878
G1 X110.391 Y129.74 E16.62502
G1 X109.948 Y129.223 E16.64766
G1 X109.569 Y128.657 E16.67032
G1 X109.259 Y128.051 E16.69296
G1 X108.967 Y127.22 E16.72225
G1 X108.923 Y127.056 E16.7279
G1 X108.786 Y126.389 E16.75055
G1 X108.725 Y125.553 E16.77843
G1 X108.725 Y109.681 E17.30633
G1 X108.731 Y109.417 E17.31512
G1 X108.746 Y109.088 E17.32607
G1 X108.817 Y108.411 E17.34871
G1 X108.967 Y107.746 E17.37138
G1 X109.193 Y107.104 E17.39402
G1 X109.595 Y106.321 E17.4233
G1 X109.69 Y106.166 E17.42934
G1 X110.079 Y105.608 E17.45197
G1 X110.531 Y105.098 E17.47463
G0 F3600 X110.847 Y105.348
G1 F1800 X111.342 Y104.917 E17.49646
G1 X111.959 Y104.507 E17.5211
G1 X112.108 Y104.422 E17.52681
G1 X112.698 Y104.131 E17.54869
G1 X113.318 Y103.915 E17.57052
G1 X113.96 Y103.775 E17.59238
G1 X114.772 Y103.712 E17.61947
G1 X120.035 Y103.7 E17.79452
G1 X120.691 Y103.738 E17.81637
G1 X121.05 Y103.794 E17.82846
G1 X121.304 Y103.842 E17.83705
G1 X121.941 Y104.003 E17.85891
G1 X122.553 Y104.24 E17.88073
G1 X123.133 Y104.55 E17.90261
G1 X123.67 Y104.928 E17.92445
G1 X124.191 Y105.402 E17.94788
G1 X124.321 Y105.537 E17.95411
G1 X124.747 Y106.037 E17.97596
G1 X125.109 Y106.586 E17.99783
G1 X125.402 Y107.174 E18.01968
G1 X125.621 Y107.793 E18.04152
G1 X125.764 Y108.434 E18.06336
G1 X125.831 Y109.268 E18.09119
G1 X125.875 Y125.304 E18.62455
G1 X125.869 Y125.565 E18.63324
G1 X125.854 Y125.894 E18.64419
G1 X125.785 Y126.547 E18.66603
G1 X125.636 Y127.187 E18.68789
G1 X125.411 Y127.804 E18.70973
G1 X125.064 Y128.47 E18.73471
G1 X124.969 Y128.625 E18.74075
G1 X124.592 Y129.163 E18.7626
G1 X124.153 Y129.652 E18.78446
G1 X123.658 Y130.083 E18.80629
G1 X123.041 Y130.493 E18.83093
G1 X122.892 Y130.578 E18.83663
G1 X122.302 Y130.869 E18.85851
G1 X121.682 Y131.085 E18.88035
G1 X121.04 Y131.225 E18.90221
G1 X120.228 Y131.288 E18.92929
G1 X114.965 Y131.3 E19.10434
G1 X114.309 Y131.262 E19.1262
G1 X113.95 Y131.206 E19.13828
G1 X113.696 Y131.158 E19.14688
G1 X113.059 Y130.997 E19.16873
G1 X112.447 Y130.76 E19.19056
G1 X111.867 Y130.45 E19.21244
