;FLAVOR:Marlin
;TIME:912
;Filament used: 0.365065m
;Layer height: 0.2
;MINX:88.624
;MINY:102.605
;MINZ:0.2
;MAXX:144.392
;MAXY:148.387
;MAXZ:5
;Generated with Cura_SteamEngine 4.2.1
M140 S60
M105
M190 S60
M104 S228
M105
M109 S228
M82 ;absolute extrusion mode
; Ender 3 Custom Start G-code
G28 ; Home all axes
M420 S1
G92 E0 ; Reset Extruder
G1 Z2.0 F3000 ; Move Z Axis up little to prevent scratching of Heat Bed
G1 X0.1 Y20 Z0.3 F5000.0 ; Move to start position
G1 X0.1 Y200.0 Z0.3 F1500.0 E15 ; Draw the first line
G1 X0.4 Y200.0 Z0.3 F5000.0 ; Move to side a little
G1 X0.4 Y20 Z0.3 F1500.0 E30 ; Draw the second line
G92 E0 ; Reset Extruder
G1 Z2.0 F3000 ; Move Z Axis up little to prevent scratching of Heat Bed
M141 S32
G92 E0
G92 E0
G1 F2400 E-10
;LAYER_COUNT:25
;LAYER:0
M107
M204 S500
M205 X8 Y8
G0 F6000 X92.515 Y105.444 Z0.2
;TYPE:SKIRT
G1 F2400 E0
G1 F1200 X93.259 Y104.845 E0.03177
G1 X94.05 Y104.31 E0.06353
G1 X94.883 Y103.844 E0.09528
G1 X95.752 Y103.448 E0.12704
G1 X96.651 Y103.127 E0.15879
G1 X97.574 Y102.882 E0.19055
G1 X98.514 Y102.716 E0.2223
G1 X99.713 Y102.618 E0.26231
G1 X100.034 Y102.609 E0.27299
G1 X100.354 Y102.605 E0.28364
G1 X106.292 Y102.605 E0.48113
G1 X106.45 Y102.606 E0.48639
G1 X107.896 Y102.626 E0.53449
G1 X108.067 Y102.63 E0.54018
G1 X109.244 Y102.664 E0.57934
G1 X111.809 Y102.664 E0.66465
G1 X113.138 Y102.635 E0.70887
G1 X114.011 Y102.61 E0.73791
G1 X114.341 Y102.605 E0.74889
G1 X120.284 Y102.605 E0.94656
G1 X120.445 Y102.606 E0.95191
G1 X122.284 Y102.632 E1.01308
G1 X124.913 Y102.632 E1.10052
G1 X126.021 Y102.608 E1.13739
G1 X126.268 Y102.605 E1.1456
G1 X132.292 Y102.605 E1.34596
G1 X132.457 Y102.606 E1.35145
G1 X133.147 Y102.616 E1.3744
G1 X134.1 Y102.67 E1.40615
G1 X135.046 Y102.803 E1.43792
G1 X135.977 Y103.015 E1.46968
G1 X136.887 Y103.305 E1.50145
G1 X137.769 Y103.669 E1.53318
G1 X138.618 Y104.106 E1.56494
G1 X139.428 Y104.612 E1.59671
G1 X140.192 Y105.185 E1.62847
G1 X140.906 Y105.819 E1.66023
G1 X141.564 Y106.511 E1.69199
G1 X142.161 Y107.255 E1.72371
G1 X142.695 Y108.047 E1.75548
G1 X143.16 Y108.881 E1.78724
G1 X143.554 Y109.75 E1.81898
G1 X143.874 Y110.65 E1.85075
G1 X144.117 Y111.573 E1.88249
G1 X144.283 Y112.513 E1.91424
G1 X144.376 Y113.656 E1.95238
G1 X144.386 Y113.973 E1.96293
G1 X144.392 Y114.332 E1.97488
G1 X144.392 Y120.268 E2.17231
G1 X144.391 Y120.429 E2.17766
G1 X144.381 Y121.139 E2.20128
G1 X144.327 Y122.092 E2.23303
G1 X144.194 Y123.037 E2.26477
G1 X143.983 Y123.968 E2.29652
G1 X143.694 Y124.878 E2.32827
G1 X143.33 Y125.761 E2.36004
G1 X142.894 Y126.61 E2.39178
G1 X142.387 Y127.42 E2.42357
G1 X141.589 Y128.453 E2.46698
G1 X141.239 Y128.856 E2.48474
G1 X141.085 Y129.03 E2.49246
G1 X140.079 Y130.142 E2.54234
G1 X138.438 Y132.062 E2.62635
G1 X136.872 Y134 E2.70922
G1 X135.36 Y135.984 E2.79218
G1 X133.898 Y138.022 E2.87561
G1 X132.499 Y140.091 E2.95868
G1 X131.032 Y142.402 E3.04972
G1 X130.692 Y142.955 E3.07131
G1 X130.158 Y143.746 E3.10305
G1 X129.56 Y144.49 E3.1348
G1 X128.901 Y145.181 E3.16656
G1 X128.187 Y145.815 E3.19832
G1 X127.422 Y146.387 E3.23009
G1 X126.612 Y146.892 E3.26184
G1 X125.763 Y147.328 E3.29358
G1 X124.88 Y147.692 E3.32535
G1 X123.97 Y147.98 E3.35709
G1 X123.039 Y148.192 E3.38885
G1 X122.093 Y148.324 E3.42062
G1 X121.303 Y148.374 E3.44695
G1 X120.98 Y148.383 E3.45769
G1 X120.662 Y148.387 E3.46827
G1 X114.732 Y148.387 E3.6655
G1 X114.569 Y148.386 E3.67093
G1 X113.871 Y148.376 E3.69414
G1 X112.917 Y148.322 E3.72593
G1 X111.972 Y148.189 E3.75767
G1 X111.041 Y147.977 E3.78942
G1 X110.131 Y147.688 E3.82118
G1 X109.248 Y147.324 E3.85295
G1 X108.399 Y146.887 E3.88471
G1 X107.59 Y146.381 E3.91644
G1 X106.826 Y145.809 E3.94819
G1 X106.112 Y145.175 E3.97994
G1 X105.454 Y144.483 E4.0117
G1 X104.799 Y143.66 E4.04669
G1 X104.201 Y142.833 E4.08063
G1 X102.618 Y140.696 E4.16909
G1 X101.057 Y138.709 E4.25313
G1 X99.468 Y136.801 E4.33571
G1 X97.804 Y134.914 E4.41939
G1 X96.105 Y133.092 E4.50225
G1 X94.333 Y131.298 E4.58612
G1 X92.498 Y129.541 E4.67062
G1 X92.264 Y129.323 E4.68126
G1 X91.593 Y128.644 E4.71301
G1 X90.982 Y127.91 E4.74477
G1 X90.434 Y127.129 E4.7765
G1 X89.953 Y126.304 E4.80827
G1 X89.543 Y125.441 E4.84004
G1 X89.206 Y124.548 E4.87179
G1 X88.946 Y123.629 E4.90356
G1 X88.763 Y122.692 E4.93531
G1 X88.638 Y121.296 E4.98193
G1 X88.629 Y120.97 E4.99277
G1 X88.625 Y120.657 E5.00318
G1 X88.624 Y114.711 E5.20095
G1 X88.625 Y114.561 E5.20594
G1 X88.634 Y113.866 E5.22906
G1 X88.686 Y112.913 E5.2608
G1 X88.818 Y111.967 E5.29257
G1 X89.029 Y111.036 E5.32432
G1 X89.317 Y110.126 E5.35607
G1 X89.68 Y109.243 E5.38782
G1 X90.115 Y108.393 E5.41958
G1 X90.62 Y107.583 E5.45133
G1 X91.191 Y106.818 E5.48308
G1 X91.825 Y106.103 E5.51486
G1 X92.515 Y105.444 E5.54659
G0 F6000 X92.905 Y105.636
G1 F1200 X93.644 Y105.059 E5.57778
G1 X94.43 Y104.548 E5.60896
G1 X95.257 Y104.105 E5.64016
G1 X96.119 Y103.734 E5.67138
G1 X97.008 Y103.438 E5.70254
G1 X97.92 Y103.219 E5.73374
G1 X98.848 Y103.078 E5.76496
G1 X99.725 Y103.018 E5.79419
G1 X100.046 Y103.009 E5.80487
G1 X100.354 Y103.005 E5.81512
G1 X106.292 Y103.005 E6.01262
G1 X106.444 Y103.006 E6.01767
G1 X107.89 Y103.026 E6.06577
G1 X108.056 Y103.03 E6.07129
G1 X109.233 Y103.064 E6.11046
G1 X111.817 Y103.064 E6.1964
G1 X113.162 Y103.035 E6.24115
G1 X114.023 Y103.01 E6.2698
G1 X114.341 Y103.005 E6.28037
G1 X120.284 Y103.005 E6.47804
G1 X120.439 Y103.006 E6.48319
G1 X122.278 Y103.032 E6.54437
G1 X124.922 Y103.032 E6.63231
G1 X126.03 Y103.008 E6.66917
G1 X126.268 Y103.005 E6.67708
G1 X132.292 Y103.005 E6.87744
G1 X132.451 Y103.006 E6.88273
G1 X133.141 Y103.016 E6.90568
G1 X134.078 Y103.07 E6.9369
G1 X135.006 Y103.203 E6.96808
G1 X135.92 Y103.415 E6.99929
G1 X136.812 Y103.703 E7.03046
G1 X137.677 Y104.067 E7.06168
G1 X138.507 Y104.503 E7.09286
G1 X139.297 Y105.008 E7.12404
G1 X140.041 Y105.579 E7.15524
G1 X140.734 Y106.211 E7.18643
G1 X141.371 Y106.9 E7.21764
G1 X141.946 Y107.64 E7.24881
G1 X142.457 Y108.427 E7.28002
G1 X142.898 Y109.254 E7.31119
G1 X143.268 Y110.116 E7.34239
G1 X143.563 Y111.007 E7.37361
G1 X143.78 Y111.919 E7.40479
G1 X143.92 Y112.846 E7.43597
G1 X143.977 Y113.668 E7.46338
G1 X143.987 Y113.985 E7.47393
G1 X143.992 Y114.332 E7.48547
G1 X143.992 Y120.268 E7.6829
G1 X143.991 Y120.423 E7.68806
G1 X143.981 Y121.133 E7.71167
G1 X143.928 Y122.069 E7.74286
G1 X143.795 Y122.998 E7.77407
G1 X143.584 Y123.911 E7.80524
G1 X143.295 Y124.804 E7.83645
G1 X142.932 Y125.668 E7.86762
G1 X142.496 Y126.499 E7.89884
G1 X141.991 Y127.289 E7.93002
G1 X141.287 Y128.191 E7.96808
G1 X140.937 Y128.594 E7.98583
G1 X140.788 Y128.762 E7.9933
G1 X139.779 Y129.877 E8.04332
G1 X138.138 Y131.796 E8.1273
G1 X136.558 Y133.752 E8.21093
G1 X135.033 Y135.755 E8.29466
G1 X133.574 Y137.787 E8.37786
G1 X132.147 Y139.899 E8.46264
G1 X130.746 Y142.105 E8.54955
G1 X130.352 Y142.745 E8.57455
G1 X129.827 Y143.522 E8.60574
G1 X129.237 Y144.252 E8.63696
G1 X128.587 Y144.928 E8.66815
G1 X127.882 Y145.547 E8.69935
G1 X127.127 Y146.103 E8.73054
G1 X126.328 Y146.593 E8.76171
G1 X125.489 Y147.013 E8.79292
G1 X124.618 Y147.361 E8.82412
G1 X123.72 Y147.632 E8.85531
G1 X122.803 Y147.827 E8.8865
G1 X121.872 Y147.942 E8.9177
G1 X121.291 Y147.974 E8.93705
G1 X120.968 Y147.983 E8.9478
G1 X120.662 Y147.987 E8.95798
G1 X114.732 Y147.987 E9.15521
G1 X114.574 Y147.986 E9.16046
G1 X113.876 Y147.976 E9.18368
G1 X112.94 Y147.922 E9.21486
G1 X112.012 Y147.79 E9.24604
G1 X111.098 Y147.578 E9.27725
G1 X110.206 Y147.289 E9.30843
G1 X109.341 Y146.926 E9.33963
G1 X108.511 Y146.49 E9.37082
G1 X107.72 Y145.985 E9.40203
G1 X106.976 Y145.414 E9.43322
G1 X106.283 Y144.782 E9.46442
G1 X105.646 Y144.094 E9.4956
G1 X105.123 Y143.426 E9.52382
G1 X104.522 Y142.595 E9.55793
G1 X102.921 Y140.435 E9.64736
G1 X101.381 Y138.473 E9.73031
G1 X99.774 Y136.544 E9.81382
G1 X98.097 Y134.642 E9.89816
G1 X96.381 Y132.803 E9.98182
G1 X94.612 Y131.011 E10.06557
G1 X92.764 Y129.242 E10.15065
G1 X92.537 Y129.03 E10.16098
G1 X91.878 Y128.362 E10.19219
G1 X91.279 Y127.641 E10.22337
G1 X90.744 Y126.871 E10.25456
G1 X90.276 Y126.058 E10.28576
G1 X89.879 Y125.208 E10.31696
G1 X89.556 Y124.328 E10.34814
G1 X89.309 Y123.423 E10.37934
G1 X89.139 Y122.501 E10.41052
G1 X89.038 Y121.285 E10.45111
G1 X89.029 Y120.959 E10.46195
G1 X89.025 Y120.657 E10.472
G1 X89.024 Y114.711 E10.66976
G1 X89.025 Y114.567 E10.67455
G1 X89.034 Y113.872 E10.69767
G1 X89.086 Y112.935 E10.72888
G1 X89.218 Y112.007 E10.76006
G1 X89.428 Y111.093 E10.79125
G1 X89.715 Y110.2 E10.82245
G1 X90.078 Y109.335 E10.85365
G1 X90.513 Y108.504 E10.88485
G1 X91.017 Y107.713 E10.91604
G1 X91.586 Y106.968 E10.94722
G1 X92.217 Y106.274 E10.97842
G1 X92.905 Y105.636 E11.00963
G0 F6000 X93.294 Y105.832
G1 F1200 X94.029 Y105.278 E11.04024
G1 X94.81 Y104.79 E11.07087
G1 X95.63 Y104.372 E11.10148
G1 X96.483 Y104.026 E11.1321
G1 X97.363 Y103.756 E11.16271
G1 X98.263 Y103.563 E11.19333
G1 X99.177 Y103.449 E11.22396
G1 X99.736 Y103.418 E11.24258
G1 X100.057 Y103.409 E11.25326
G1 X100.354 Y103.405 E11.26314
G1 X106.292 Y103.405 E11.46064
G1 X106.439 Y103.406 E11.46553
G1 X107.885 Y103.426 E11.51363
G1 X108.044 Y103.429 E11.51892
G1 X109.256 Y103.464 E11.55925
G1 X111.78 Y103.464 E11.6432
G1 X113.179 Y103.434 E11.68974
G1 X114.034 Y103.409 E11.71819
G1 X114.341 Y103.405 E11.7284
G1 X120.284 Y103.405 E11.92606
G1 X120.434 Y103.406 E11.93105
G1 X122.273 Y103.432 E11.99222
G1 X124.884 Y103.432 E12.07907
G1 X126.038 Y103.407 E12.11746
G1 X126.268 Y103.405 E12.12511
G1 X132.292 Y103.405 E12.32547
G1 X132.446 Y103.406 E12.33059
G1 X133.136 Y103.416 E12.35354
G1 X134.055 Y103.469 E12.38416
G1 X134.966 Y103.602 E12.41478
G1 X135.862 Y103.814 E12.4454
G1 X136.736 Y104.102 E12.47601
G1 X137.582 Y104.465 E12.50663
G1 X138.393 Y104.9 E12.53724
G1 X139.164 Y105.404 E12.56787
G1 X139.888 Y105.973 E12.5985
G1 X140.56 Y106.603 E12.62914
G1 X141.174 Y107.288 E12.65973
G1 X141.727 Y108.024 E12.69035
G1 X142.214 Y108.806 E12.72099
G1 X142.631 Y109.627 E12.75162
G1 X142.975 Y110.48 E12.78221
G1 X143.244 Y111.361 E12.81285
G1 X143.436 Y112.261 E12.84346
G1 X143.549 Y113.175 E12.87409
G1 X143.577 Y113.681 E12.89094
G1 X143.587 Y113.998 E12.90149
G1 X143.592 Y114.332 E12.9126
G1 X143.592 Y120.268 E13.11004
G1 X143.591 Y120.417 E13.11499
G1 X143.581 Y121.127 E13.13861
G1 X143.528 Y122.046 E13.16923
G1 X143.396 Y122.957 E13.19984
G1 X143.184 Y123.854 E13.2305
G1 X142.896 Y124.728 E13.2611
G1 X142.534 Y125.574 E13.29171
G1 X142.099 Y126.386 E13.32235
G1 X141.595 Y127.156 E13.35296
G1 X140.985 Y127.929 E13.38571
G1 X140.635 Y128.332 E13.40346
G1 X140.492 Y128.494 E13.41065
G1 X139.462 Y129.632 E13.4617
G1 X137.839 Y131.53 E13.54476
G1 X136.232 Y133.521 E13.62986
G1 X134.718 Y135.508 E13.71295
G1 X133.234 Y137.576 E13.79761
G1 X131.837 Y139.642 E13.88056
G1 X130.378 Y141.939 E13.97106
G1 X130.011 Y142.536 E13.99437
G1 X129.495 Y143.298 E14.02498
G1 X128.914 Y144.012 E14.0556
G1 X128.274 Y144.674 E14.08622
G1 X127.579 Y145.277 E14.11683
G1 X126.834 Y145.818 E14.14745
G1 X126.045 Y146.292 E14.17806
G1 X125.217 Y146.696 E14.20871
G1 X124.358 Y147.027 E14.23932
G1 X123.473 Y147.282 E14.26996
G1 X122.57 Y147.459 E14.30056
G1 X121.28 Y147.574 E14.34364
G1 X120.957 Y147.583 E14.35438
G1 X120.662 Y147.587 E14.3642
G1 X114.732 Y147.587 E14.56143
G1 X114.58 Y147.586 E14.56649
G1 X113.882 Y147.576 E14.5897
G1 X112.963 Y147.523 E14.62032
G1 X112.052 Y147.39 E14.65094
G1 X111.156 Y147.179 E14.68156
G1 X110.282 Y146.891 E14.71216
G1 X109.435 Y146.528 E14.74281
G1 X108.624 Y146.093 E14.77342
G1 X107.854 Y145.589 E14.80403
G1 X107.13 Y145.02 E14.83466
G1 X106.458 Y144.39 E14.8653
G1 X105.843 Y143.705 E14.89591
G1 X105.447 Y143.191 E14.9175
G1 X104.821 Y142.326 E14.95301
G1 X103.259 Y140.217 E15.0403
G1 X101.686 Y138.216 E15.12495
G1 X100.065 Y136.269 E15.20922
G1 X98.389 Y134.368 E15.29351
G1 X96.676 Y132.532 E15.37703
G1 X94.926 Y130.76 E15.45986
G1 X93.03 Y128.944 E15.54718
G1 X92.809 Y128.738 E15.55723
G1 X92.164 Y128.081 E15.58785
G1 X91.577 Y127.372 E15.61847
G1 X91.055 Y126.614 E15.64908
G1 X90.6 Y125.813 E15.67972
G1 X90.216 Y124.977 E15.71032
G1 X89.906 Y124.11 E15.74094
G1 X89.673 Y123.219 E15.77157
G1 X89.518 Y122.311 E15.80221
G1 X89.438 Y121.274 E15.8368
G1 X89.429 Y120.948 E15.84765
G1 X89.425 Y120.657 E15.85733
G1 X89.424 Y114.711 E16.05509
G1 X89.425 Y114.572 E16.05972
G1 X89.434 Y113.877 E16.08283
G1 X89.486 Y112.958 E16.11345
G1 X89.617 Y112.046 E16.14409
G1 X89.827 Y111.15 E16.1747
G1 X90.114 Y110.275 E16.20533
G1 X90.476 Y109.429 E16.23594
G1 X90.91 Y108.617 E16.26656
G1 X91.413 Y107.845 E16.29721
G1 X91.981 Y107.121 E16.32781
G1 X92.609 Y106.448 E16.35843
G1 X93.294 Y105.832 E16.38907
G0 F6000 X93.001 Y106.626
G1 F1200 X93.682 Y106.033 E16.4191
G1 X94.413 Y105.502 E16.44915
G1 X95.187 Y105.038 E16.47917
G1 X96 Y104.645 E16.5092
G1 X96.845 Y104.325 E16.53925
G1 X97.714 Y104.081 E16.56927
G1 X98.602 Y103.915 E16.59932
G1 X99.747 Y103.818 E16.63754
G1 X100.068 Y103.809 E16.64822
G1 X100.354 Y103.805 E16.65773
G1 X106.292 Y103.805 E16.85523
G1 X106.433 Y103.806 E16.85992
G1 X107.879 Y103.826 E16.90802
G1 X108.033 Y103.829 E16.91315
G1 X109.245 Y103.864 E16.95347
G1 X111.789 Y103.864 E17.03809
G1 X113.2 Y103.834 E17.08503
G1 X114.046 Y103.809 E17.11318
G1 X114.341 Y103.805 E17.12299
G1 X120.284 Y103.805 E17.32066
G1 X120.428 Y103.806 E17.32545
G1 X122.267 Y103.832 E17.38662
G1 X124.893 Y103.832 E17.47396
G1 X126.047 Y103.807 E17.51235
G1 X126.268 Y103.805 E17.5197
G1 X132.292 Y103.805 E17.72006
G1 X132.44 Y103.806 E17.72498
G1 X133.13 Y103.816 E17.74793
G1 X134.031 Y103.869 E17.77795
G1 X134.925 Y104.002 E17.80801
G1 X135.803 Y104.213 E17.83805
G1 X136.659 Y104.501 E17.86809
G1 X137.486 Y104.863 E17.89811
G1 X138.278 Y105.297 E17.92815
G1 X139.028 Y105.8 E17.95819
G1 X139.731 Y106.367 E17.98823
G1 X140.381 Y106.994 E18.01826
G1 X140.973 Y107.676 E18.0483
G1 X141.502 Y108.408 E18.07834
G1 X141.965 Y109.183 E18.10837
G1 X142.357 Y109.997 E18.13842
G1 X142.676 Y110.842 E18.16846
G1 X142.919 Y111.712 E18.1985
G1 X143.083 Y112.6 E18.22853
G1 X143.177 Y113.693 E18.26502
G1 X143.187 Y114.01 E18.27557
G1 X143.192 Y114.332 E18.28628
G1 X143.192 Y120.268 E18.48371
G1 X143.191 Y120.412 E18.4885
G1 X143.181 Y121.122 E18.51212
G1 X143.128 Y122.023 E18.54214
G1 X142.996 Y122.917 E18.5722
G1 X142.785 Y123.795 E18.60223
G1 X142.498 Y124.651 E18.63226
G1 X142.136 Y125.478 E18.66228
G1 X141.702 Y126.27 E18.69232
G1 X141.199 Y127.021 E18.72239
G1 X140.683 Y127.666 E18.74986
G1 X140.333 Y128.069 E18.76761
G1 X140.195 Y128.225 E18.77454
G1 X139.178 Y129.349 E18.82496
G1 X137.526 Y131.282 E18.90953
G1 X135.931 Y133.255 E18.99391
G1 X134.391 Y135.278 E19.07847
G1 X132.91 Y137.341 E19.16294
G1 X131.485 Y139.449 E19.24757
G1 X130.076 Y141.668 E19.33499
G1 X129.671 Y142.326 E19.36069
G1 X129.164 Y143.073 E19.39072
G1 X128.592 Y143.773 E19.42079
G1 X127.961 Y144.419 E19.45082
G1 X127.276 Y145.007 E19.48085
G1 X126.541 Y145.532 E19.51089
G1 X125.763 Y145.99 E19.54092
G1 X124.947 Y146.377 E19.57096
G1 X124.1 Y146.691 E19.601
G1 X123.229 Y146.928 E19.63102
G1 X122.34 Y147.088 E19.66107
G1 X121.269 Y147.174 E19.6968
G1 X120.946 Y147.183 E19.70755
G1 X120.662 Y147.187 E19.717
G1 X114.732 Y147.187 E19.91423
G1 X114.586 Y147.186 E19.91909
G1 X113.888 Y147.176 E19.9423
G1 X112.986 Y147.123 E19.97236
G1 X112.093 Y146.991 E20.00238
G1 X111.215 Y146.78 E20.03241
G1 X110.359 Y146.492 E20.06245
G1 X109.532 Y146.13 E20.09248
G1 X108.74 Y145.695 E20.12253
G1 X107.989 Y145.193 E20.15258
G1 X107.286 Y144.626 E20.18262
G1 X106.636 Y143.999 E20.21265
G1 X106.044 Y143.317 E20.24269
G1 X105.771 Y142.957 E20.25772
G1 X105.165 Y142.119 E20.29211
G1 X103.562 Y139.955 E20.38169
G1 X101.993 Y137.958 E20.46615
G1 X100.389 Y136.032 E20.54952
G1 X98.698 Y134.115 E20.63454
G1 X96.953 Y132.244 E20.71963
G1 X95.187 Y130.455 E20.80324
G1 X93.297 Y128.645 E20.89028
G1 X93.082 Y128.445 E20.90005
G1 X92.449 Y127.801 E20.93008
G1 X91.876 Y127.103 E20.96012
G1 X91.366 Y126.357 E20.99018
G1 X90.924 Y125.57 E21.0202
G1 X90.554 Y124.746 E21.05024
G1 X90.258 Y123.893 E21.08027
G1 X90.039 Y123.017 E21.1103
G1 X89.898 Y122.125 E21.14034
