;FLAVOR:Marlin
;TIME:8608
;Filament used: 5.98453m
;Layer height: 0.2
;MINX:21.93
;MINY:74.526
;MINZ:0.2
;MAXX:213.07
;MAXY:159.476
;MAXZ:2
;Generated with Cura_SteamEngine 4.1.0
M140 S50
M105
M190 S50
M104 S200
M105
M109 S200
M82 ;absolute extrusion mode
; Ender 3 Custom Start G-code
G28 ; Home all axes
M420 S1
G92 E0 ; Reset Extruder
G1 Z2.0 F3000 ; Move Z Axis up little to prevent scratching of Heat Bed
G1 X0.1 Y20 Z0.3 F5000.0 ; Move to start position
G1 X0.1 Y200.0 Z0.3 F1500.0 E15 ; Draw the first line
G1 X0.4 Y200.0 Z0.3 F5000.0 ; Move to side a little
G1 X0.4 Y20 Z0.3 F1500.0 E30 ; Draw the second line
G92 E0 ; Reset Extruder
G1 Z2.0 F3000 ; Move Z Axis up little to prevent scratching of Heat Bed
; End of custom start GCode
G92 E0
G92 E0
G1 F3600 E-8
;LAYER_COUNT:10
;LAYER:0
M107
M204 S500
M205 X10 Y10
G0 F3600 X27.015 Y75.014 Z0.2
;TYPE:SKIRT
G1 F3600 E0
G1 F1800 X27.768 Y74.777 E0.02626
G1 X28.542 Y74.617 E0.05254
G1 X29.327 Y74.536 E0.07879
G1 X29.73 Y74.526 E0.0922
G1 X188.656 Y74.527 E5.3781
G1 X205.27 Y74.526 E5.93068
G1 X206.059 Y74.566 E5.95696
G1 X206.839 Y74.685 E5.9832
G1 X207.604 Y74.883 E6.00949
G1 X208.344 Y75.157 E6.03573
G1 X209.053 Y75.505 E6.062
G1 X209.724 Y75.923 E6.08829
G1 X210.348 Y76.406 E6.11454
G1 X210.921 Y76.95 E6.14082
G1 X211.436 Y77.548 E6.16707
G1 X211.887 Y78.196 E6.19332
G1 X212.271 Y78.887 E6.21962
G1 X212.583 Y79.612 E6.24587
G1 X212.82 Y80.365 E6.27213
G1 X212.979 Y81.139 E6.29841
G1 X213.06 Y81.924 E6.32465
G1 X213.07 Y82.326 E6.33803
G1 X213.069 Y145.175 E8.4284
G1 X213.07 Y151.675 E8.64459
G1 X213.03 Y152.463 E8.67083
G1 X212.911 Y153.244 E8.69711
G1 X212.713 Y154.009 E8.72339
G1 X212.439 Y154.749 E8.74963
G1 X212.092 Y155.458 E8.77589
G1 X211.674 Y156.129 E8.80218
G1 X211.191 Y156.753 E8.82843
G1 X210.647 Y157.326 E8.85471
G1 X210.049 Y157.841 E8.88095
G1 X209.401 Y158.292 E8.90721
G1 X208.711 Y158.676 E8.93348
G1 X207.985 Y158.988 E8.95976
G1 X207.232 Y159.225 E8.98602
G1 X206.458 Y159.385 E9.0123
G1 X205.673 Y159.466 E9.03855
G1 X205.27 Y159.476 E9.05196
G1 X46.344 Y159.475 E14.33786
G1 X29.73 Y159.476 E14.89044
G1 X28.941 Y159.436 E14.91672
G1 X28.161 Y159.317 E14.94296
G1 X27.396 Y159.119 E14.96924
G1 X26.656 Y158.845 E14.99549
G1 X25.947 Y158.497 E15.02176
G1 X25.276 Y158.079 E15.04805
G1 X24.652 Y157.596 E15.0743
G1 X24.079 Y157.052 E15.10058
G1 X23.564 Y156.454 E15.12683
G1 X23.113 Y155.806 E15.15308
G1 X22.729 Y155.115 E15.17938
G1 X22.417 Y154.39 E15.20563
G1 X22.18 Y153.637 E15.23188
G1 X22.021 Y152.863 E15.25817
G1 X21.94 Y152.078 E15.28441
G1 X21.93 Y151.676 E15.29779
G1 X21.931 Y88.827 E17.38815
G1 X21.93 Y82.327 E17.60435
G1 X21.97 Y81.539 E17.63059
G1 X22.089 Y80.758 E17.65686
G1 X22.287 Y79.993 E17.68315
G1 X22.561 Y79.253 E17.70939
G1 X22.908 Y78.544 E17.73565
G1 X23.326 Y77.873 E17.76194
G1 X23.809 Y77.249 E17.78819
G1 X24.353 Y76.676 E17.81446
G1 X24.951 Y76.161 E17.84071
G1 X25.599 Y75.71 E17.86697
G1 X26.289 Y75.326 E17.89324
G1 X27.015 Y75.014 E17.91952
G0 F3600 X27.38 Y75.309
G1 F1800 X28.121 Y75.103 E17.9451
G1 X28.88 Y74.975 E17.9707
G1 X29.73 Y74.926 E17.99902
G1 X188.656 Y74.927 E23.28492
G1 X205.27 Y74.926 E23.8375
G1 X206.038 Y74.966 E23.86308
G1 X206.798 Y75.085 E23.88867
G1 X207.541 Y75.283 E23.91424
G1 X208.26 Y75.557 E23.93983
G1 X208.947 Y75.904 E23.96543
G1 X209.593 Y76.32 E23.99099
G1 X210.193 Y76.801 E24.01656
G1 X210.74 Y77.342 E24.04215
G1 X211.228 Y77.937 E24.06775
G1 X211.651 Y78.579 E24.09332
G1 X212.006 Y79.262 E24.11892
G1 X212.287 Y79.978 E24.1445
G1 X212.493 Y80.719 E24.17008
G1 X212.621 Y81.477 E24.19565
G1 X212.67 Y82.326 E24.22394
G1 X212.669 Y145.175 E26.3143
G1 X212.67 Y151.675 E26.53049
G1 X212.63 Y152.443 E26.55607
G1 X212.511 Y153.203 E26.58166
G1 X212.313 Y153.946 E26.60723
G1 X212.039 Y154.665 E26.63282
G1 X211.693 Y155.352 E26.65841
G1 X211.276 Y155.998 E26.68398
G1 X210.795 Y156.598 E26.70956
G1 X210.255 Y157.145 E26.73512
G1 X209.66 Y157.633 E26.76072
G1 X209.018 Y158.057 E26.78631
G1 X208.335 Y158.411 E26.81189
G1 X207.62 Y158.693 E26.83746
G1 X206.879 Y158.899 E26.86304
G1 X206.12 Y159.027 E26.88864
G1 X205.27 Y159.076 E26.91696
G1 X46.344 Y159.075 E32.20286
G1 X29.73 Y159.076 E32.75544
G1 X28.962 Y159.036 E32.78102
G1 X28.202 Y158.917 E32.80661
G1 X27.459 Y158.719 E32.83218
G1 X26.74 Y158.445 E32.85777
G1 X26.053 Y158.098 E32.88337
G1 X25.407 Y157.682 E32.90893
G1 X24.807 Y157.201 E32.9345
G1 X24.26 Y156.66 E32.96009
G1 X23.772 Y156.065 E32.98569
G1 X23.349 Y155.423 E33.01126
G1 X22.994 Y154.74 E33.03686
G1 X22.713 Y154.024 E33.06244
G1 X22.507 Y153.283 E33.08802
G1 X22.379 Y152.525 E33.11359
G1 X22.33 Y151.676 E33.14188
G1 X22.331 Y88.827 E35.23224
G1 X22.33 Y82.327 E35.44843
G1 X22.37 Y81.559 E35.47401
G1 X22.489 Y80.799 E35.4996
G1 X22.687 Y80.056 E35.52517
G1 X22.961 Y79.337 E35.55076
G1 X23.307 Y78.65 E35.57635
G1 X23.724 Y78.004 E35.60192
G1 X24.205 Y77.404 E35.6275
G1 X24.745 Y76.857 E35.65306
G1 X25.34 Y76.369 E35.67866
G1 X25.982 Y75.945 E35.70425
G1 X26.665 Y75.591 E35.72983
G1 X27.38 Y75.309 E35.7554
G0 F3600 X27.037 Y75.865
G1 F1800 X27.742 Y75.614 E35.78029
G1 X28.47 Y75.44 E35.80518
G1 X29.212 Y75.345 E35.83006
G1 X29.73 Y75.326 E35.8473
G1 X188.656 Y75.327 E41.1332
G1 X205.27 Y75.326 E41.68579
G1 X206.017 Y75.366 E41.71067
G1 X206.756 Y75.485 E41.73556
G1 X207.477 Y75.683 E41.76043
G1 X208.173 Y75.956 E41.7853
G1 X208.836 Y76.303 E41.81019
G1 X209.459 Y76.718 E41.83509
G1 X210.033 Y77.197 E41.85995
G1 X210.554 Y77.734 E41.88484
G1 X211.013 Y78.324 E41.9097
G1 X211.408 Y78.96 E41.9346
G1 X211.732 Y79.634 E41.95947
G1 X211.982 Y80.339 E41.98435
G1 X212.156 Y81.067 E42.00925
G1 X212.251 Y81.809 E42.03413
G1 X212.27 Y82.326 E42.05134
G1 X212.269 Y145.175 E44.1417
G1 X212.27 Y151.675 E44.35789
G1 X212.23 Y152.422 E44.38277
G1 X212.111 Y153.16 E44.40764
G1 X211.913 Y153.882 E44.43254
G1 X211.64 Y154.578 E44.4574
G1 X211.294 Y155.241 E44.48228
G1 X210.879 Y155.864 E44.50717
G1 X210.4 Y156.439 E44.53207
G1 X209.863 Y156.959 E44.55693
G1 X209.273 Y157.419 E44.58181
G1 X208.637 Y157.813 E44.60669
G1 X207.963 Y158.137 E44.63157
G1 X207.258 Y158.388 E44.65646
G1 X206.53 Y158.562 E44.68135
G1 X205.788 Y158.657 E44.70623
G1 X205.27 Y158.676 E44.72347
G1 X46.344 Y158.675 E50.00937
G1 X29.73 Y158.676 E50.56196
G1 X28.983 Y158.636 E50.58684
G1 X28.244 Y158.517 E50.61173
G1 X27.523 Y158.319 E50.6366
G1 X26.827 Y158.046 E50.66147
G1 X26.164 Y157.699 E50.68636
G1 X25.541 Y157.284 E50.71126
G1 X24.967 Y156.805 E50.73612
G1 X24.446 Y156.268 E50.76101
G1 X23.987 Y155.678 E50.78587
G1 X23.592 Y155.042 E50.81077
G1 X23.268 Y154.368 E50.83564
G1 X23.018 Y153.663 E50.86052
G1 X22.844 Y152.935 E50.88542
G1 X22.749 Y152.193 E50.9103
G1 X22.73 Y151.676 E50.92751
G1 X22.731 Y88.827 E53.01787
G1 X22.73 Y82.327 E53.23406
G1 X22.77 Y81.58 E53.25894
G1 X22.889 Y80.842 E53.28381
G1 X23.087 Y80.12 E53.30871
G1 X23.36 Y79.424 E53.33357
G1 X23.706 Y78.761 E53.35845
G1 X24.121 Y78.138 E53.38334
G1 X24.6 Y77.563 E53.40824
G1 X25.137 Y77.043 E53.4331
G1 X25.727 Y76.583 E53.45798
G1 X26.363 Y76.189 E53.48286
G1 X27.037 Y75.865 E53.50774
G0 F3600 X27.407 Y76.148
G1 F1800 X28.1 Y75.931 E53.53189
G1 X28.812 Y75.79 E53.55603
G1 X29.73 Y75.726 E53.58664
G1 X188.656 Y75.727 E58.87254
G1 X205.27 Y75.726 E59.42512
G1 X205.995 Y75.766 E59.44927
G1 X206.712 Y75.885 E59.47345
G1 X207.411 Y76.083 E59.49761
G1 X208.084 Y76.356 E59.52177
G1 X208.723 Y76.701 E59.54592
G1 X209.32 Y77.115 E59.57008
G1 X209.868 Y77.591 E59.59422
G1 X210.361 Y78.125 E59.6184
G1 X210.791 Y78.71 E59.64254
G1 X211.155 Y79.339 E59.66672
G1 X211.448 Y80.004 E59.69089
G1 X211.666 Y80.697 E59.71505
G1 X211.806 Y81.409 E59.73918
G1 X211.87 Y82.326 E59.76976
G1 X211.869 Y145.175 E61.86012
G1 X211.87 Y151.675 E62.07631
G1 X211.83 Y152.4 E62.10046
G1 X211.711 Y153.117 E62.12464
G1 X211.514 Y153.816 E62.14879
G1 X211.241 Y154.489 E62.17295
G1 X210.895 Y155.128 E62.19712
G1 X210.482 Y155.725 E62.22126
G1 X210.005 Y156.273 E62.24543
G1 X209.471 Y156.766 E62.2696
G1 X208.887 Y157.197 E62.29374
G1 X208.258 Y157.561 E62.31791
G1 X207.593 Y157.854 E62.34208
G1 X206.9 Y158.071 E62.36623
G1 X206.188 Y158.212 E62.39037
G1 X205.27 Y158.276 E62.42098
G1 X46.344 Y158.275 E67.70688
G1 X29.73 Y158.276 E68.25947
G1 X29.005 Y158.236 E68.28362
G1 X28.288 Y158.117 E68.30779
G1 X27.589 Y157.919 E68.33195
G1 X26.916 Y157.646 E68.35611
G1 X26.277 Y157.301 E68.38026
G1 X25.68 Y156.887 E68.40443
G1 X25.132 Y156.411 E68.42857
G1 X24.639 Y155.877 E68.45274
G1 X24.209 Y155.292 E68.47689
G1 X23.845 Y154.663 E68.50106
G1 X23.552 Y153.998 E68.52523
G1 X23.334 Y153.305 E68.54939
G1 X23.194 Y152.593 E68.57353
G1 X23.13 Y151.676 E68.6041
G1 X23.131 Y88.827 E70.69447
G1 X23.13 Y82.327 E70.91066
G1 X23.17 Y81.602 E70.93481
G1 X23.289 Y80.885 E70.95898
G1 X23.486 Y80.186 E70.98314
G1 X23.759 Y79.513 E71.00729
G1 X24.105 Y78.874 E71.03146
G1 X24.518 Y78.277 E71.0556
G1 X24.995 Y77.729 E71.07977
G1 X25.529 Y77.236 E71.10394
G1 X26.113 Y76.805 E71.12808
G1 X26.742 Y76.441 E71.15225
G1 X27.407 Y76.148 E71.17642
G0 F3600 X27.772 Y76.443
G1 F1800 X28.452 Y76.259 E71.19985
G1 X29.148 Y76.153 E71.22327
G1 X29.73 Y76.126 E71.24265
G1 X188.656 Y76.127 E76.52855
G1 X205.27 Y76.126 E77.08113
G1 X205.973 Y76.166 E77.10455
G1 X206.667 Y76.285 E77.12797
G1 X207.342 Y76.483 E77.15137
G1 X207.992 Y76.755 E77.1748
G1 X208.606 Y77.1 E77.19823
G1 X209.176 Y77.511 E77.2216
G1 X209.697 Y77.985 E77.24503
G1 X210.161 Y78.515 E77.26846
G1 X210.561 Y79.094 E77.29186
G1 X210.893 Y79.715 E77.31528
G1 X211.153 Y80.369 E77.33869
G1 X211.337 Y81.049 E77.36212
G1 X211.443 Y81.745 E77.38554
G1 X211.47 Y82.326 E77.40488
G1 X211.469 Y145.175 E79.49525
G1 X211.47 Y151.675 E79.71144
G1 X211.43 Y152.378 E79.73486
G1 X211.311 Y153.072 E79.75828
G1 X211.114 Y153.748 E79.7817
G1 X210.841 Y154.397 E79.80512
G1 X210.497 Y155.011 E79.82852
G1 X210.085 Y155.582 E79.85194
G1 X209.611 Y156.102 E79.87535
G1 X209.082 Y156.566 E79.89875
G1 X208.503 Y156.967 E79.92218
G1 X207.882 Y157.299 E79.9456
G1 X207.228 Y157.559 E79.969
G1 X206.548 Y157.743 E79.99243
G1 X205.852 Y157.849 E80.01585
G1 X205.27 Y157.876 E80.03523
G1 X46.344 Y157.875 E85.32113
G1 X29.73 Y157.876 E85.87371
G1 X29.027 Y157.836 E85.89713
G1 X28.333 Y157.717 E85.92055
G1 X27.658 Y157.519 E85.94395
G1 X27.008 Y157.247 E85.96738
G1 X26.394 Y156.902 E85.99081
G1 X25.824 Y156.491 E86.01418
G1 X25.303 Y156.017 E86.03761
G1 X24.839 Y155.487 E86.06104
G1 X24.439 Y154.908 E86.08444
G1 X24.107 Y154.287 E86.10786
G1 X23.847 Y153.633 E86.13127
G1 X23.663 Y152.953 E86.1547
G1 X23.557 Y152.257 E86.17812
G1 X23.53 Y151.676 E86.19746
G1 X23.531 Y88.827 E88.28783
G1 X23.53 Y82.327 E88.50402
G1 X23.57 Y81.624 E88.52744
G1 X23.689 Y80.93 E88.55086
G1 X23.886 Y80.254 E88.57428
G1 X24.159 Y79.605 E88.5977
G1 X24.503 Y78.991 E88.62111
G1 X24.915 Y78.42 E88.64452
G1 X25.389 Y77.9 E88.66793
G1 X25.918 Y77.436 E88.69133
G1 X26.497 Y77.035 E88.71476
G1 X27.118 Y76.703 E88.73818
G1 X27.772 Y76.443 E88.76159
G0 F3600 X27.492 Y76.975
G1 F1800 X28.134 Y76.75 E88.78421
G1 X28.799 Y76.601 E88.80688
G1 X29.73 Y76.526 E88.83794
G1 X188.656 Y76.527 E94.12384
G1 X205.27 Y76.526 E94.67643
G1 X205.95 Y76.566 E94.69908
G1 X206.62 Y76.685 E94.72172
G1 X207.272 Y76.882 E94.74437
G1 X207.896 Y77.155 E94.76702
G1 X208.484 Y77.498 E94.78967
G1 X209.028 Y77.908 E94.81232
G1 X209.519 Y78.379 E94.83495
G1 X209.953 Y78.904 E94.85761
G1 X210.322 Y79.476 E94.88025
G1 X210.621 Y80.088 E94.9029
G1 X210.846 Y80.73 E94.92553
G1 X210.995 Y81.395 E94.94819
G1 X211.07 Y82.326 E94.97926
G1 X211.069 Y145.175 E97.06963
G1 X211.07 Y151.676 E97.28585
G1 X211.03 Y152.356 E97.30851
G1 X210.911 Y153.026 E97.33114
G1 X210.714 Y153.678 E97.35379
G1 X210.441 Y154.302 E97.37645
G1 X210.098 Y154.89 E97.39909
G1 X209.688 Y155.434 E97.42175
G1 X209.217 Y155.926 E97.4444
G1 X208.692 Y156.359 E97.46703
G1 X208.12 Y156.728 E97.48967
G1 X207.508 Y157.027 E97.51233
G1 X206.866 Y157.252 E97.53495
G1 X206.201 Y157.401 E97.55762
G1 X205.27 Y157.476 E97.58869
G1 X46.344 Y157.475 E102.87459
G1 X29.73 Y157.476 E103.42717
G1 X29.05 Y157.436 E103.44983
G1 X28.38 Y157.317 E103.47246
G1 X27.728 Y157.12 E103.49511
G1 X27.104 Y156.847 E103.51777
G1 X26.516 Y156.504 E103.54041
G1 X25.972 Y156.094 E103.56306
G1 X25.481 Y155.623 E103.58569
G1 X25.047 Y155.098 E103.60835
G1 X24.678 Y154.526 E103.63099
G1 X24.379 Y153.914 E103.65364
G1 X24.154 Y153.272 E103.67627
G1 X24.005 Y152.607 E103.69894
G1 X23.93 Y151.676 E103.73
G1 X23.931 Y88.827 E105.82037
G1 X23.93 Y82.326 E106.03659
G1 X23.97 Y81.646 E106.05925
G1 X24.089 Y80.976 E106.08188
G1 X24.286 Y80.324 E106.10454
G1 X24.559 Y79.7 E106.12719
G1 X24.902 Y79.112 E106.14983
G1 X25.312 Y78.568 E106.17249
G1 X25.783 Y78.076 E106.19514
G1 X26.308 Y77.643 E106.21778
G1 X26.88 Y77.274 E106.24042
G1 X27.492 Y76.975 E106.26307
G0 F3600 X27.861 Y77.26
G1 F1800 X28.49 Y77.07 E106.28492
G1 X29.137 Y76.959 E106.30676
G1 X29.73 Y76.926 E106.32651
G1 X188.656 Y76.927 E111.61241
G1 X205.27 Y76.926 E112.165
G1 X205.926 Y76.966 E112.18686
G1 X206.572 Y77.085 E112.2087
G1 X207.199 Y77.282 E112.23056
G1 X207.797 Y77.554 E112.25241
G1 X208.358 Y77.896 E112.27427
G1 X208.873 Y78.304 E112.29612
G1 X209.335 Y78.771 E112.31797
G1 X209.736 Y79.291 E112.33981
G1 X210.072 Y79.856 E112.36167
G1 X210.336 Y80.457 E112.3835
G1 X210.526 Y81.086 E112.40536
G1 X210.637 Y81.733 E112.42719
G1 X210.67 Y82.326 E112.44695
G1 X210.669 Y145.175 E114.53731
G1 X210.67 Y151.676 E114.75354
G1 X210.63 Y152.332 E114.7754
G1 X210.511 Y152.978 E114.79724
G1 X210.314 Y153.605 E114.8191
G1 X210.042 Y154.203 E114.84095
G1 X209.7 Y154.764 E114.86281
G1 X209.292 Y155.279 E114.88466
G1 X208.825 Y155.741 E114.90651
G1 X208.305 Y156.142 E114.92835
G1 X207.74 Y156.478 E114.95021
G1 X207.139 Y156.742 E114.97205
G1 X206.51 Y156.932 E114.9939
G1 X205.863 Y157.043 E115.01573
G1 X205.27 Y157.076 E115.03549
G1 X46.344 Y157.075 E120.32139
G1 X29.73 Y157.076 E120.87397
G1 X29.074 Y157.036 E120.89583
G1 X28.428 Y156.917 E120.91768
G1 X27.801 Y156.72 E120.93954
G1 X27.203 Y156.448 E120.96139
G1 X26.642 Y156.106 E120.98324
G1 X26.127 Y155.698 E121.00509
G1 X25.665 Y155.231 E121.02694
G1 X25.264 Y154.711 E121.04878
G1 X24.928 Y154.146 E121.07065
G1 X24.664 Y153.545 E121.09248
G1 X24.474 Y152.916 E121.11433
G1 X24.363 Y152.269 E121.13617
G1 X24.33 Y151.676 E121.15592
G1 X24.331 Y88.827 E123.24629
G1 X24.33 Y82.326 E123.46251
G1 X24.37 Y81.67 E123.48437
G1 X24.489 Y81.024 E123.50622
G1 X24.686 Y80.397 E123.52808
G1 X24.958 Y79.799 E123.54993
G1 X25.3 Y79.238 E123.57178
G1 X25.708 Y78.723 E123.59363
G1 X26.175 Y78.261 E123.61548
G1 X26.695 Y77.86 E123.63732
G1 X27.26 Y77.524 E123.65919
G1 X27.861 Y77.26 E123.68102
G0 F3600 X28.225 Y77.558
G1 F1800 X28.839 Y77.406 E123.70206
G1 X29.73 Y77.326 E123.73181
G1 X188.656 Y77.327 E129.01771
G1 X205.27 Y77.326 E129.5703
G1 X205.901 Y77.366 E129.59133
G1 X206.522 Y77.485 E129.61236
G1 X207.122 Y77.682 E129.63336
G1 X207.694 Y77.953 E129.65441
G1 X208.226 Y78.293 E129.67541
G1 X208.711 Y78.699 E129.69645
G1 X209.141 Y79.162 E129.71746
G1 X209.51 Y79.676 E129.73851
G1 X209.81 Y80.232 E129.75952
G1 X210.038 Y80.821 E129.78053
G1 X210.19 Y81.435 E129.80157
G1 X210.27 Y82.326 E129.83132
G1 X210.269 Y145.175 E131.92169
G1 X210.27 Y151.676 E132.13791
G1 X210.23 Y152.307 E132.15894
G1 X210.111 Y152.928 E132.17997
G1 X209.914 Y153.529 E132.20101
G1 X209.643 Y154.1 E132.22203
G1 X209.303 Y154.632 E132.24303
G1 X208.897 Y155.117 E132.26407
G1 X208.434 Y155.547 E132.28508
G1 X207.92 Y155.916 E132.30613
G1 X207.364 Y156.216 E132.32714
G1 X206.775 Y156.444 E132.34815
G1 X206.161 Y156.596 E132.36918
G1 X205.27 Y156.676 E132.39894
G1 X46.344 Y156.675 E137.68484
G1 X29.73 Y156.676 E138.23742
G1 X29.099 Y156.636 E138.25845
G1 X28.478 Y156.517 E138.27948
G1 X27.878 Y156.32 E138.30049
G1 X27.306 Y156.049 E138.32154
G1 X26.774 Y155.709 E138.34254
G1 X26.289 Y155.303 E138.36357
G1 X25.859 Y154.84 E138.38459
G1 X25.49 Y154.326 E138.40564
G1 X25.19 Y153.77 E138.42665
G1 X24.962 Y153.181 E138.44766
G1 X24.81 Y152.567 E138.46869
G1 X24.73 Y151.676 E138.49845
