;FLAVOR:Marlin
;TIME:10831
;Filament used: 5.84546m
;Layer height: 0.2
;MINX:14.407
;MINY:66.518
;MINZ:0.12
;MAXX:205.593
;MAXY:151.513
;MAXZ:5.32
;Generated with Cura_SteamEngine 4.2.1
M140 S70
M105
M190 S70
M104 S200
M105
M109 S200
M82 ;absolute extrusion mode
; Ender 3 Custom Start G-code
G28 ; Home all axes
M420 S1
G92 E0 ; Reset Extruder
G1 Z2.0 F3000 ; Move Z Axis up little to prevent scratching of Heat Bed
G1 X0.1 Y20 Z0.3 F5000.0 ; Move to start position
G1 X0.1 Y200.0 Z0.3 F1500.0 E15 ; Draw the first line
G1 X0.4 Y200.0 Z0.3 F5000.0 ; Move to side a little
G1 X0.4 Y20 Z0.3 F1500.0 E30 ; Draw the second line
G92 E0 ; Reset Extruder
G1 Z2.0 F3000 ; Move Z Axis up little to prevent scratching of Heat Bed
G92 E0
G92 E0
G1 F3000 E-8
;LAYER_COUNT:26
;LAYER:0
M107
M204 S500
M205 X8 Y8
G0 F6000 X20.176 Y66.82 Z0.12
;TYPE:SKIRT
G1 F3000 E0
G1 F1200 X20.945 Y66.641 E0.01497
G1 X21.729 Y66.541 E0.02995
G1 X22.324 Y66.518 E0.04124
G1 X187.824 Y66.519 E3.17884
G1 X197.676 Y66.518 E3.36561
G1 X198.465 Y66.558 E3.38059
G1 X199.245 Y66.677 E3.39555
G1 X200.01 Y66.875 E3.41053
G1 X200.75 Y67.149 E3.42549
G1 X201.459 Y67.497 E3.44046
G1 X202.13 Y67.915 E3.45545
G1 X202.754 Y68.398 E3.47041
G1 X203.191 Y68.803 E3.48171
G1 X203.308 Y68.92 E3.48484
G1 X203.838 Y69.506 E3.49982
G1 X204.305 Y70.142 E3.51478
G1 X204.706 Y70.822 E3.52975
G1 X205.036 Y71.54 E3.54473
G1 X205.291 Y72.287 E3.55969
G1 X205.47 Y73.056 E3.57466
G1 X205.57 Y73.84 E3.58964
G1 X205.593 Y74.435 E3.60093
G1 X205.592 Y139.812 E4.84037
G1 X205.593 Y143.594 E4.91207
G1 X205.553 Y144.383 E4.92705
G1 X205.434 Y145.163 E4.942
G1 X205.236 Y145.928 E4.95699
G1 X204.962 Y146.668 E4.97195
G1 X204.615 Y147.378 E4.98693
G1 X204.198 Y148.048 E5.00189
G1 X203.715 Y148.673 E5.01686
G1 X203.308 Y149.111 E5.0282
G1 X203.191 Y149.228 E5.03134
G1 X202.605 Y149.758 E5.04632
G1 X201.969 Y150.225 E5.06127
G1 X201.289 Y150.626 E5.07624
G1 X200.571 Y150.956 E5.09122
G1 X199.824 Y151.211 E5.10619
G1 X199.055 Y151.39 E5.12115
G1 X198.271 Y151.49 E5.13614
G1 X197.676 Y151.513 E5.14743
G1 X32.176 Y151.512 E8.28502
G1 X22.324 Y151.513 E8.4718
G1 X21.535 Y151.473 E8.48678
G1 X20.755 Y151.354 E8.50173
G1 X19.99 Y151.156 E8.51671
G1 X19.25 Y150.882 E8.53167
G1 X18.541 Y150.534 E8.54665
G1 X17.87 Y150.116 E8.56164
G1 X17.246 Y149.633 E8.5766
G1 X16.809 Y149.228 E8.58789
G1 X16.692 Y149.111 E8.59103
G1 X16.162 Y148.525 E8.60601
G1 X15.695 Y147.889 E8.62097
G1 X15.294 Y147.209 E8.63593
G1 X14.964 Y146.491 E8.65091
G1 X14.709 Y145.744 E8.66588
G1 X14.53 Y144.975 E8.68085
G1 X14.43 Y144.191 E8.69583
G1 X14.407 Y143.596 E8.70712
G1 X14.408 Y78.219 E9.94655
G1 X14.407 Y74.437 E10.01825
G1 X14.447 Y73.648 E10.03323
G1 X14.566 Y72.868 E10.04819
G1 X14.764 Y72.103 E10.06317
G1 X15.038 Y71.363 E10.07813
G1 X15.385 Y70.653 E10.09311
G1 X15.802 Y69.983 E10.10807
G1 X16.285 Y69.358 E10.12305
G1 X16.692 Y68.92 E10.13438
G1 X16.809 Y68.803 E10.13752
G1 X17.395 Y68.273 E10.1525
G1 X18.031 Y67.806 E10.16746
G1 X18.711 Y67.405 E10.18243
G1 X19.429 Y67.075 E10.19741
G1 X20.176 Y66.82 E10.21237
G0 F6000 X20.383 Y67.177
G1 F1200 X21.134 Y67.014 E10.22694
G1 X21.899 Y66.93 E10.24153
G1 X22.324 Y66.918 E10.24959
G1 X187.824 Y66.919 E13.38719
G1 X197.676 Y66.918 E13.57396
G1 X198.444 Y66.958 E13.58854
G1 X199.204 Y67.077 E13.60313
G1 X199.947 Y67.275 E13.6177
G1 X200.666 Y67.549 E13.63229
G1 X201.353 Y67.896 E13.64688
G1 X201.999 Y68.312 E13.66145
G1 X202.599 Y68.793 E13.67603
G1 X202.909 Y69.085 E13.6841
G1 X203.026 Y69.202 E13.68724
G1 X203.54 Y69.774 E13.70182
G1 X203.993 Y70.396 E13.71641
G1 X204.379 Y71.061 E13.73098
G1 X204.694 Y71.763 E13.74557
G1 X204.934 Y72.494 E13.76016
G1 X205.097 Y73.245 E13.77473
G1 X205.181 Y74.01 E13.78932
G1 X205.193 Y74.435 E13.79738
G1 X205.192 Y139.812 E15.03681
G1 X205.193 Y143.594 E15.10851
G1 X205.153 Y144.362 E15.12309
G1 X205.034 Y145.122 E15.13767
G1 X204.836 Y145.865 E15.15225
G1 X204.563 Y146.584 E15.16683
G1 X204.216 Y147.271 E15.18142
G1 X203.8 Y147.918 E15.19601
G1 X203.319 Y148.518 E15.21059
G1 X203.026 Y148.829 E15.21869
G1 X202.909 Y148.946 E15.22182
G1 X202.337 Y149.46 E15.2364
G1 X201.715 Y149.913 E15.25099
G1 X201.05 Y150.299 E15.26557
G1 X200.348 Y150.614 E15.28015
G1 X199.617 Y150.854 E15.29474
G1 X198.866 Y151.017 E15.30931
G1 X198.101 Y151.101 E15.3239
G1 X197.676 Y151.113 E15.33196
G1 X32.176 Y151.112 E18.46956
G1 X22.324 Y151.113 E18.65633
G1 X21.556 Y151.073 E18.67091
G1 X20.796 Y150.954 E18.6855
G1 X20.053 Y150.756 E18.70007
G1 X19.334 Y150.482 E18.71466
G1 X18.647 Y150.135 E18.72925
G1 X18.001 Y149.719 E18.74382
G1 X17.401 Y149.238 E18.7584
G1 X17.091 Y148.946 E18.76647
G1 X16.974 Y148.829 E18.76961
G1 X16.46 Y148.257 E18.78419
G1 X16.007 Y147.635 E18.79878
G1 X15.621 Y146.97 E18.81335
G1 X15.306 Y146.268 E18.82794
G1 X15.066 Y145.537 E18.84253
G1 X14.903 Y144.786 E18.8571
G1 X14.819 Y144.021 E18.87169
G1 X14.807 Y143.596 E18.87975
G1 X14.808 Y78.219 E20.11918
G1 X14.807 Y74.437 E20.19088
G1 X14.847 Y73.669 E20.20546
G1 X14.966 Y72.909 E20.22005
G1 X15.164 Y72.166 E20.23462
G1 X15.437 Y71.447 E20.2492
G1 X15.784 Y70.76 E20.2638
G1 X16.2 Y70.113 E20.27838
G1 X16.681 Y69.513 E20.29296
G1 X16.974 Y69.202 E20.30106
G1 X17.091 Y69.085 E20.30419
G1 X17.663 Y68.571 E20.31877
G1 X18.285 Y68.118 E20.33336
G1 X18.95 Y67.732 E20.34794
G1 X19.652 Y67.417 E20.36253
G1 X20.383 Y67.177 E20.37711
G0 F6000 X20.587 Y67.537
G1 F1200 X21.32 Y67.39 E20.39128
G1 X22.324 Y67.318 E20.41037
G1 X187.824 Y67.319 E23.54796
G1 X197.676 Y67.318 E23.73474
G1 X198.423 Y67.358 E23.74892
G1 X199.162 Y67.477 E23.76311
G1 X199.883 Y67.675 E23.77729
G1 X200.579 Y67.948 E23.79146
G1 X201.242 Y68.295 E23.80565
G1 X201.865 Y68.71 E23.81984
G1 X202.626 Y69.368 E23.83891
G1 X202.743 Y69.485 E23.84205
G1 X203.243 Y70.042 E23.85624
G1 X203.68 Y70.648 E23.8704
G1 X204.051 Y71.298 E23.88459
G1 X204.35 Y71.984 E23.89878
G1 X204.574 Y72.698 E23.91297
G1 X204.721 Y73.431 E23.92714
G1 X204.793 Y74.435 E23.94622
G1 X204.792 Y139.812 E25.18566
G1 X204.793 Y143.594 E25.25736
G1 X204.753 Y144.341 E25.27154
G1 X204.634 Y145.08 E25.28573
G1 X204.437 Y145.801 E25.2999
G1 X204.163 Y146.498 E25.3141
G1 X203.817 Y147.161 E25.32828
G1 X203.402 Y147.783 E25.34245
G1 X202.743 Y148.546 E25.36157
G1 X202.626 Y148.663 E25.3647
G1 X202.069 Y149.163 E25.37889
G1 X201.463 Y149.6 E25.39306
G1 X200.813 Y149.971 E25.40725
G1 X200.127 Y150.27 E25.42143
G1 X199.413 Y150.494 E25.43562
G1 X198.68 Y150.641 E25.44979
G1 X197.676 Y150.713 E25.46888
G1 X32.176 Y150.712 E28.60647
G1 X22.324 Y150.713 E28.79325
G1 X21.577 Y150.673 E28.80743
G1 X20.838 Y150.554 E28.82162
G1 X20.117 Y150.356 E28.8358
G1 X19.421 Y150.083 E28.84997
G1 X18.758 Y149.736 E28.86416
G1 X18.135 Y149.321 E28.87835
G1 X17.374 Y148.663 E28.89742
G1 X17.257 Y148.546 E28.90056
G1 X16.757 Y147.989 E28.91475
G1 X16.32 Y147.383 E28.92891
G1 X15.949 Y146.733 E28.9431
G1 X15.65 Y146.047 E28.95729
G1 X15.426 Y145.333 E28.97147
G1 X15.279 Y144.6 E28.98565
G1 X15.207 Y143.596 E29.00473
G1 X15.208 Y78.219 E30.24417
G1 X15.207 Y74.437 E30.31587
G1 X15.247 Y73.69 E30.33005
G1 X15.366 Y72.951 E30.34424
G1 X15.563 Y72.23 E30.35841
G1 X15.837 Y71.533 E30.37261
G1 X16.183 Y70.87 E30.38679
G1 X16.598 Y70.248 E30.40096
G1 X17.257 Y69.485 E30.42007
G1 X17.374 Y69.368 E30.42321
G1 X17.931 Y68.868 E30.4374
G1 X18.537 Y68.431 E30.45157
G1 X19.187 Y68.06 E30.46575
G1 X19.873 Y67.761 E30.47994
G1 X20.587 Y67.537 E30.49413
G0 F6000 X20.788 Y67.899
G1 F1200 X21.503 Y67.769 E30.50791
G1 X22.324 Y67.718 E30.5235
G1 X187.824 Y67.719 E33.6611
G1 X197.676 Y67.718 E33.84787
G1 X198.401 Y67.758 E33.86164
G1 X199.118 Y67.877 E33.87542
G1 X199.817 Y68.075 E33.88919
G1 X200.49 Y68.348 E33.90296
G1 X201.129 Y68.693 E33.91673
G1 X201.726 Y69.107 E33.9305
G1 X202.343 Y69.651 E33.94609
G1 X202.46 Y69.768 E33.94923
G1 X202.944 Y70.309 E33.96299
G1 X203.367 Y70.9 E33.97677
G1 X203.721 Y71.534 E33.99054
G1 X204.004 Y72.203 E34.00431
G1 X204.212 Y72.899 E34.01808
G1 X204.342 Y73.614 E34.03186
G1 X204.393 Y74.435 E34.04745
G1 X204.392 Y139.812 E35.28689
G1 X204.393 Y143.594 E35.35859
G1 X204.353 Y144.32 E35.37237
G1 X204.234 Y145.036 E35.38613
G1 X204.037 Y145.735 E35.3999
G1 X203.764 Y146.408 E35.41367
G1 X203.419 Y147.047 E35.42744
G1 X203.005 Y147.645 E35.44123
G1 X202.46 Y148.263 E35.45685
G1 X202.343 Y148.38 E35.45998
G1 X201.802 Y148.864 E35.47375
G1 X201.211 Y149.287 E35.48752
G1 X200.577 Y149.641 E35.50129
G1 X199.908 Y149.924 E35.51506
G1 X199.212 Y150.132 E35.52883
G1 X198.497 Y150.262 E35.54261
G1 X197.676 Y150.313 E35.55821
G1 X32.176 Y150.312 E38.6958
G1 X22.324 Y150.313 E38.88258
G1 X21.599 Y150.273 E38.89634
G1 X20.882 Y150.154 E38.91012
G1 X20.183 Y149.956 E38.9239
G1 X19.51 Y149.683 E38.93766
G1 X18.871 Y149.338 E38.95143
G1 X18.274 Y148.924 E38.9652
G1 X17.657 Y148.38 E38.9808
G1 X17.54 Y148.263 E38.98394
G1 X17.056 Y147.722 E38.9977
G1 X16.633 Y147.131 E39.01148
G1 X16.279 Y146.497 E39.02524
G1 X15.996 Y145.828 E39.03901
G1 X15.788 Y145.132 E39.05279
G1 X15.658 Y144.417 E39.06656
G1 X15.607 Y143.596 E39.08216
G1 X15.608 Y78.219 E40.32159
G1 X15.607 Y74.437 E40.39329
G1 X15.647 Y73.711 E40.40708
G1 X15.766 Y72.995 E40.42084
G1 X15.963 Y72.296 E40.43461
G1 X16.236 Y71.623 E40.44837
G1 X16.581 Y70.984 E40.46214
G1 X16.995 Y70.386 E40.47593
G1 X17.54 Y69.768 E40.49155
G1 X17.657 Y69.651 E40.49469
G1 X18.198 Y69.167 E40.50845
G1 X18.789 Y68.744 E40.52223
G1 X19.423 Y68.39 E40.536
G1 X20.092 Y68.107 E40.54977
G1 X20.788 Y67.899 E40.56354
G0 F6000 X20.309 Y68.454
G1 F1200 X20.987 Y68.264 E40.57689
G1 X21.682 Y68.151 E40.59024
G1 X22.324 Y68.118 E40.60242
G1 X187.824 Y68.119 E43.74002
G1 X197.676 Y68.118 E43.9268
G1 X198.379 Y68.158 E43.94014
G1 X199.073 Y68.277 E43.95349
G1 X199.748 Y68.475 E43.96683
G1 X200.398 Y68.747 E43.98019
G1 X201.012 Y69.092 E43.99354
G1 X201.582 Y69.503 E44.00686
G1 X202.06 Y69.934 E44.01906
G1 X202.177 Y70.051 E44.0222
G1 X202.646 Y70.576 E44.03555
G1 X203.052 Y71.151 E44.04889
G1 X203.39 Y71.769 E44.06225
G1 X203.657 Y72.42 E44.07559
G1 X203.847 Y73.098 E44.08893
G1 X203.96 Y73.793 E44.10228
G1 X203.993 Y74.435 E44.11447
G1 X203.992 Y139.812 E45.35391
G1 X203.993 Y143.594 E45.42561
G1 X203.953 Y144.297 E45.43896
G1 X203.834 Y144.991 E45.4523
G1 X203.637 Y145.667 E45.46565
G1 X203.364 Y146.316 E45.479
G1 X203.02 Y146.93 E45.49234
G1 X202.609 Y147.501 E45.50568
G1 X202.177 Y147.98 E45.51791
G1 X202.06 Y148.097 E45.52105
G1 X201.535 Y148.566 E45.53439
G1 X200.96 Y148.972 E45.54774
G1 X200.342 Y149.31 E45.56109
G1 X199.691 Y149.577 E45.57443
G1 X199.013 Y149.767 E45.58778
G1 X198.318 Y149.88 E45.60113
G1 X197.676 Y149.913 E45.61332
G1 X32.176 Y149.912 E48.75091
G1 X22.324 Y149.913 E48.93769
G1 X21.621 Y149.873 E48.95104
G1 X20.927 Y149.754 E48.96439
G1 X20.252 Y149.556 E48.97772
G1 X19.602 Y149.284 E48.99108
G1 X18.988 Y148.939 E49.00443
G1 X18.418 Y148.528 E49.01776
G1 X17.94 Y148.097 E49.02996
G1 X17.823 Y147.98 E49.0331
G1 X17.354 Y147.455 E49.04644
G1 X16.948 Y146.88 E49.05979
G1 X16.61 Y146.262 E49.07314
G1 X16.343 Y145.611 E49.08648
G1 X16.153 Y144.933 E49.09983
G1 X16.04 Y144.238 E49.11318
G1 X16.007 Y143.596 E49.12536
G1 X16.008 Y78.219 E50.3648
G1 X16.007 Y74.437 E50.4365
G1 X16.047 Y73.734 E50.44985
G1 X16.166 Y73.04 E50.4632
G1 X16.363 Y72.364 E50.47655
G1 X16.636 Y71.715 E50.4899
G1 X16.98 Y71.101 E50.50324
G1 X17.391 Y70.53 E50.51658
G1 X17.823 Y70.051 E50.5288
G1 X17.94 Y69.934 E50.53194
G1 X18.465 Y69.465 E50.54529
G1 X19.04 Y69.059 E50.55863
G1 X19.658 Y68.721 E50.57199
G1 X20.309 Y68.454 E50.58533
G0 F6000 X20.524 Y68.804
G1 F1200 X21.183 Y68.631 E50.59824
G1 X21.857 Y68.537 E50.61114
G1 X22.324 Y68.518 E50.62001
G1 X187.824 Y68.519 E53.7576
G1 X197.676 Y68.518 E53.94438
G1 X198.356 Y68.558 E53.95729
G1 X199.026 Y68.677 E53.97019
G1 X199.678 Y68.874 E53.9831
G1 X200.302 Y69.147 E53.99602
G1 X200.89 Y69.49 E54.00892
G1 X201.434 Y69.9 E54.02184
G1 X201.777 Y70.217 E54.03069
G1 X201.894 Y70.334 E54.03383
G1 X202.347 Y70.843 E54.04675
G1 X202.736 Y71.401 E54.05964
G1 X203.058 Y72.001 E54.07255
G1 X203.307 Y72.635 E54.08546
G1 X203.48 Y73.294 E54.09838
G1 X203.574 Y73.968 E54.11128
G1 X203.593 Y74.435 E54.12014
G1 X203.592 Y139.812 E55.35958
G1 X203.593 Y143.594 E55.43128
G1 X203.553 Y144.274 E55.44419
G1 X203.434 Y144.945 E55.45711
G1 X203.237 Y145.596 E55.47001
G1 X202.965 Y146.221 E55.48293
G1 X202.622 Y146.809 E55.49584
G1 X202.212 Y147.352 E55.50873
G1 X201.894 Y147.697 E55.51763
G1 X201.777 Y147.814 E55.52077
G1 X201.268 Y148.267 E55.53368
G1 X200.71 Y148.656 E55.54658
G1 X200.11 Y148.978 E55.55949
G1 X199.476 Y149.227 E55.5724
G1 X198.817 Y149.4 E55.58532
G1 X198.143 Y149.494 E55.59822
G1 X197.676 Y149.513 E55.60708
G1 X32.176 Y149.512 E58.74468
G1 X22.324 Y149.513 E58.93145
G1 X21.644 Y149.473 E58.94437
G1 X20.974 Y149.354 E58.95727
G1 X20.322 Y149.157 E58.97018
G1 X19.698 Y148.884 E58.98309
G1 X19.11 Y148.541 E58.996
G1 X18.566 Y148.131 E59.00891
G1 X18.223 Y147.814 E59.01777
G1 X18.106 Y147.697 E59.02091
G1 X17.653 Y147.188 E59.03382
G1 X17.264 Y146.63 E59.04672
G1 X16.942 Y146.03 E59.05963
G1 X16.693 Y145.396 E59.07254
G1 X16.52 Y144.737 E59.08546
G1 X16.426 Y144.063 E59.09836
G1 X16.407 Y143.596 E59.10722
G1 X16.408 Y78.219 E60.34666
G1 X16.407 Y74.437 E60.41836
G1 X16.447 Y73.757 E60.43127
G1 X16.566 Y73.086 E60.44419
G1 X16.763 Y72.435 E60.45708
G1 X17.035 Y71.81 E60.47001
G1 X17.378 Y71.222 E60.48291
G1 X17.788 Y70.679 E60.49581
G1 X18.106 Y70.334 E60.50471
G1 X18.223 Y70.217 E60.50784
G1 X18.732 Y69.764 E60.52076
G1 X19.29 Y69.375 E60.53366
G1 X19.89 Y69.053 E60.54657
G1 X20.524 Y68.804 E60.55948
G0 F6000 X20.736 Y69.157
G1 F1200 X21.375 Y69.002 E60.57195
G1 X22.324 Y68.918 E60.59001
G1 X187.824 Y68.919 E63.7276
G1 X197.676 Y68.918 E63.91438
G1 X198.332 Y68.958 E63.92684
G1 X198.978 Y69.077 E63.93929
G1 X199.605 Y69.274 E63.95175
G1 X200.203 Y69.546 E63.96421
G1 X200.764 Y69.888 E63.97666
G1 X201.494 Y70.5 E63.99472
G1 X201.611 Y70.617 E63.99786
G1 X202.047 Y71.109 E64.01032
G1 X202.419 Y71.65 E64.02277
G1 X202.723 Y72.232 E64.03522
G1 X202.954 Y72.847 E64.04767
G1 X203.109 Y73.486 E64.06014
G1 X203.193 Y74.435 E64.0782
G1 X203.192 Y139.812 E65.31763
G1 X203.193 Y143.595 E65.38935
G1 X203.153 Y144.25 E65.40179
G1 X203.034 Y144.896 E65.41425
G1 X202.837 Y145.523 E65.42671
G1 X202.566 Y146.122 E65.43917
G1 X202.224 Y146.682 E65.45161
G1 X201.611 Y147.414 E65.46971
G1 X201.494 Y147.531 E65.47285
G1 X201.002 Y147.967 E65.48531
G1 X200.461 Y148.339 E65.49776
G1 X199.879 Y148.643 E65.51021
G1 X199.264 Y148.874 E65.52266
G1 X198.625 Y149.029 E65.53513
G1 X197.676 Y149.113 E65.55319
G1 X32.176 Y149.112 E68.69078
G1 X22.324 Y149.113 E68.87756
G1 X21.668 Y149.073 E68.89002
G1 X21.022 Y148.954 E68.90247
G1 X20.395 Y148.757 E68.91493
G1 X19.797 Y148.485 E68.92739
G1 X19.236 Y148.143 E68.93985
G1 X18.506 Y147.531 E68.9579
G1 X18.389 Y147.414 E68.96104
G1 X17.953 Y146.922 E68.9735
G1 X17.581 Y146.381 E68.98595
G1 X17.277 Y145.799 E68.9984
G1 X17.046 Y145.184 E69.01085
G1 X16.891 Y144.545 E69.02332
G1 X16.807 Y143.596 E69.04138
G1 X16.808 Y78.219 E70.28082
G1 X16.807 Y74.436 E70.35254
G1 X16.847 Y73.781 E70.36498
G1 X16.966 Y73.135 E70.37743
G1 X17.163 Y72.508 E70.38989
G1 X17.434 Y71.909 E70.40235
G1 X17.776 Y71.349 E70.41479
G1 X18.389 Y70.617 E70.4329
G1 X18.506 Y70.5 E70.43603
G1 X18.998 Y70.064 E70.44849
G1 X19.539 Y69.692 E70.46094
G1 X20.121 Y69.388 E70.47339
G1 X20.736 Y69.157 E70.48584
G0 F6000 X20.945 Y69.512
G1 F1200 X21.563 Y69.376 E70.49784
G1 X22.324 Y69.318 E70.51231
G1 X187.824 Y69.319 E73.64991
G1 X197.676 Y69.318 E73.83668
G1 X198.307 Y69.358 E73.84867
G1 X198.928 Y69.477 E73.86066
G1 X199.528 Y69.674 E73.87263
G1 X200.1 Y69.945 E73.88463
G1 X200.632 Y70.285 E73.8966
G1 X201.212 Y70.782 E73.91108
G1 X201.329 Y70.899 E73.91422
G1 X201.746 Y71.374 E73.9262
G1 X202.101 Y71.897 E73.93818
G1 X202.387 Y72.461 E73.95017
G1 X202.599 Y73.056 E73.96215
G1 X202.735 Y73.674 E73.97414
G1 X202.793 Y74.435 E73.98861
G1 X202.792 Y139.812 E75.22805
G1 X202.793 Y143.595 E75.29977
G1 X202.753 Y144.226 E75.31175
