;FLAVOR:Marlin
;TIME:3781
;Filament used: 1.40196m
;Layer height: 0.2
;MINX:61.477
;MINY:86.716
;MINZ:0.2
;MAXX:158.523
;MAXY:131.03
;MAXZ:2.8

;POSTPROCESSED
;ChangeAtZ instances: 1
;Generated with Cura_SteamEngine 4.1.0
M140 S60
M105
M190 S60
M104 S228
M105
M109 S228
M82 ;absolute extrusion mode
; Ender 3 Custom Start G-code
G28 ; Home all axes
G92 E0 ; Reset Extruder
G1 Z2.0 F3000 ; Move Z Axis up little to prevent scratching of Heat Bed
G1 X0.1 Y20 Z0.3 F5000.0 ; Move to start position
G1 X0.1 Y200.0 Z0.3 F1500.0 E15 ; Draw the first line
G1 X0.4 Y200.0 Z0.3 F5000.0 ; Move to side a little
G1 X0.4 Y20 Z0.3 F1500.0 E30 ; Draw the second line
G92 E0 ; Reset Extruder
G1 Z2.0 F3000 ; Move Z Axis up little to prevent scratching of Heat Bed
; End of custom start GCode
G92 E0
G92 E0
G1 F3600 E-10
;LAYER_COUNT:14

;LAYER:0
M107
M204 S500
M205 X10 Y10
G0 F3600 X63.948 Y88.08 Z0.2
;TYPE:SKIRT
G1 F3600 E0
G1 F900 X64.536 Y87.672 E0.0238
G1 X65.165 Y87.332 E0.04759
G1 X65.829 Y87.065 E0.07139
G1 X66.518 Y86.873 E0.09518
G1 X67.224 Y86.759 E0.11896
G1 X67.707 Y86.728 E0.13506
G1 X68.028 Y86.719 E0.14574
G1 X68.207 Y86.716 E0.1517
G1 X151.416 Y86.716 E2.91924
G1 X151.508 Y86.717 E2.9223
G1 X152.206 Y86.727 E2.94552
G1 X152.919 Y86.777 E2.96929
G1 X153.623 Y86.906 E2.99309
G1 X154.307 Y87.114 E3.01687
G1 X154.964 Y87.396 E3.04065
G1 X155.586 Y87.75 E3.06446
G1 X156.164 Y88.171 E3.08824
G1 X156.692 Y88.654 E3.11204
G1 X157.162 Y89.192 E3.1358
G1 X157.57 Y89.78 E3.15961
G1 X157.909 Y90.41 E3.1834
G1 X158.176 Y91.073 E3.20717
G1 X158.367 Y91.763 E3.23099
G1 X158.48 Y92.469 E3.25477
G1 X158.511 Y92.946 E3.27066
G1 X158.52 Y93.266 E3.28131
G1 X158.523 Y93.446 E3.2873
G1 X158.523 Y123.973 E4.30263
G1 X158.514 Y124.7 E4.32681
G1 X158.465 Y125.414 E4.35062
G1 X158.337 Y126.118 E4.37442
G1 X158.131 Y126.803 E4.39821
G1 X157.85 Y127.46 E4.42197
G1 X157.497 Y128.083 E4.44579
G1 X157.077 Y128.662 E4.46958
G1 X156.595 Y129.19 E4.49336
G1 X156.058 Y129.662 E4.51714
G1 X155.47 Y130.07 E4.54094
G1 X154.841 Y130.411 E4.56474
G1 X154.178 Y130.679 E4.58852
G1 X153.489 Y130.871 E4.61231
G1 X152.783 Y130.986 E4.6361
G1 X152.293 Y131.018 E4.65244
G1 X151.972 Y131.027 E4.66312
G1 X151.793 Y131.03 E4.66907
G1 X68.584 Y131.03 E7.43661
G1 X68.501 Y131.029 E7.43938
G1 X67.803 Y131.02 E7.46259
G1 X67.09 Y130.971 E7.48636
G1 X66.386 Y130.843 E7.51016
G1 X65.701 Y130.637 E7.53395
G1 X65.044 Y130.355 E7.55773
G1 X64.422 Y130.002 E7.58152
G1 X63.843 Y129.582 E7.60531
G1 X63.314 Y129.1 E7.62911
G1 X62.843 Y128.562 E7.6529
G1 X62.435 Y127.975 E7.67667
G1 X62.095 Y127.345 E7.70048
G1 X61.827 Y126.682 E7.72427
G1 X61.635 Y125.993 E7.74806
G1 X61.521 Y125.287 E7.77184
G1 X61.488 Y124.794 E7.78828
G1 X61.479 Y124.461 E7.79936
G1 X61.477 Y124.288 E7.80511
G1 X61.477 Y93.79 E8.81948
G1 X61.478 Y93.703 E8.82237
G1 X61.487 Y93.038 E8.84449
G1 X61.536 Y92.325 E8.86826
G1 X61.665 Y91.621 E8.89207
G1 X61.872 Y90.937 E8.91584
G1 X62.154 Y90.279 E8.93965
G1 X62.507 Y89.657 E8.96343
G1 X62.927 Y89.079 E8.9872
G1 X63.41 Y88.551 E9.011
G1 X63.948 Y88.08 E9.03478
G0 F3600 X64.335 Y88.289
G1 F900 X64.916 Y87.912 E9.05782
G1 X65.536 Y87.604 E9.08084
G1 X66.188 Y87.37 E9.10388
G1 X66.862 Y87.213 E9.1269
G1 X67.718 Y87.127 E9.15551
G1 X68.039 Y87.118 E9.1662
G1 X68.207 Y87.116 E9.17178
G1 X151.416 Y87.116 E11.93933
G1 X151.502 Y87.117 E11.94219
G1 X152.2 Y87.127 E11.9654
G1 X152.891 Y87.176 E11.98845
G1 X153.571 Y87.306 E12.01147
G1 X154.232 Y87.512 E12.0345
G1 X154.865 Y87.794 E12.05755
G1 X155.461 Y88.146 E12.08057
G1 X156.012 Y88.565 E12.10359
G1 X156.512 Y89.045 E12.12665
G1 X156.953 Y89.579 E12.14968
G1 X157.33 Y90.16 E12.17272
G1 X157.637 Y90.781 E12.19576
G1 X157.87 Y91.433 E12.21879
G1 X158.027 Y92.107 E12.2418
G1 X158.112 Y92.957 E12.27022
G1 X158.121 Y93.277 E12.28086
G1 X158.123 Y93.446 E12.28648
G1 X158.123 Y123.968 E13.30165
G1 X158.114 Y124.695 E13.32583
G1 X158.065 Y125.386 E13.34887
G1 X157.937 Y126.067 E13.37192
G1 X157.732 Y126.728 E13.39494
G1 X157.452 Y127.361 E13.41796
G1 X157.1 Y127.958 E13.44101
G1 X156.683 Y128.511 E13.46405
G1 X156.204 Y129.011 E13.48708
G1 X155.671 Y129.453 E13.51011
G1 X155.09 Y129.831 E13.53316
G1 X154.47 Y130.139 E13.55619
G1 X153.819 Y130.374 E13.57921
G1 X153.144 Y130.532 E13.60226
G1 X152.282 Y130.619 E13.63108
G1 X151.961 Y130.628 E13.64176
G1 X151.793 Y130.63 E13.64735
G1 X68.507 Y130.63 E16.41745
G1 X67.809 Y130.621 E16.44067
G1 X67.118 Y130.572 E16.46371
G1 X66.437 Y130.443 E16.48676
G1 X65.776 Y130.238 E16.50978
G1 X65.143 Y129.957 E16.53281
G1 X64.546 Y129.606 E16.55585
G1 X63.994 Y129.188 E16.57888
G1 X63.494 Y128.709 E16.60191
G1 X63.052 Y128.175 E16.62496
G1 X62.675 Y127.595 E16.64797
G1 X62.367 Y126.974 E16.67103
G1 X62.132 Y126.323 E16.69405
G1 X61.975 Y125.648 E16.7171
G1 X61.888 Y124.783 E16.74601
G1 X61.879 Y124.45 E16.75709
G1 X61.877 Y124.288 E16.76248
G1 X61.877 Y93.79 E17.77685
G1 X61.878 Y93.709 E17.77954
G1 X61.887 Y93.044 E17.80166
G1 X61.936 Y92.353 E17.8247
G1 X62.064 Y91.673 E17.84772
G1 X62.271 Y91.011 E17.87079
G1 X62.552 Y90.378 E17.89382
G1 X62.904 Y89.782 E17.91684
G1 X63.322 Y89.23 E17.93987
G1 X63.801 Y88.73 E17.9629
G1 X64.335 Y88.289 E17.98594
G0 F3600 X64.191 Y88.917
G1 F900 X64.72 Y88.506 E18.00822
G1 X65.293 Y88.161 E18.03046
G1 X65.904 Y87.888 E18.05272
G1 X66.542 Y87.689 E18.07495
G1 X67.2 Y87.567 E18.09721
G1 X67.729 Y87.527 E18.11485
G1 X68.05 Y87.518 E18.12553
G1 X68.207 Y87.516 E18.13076
G1 X151.416 Y87.516 E20.8983
G1 X151.496 Y87.517 E20.90096
G1 X152.194 Y87.527 E20.92418
G1 X152.861 Y87.576 E20.94642
G1 X153.518 Y87.705 E20.96869
G1 X154.154 Y87.911 E20.99093
G1 X154.762 Y88.192 E21.0132
G1 X155.331 Y88.542 E21.03542
G1 X155.855 Y88.959 E21.0577
G1 X156.325 Y89.435 E21.07995
G1 X156.735 Y89.963 E21.10218
G1 X157.08 Y90.537 E21.12445
G1 X157.353 Y91.148 E21.14671
G1 X157.551 Y91.787 E21.16896
G1 X157.672 Y92.445 E21.19121
G1 X157.712 Y92.969 E21.20869
G1 X157.721 Y93.289 E21.21934
G1 X157.723 Y93.446 E21.22456
G1 X157.723 Y123.963 E22.23956
G1 X157.714 Y124.69 E22.26374
G1 X157.665 Y125.358 E22.28602
G1 X157.538 Y126.014 E22.30825
G1 X157.333 Y126.651 E22.3305
G1 X157.054 Y127.259 E22.35275
G1 X156.704 Y127.829 E22.375
G1 X156.288 Y128.354 E22.39728
G1 X155.813 Y128.825 E22.41953
G1 X155.286 Y129.236 E22.44176
G1 X154.713 Y129.582 E22.46402
G1 X154.103 Y129.856 E22.48626
G1 X153.464 Y130.056 E22.50853
G1 X152.806 Y130.178 E22.53079
G1 X152.271 Y130.219 E22.54863
G1 X151.95 Y130.228 E22.55932
G1 X151.793 Y130.23 E22.56454
G1 X68.512 Y130.23 E25.33447
G1 X67.814 Y130.221 E25.35769
G1 X67.147 Y130.172 E25.37994
G1 X66.49 Y130.044 E25.4022
G1 X65.853 Y129.839 E25.42446
G1 X65.245 Y129.559 E25.44672
G1 X64.675 Y129.209 E25.46897
G1 X64.151 Y128.793 E25.49122
G1 X63.68 Y128.318 E25.51347
G1 X63.269 Y127.79 E25.53572
G1 X62.924 Y127.217 E25.55797
G1 X62.65 Y126.607 E25.58021
G1 X62.45 Y125.968 E25.60248
G1 X62.329 Y125.31 E25.62473
G1 X62.288 Y124.772 E25.64268
G1 X62.279 Y124.439 E25.65376
G1 X62.277 Y124.288 E25.65878
G1 X62.277 Y93.79 E26.67315
G1 X62.278 Y93.714 E26.67568
G1 X62.287 Y93.049 E26.6978
G1 X62.336 Y92.382 E26.72004
G1 X62.464 Y91.725 E26.7423
G1 X62.669 Y91.089 E26.76453
G1 X62.949 Y90.481 E26.78679
G1 X63.3 Y89.911 E26.80906
G1 X63.716 Y89.387 E26.83131
G1 X64.191 Y88.917 E26.85353
G0 F3600 X64.58 Y89.111
G1 F900 X65.103 Y88.733 E26.875
G1 X65.667 Y88.422 E26.89642
G1 X66.266 Y88.184 E26.91786
G1 X66.89 Y88.021 E26.93931
G1 X67.74 Y87.927 E26.96775
G1 X68.061 Y87.918 E26.97843
G1 X68.207 Y87.916 E26.98329
G1 X151.416 Y87.916 E29.75083
G1 X151.49 Y87.917 E29.75329
G1 X152.188 Y87.927 E29.77651
G1 X152.831 Y87.976 E29.79796
G1 X153.463 Y88.104 E29.81941
G1 X154.074 Y88.31 E29.84085
G1 X154.655 Y88.589 E29.86229
G1 X155.197 Y88.938 E29.88373
G1 X155.691 Y89.352 E29.90517
G1 X156.131 Y89.824 E29.92663
G1 X156.509 Y90.346 E29.94806
G1 X156.819 Y90.911 E29.9695
G1 X157.057 Y91.51 E29.99094
G1 X157.219 Y92.134 E30.01238
G1 X157.312 Y92.98 E30.04069
G1 X157.321 Y93.3 E30.05133
G1 X157.323 Y93.446 E30.05619
G1 X157.323 Y123.958 E31.07102
G1 X157.314 Y124.685 E31.09521
G1 X157.266 Y125.328 E31.11665
G1 X157.139 Y125.96 E31.13809
G1 X156.934 Y126.572 E31.15956
G1 X156.656 Y127.153 E31.18098
G1 X156.308 Y127.696 E31.20243
G1 X155.895 Y128.191 E31.22387
G1 X155.424 Y128.631 E31.24531
G1 X154.902 Y129.01 E31.26677
G1 X154.338 Y129.321 E31.28819
G1 X153.739 Y129.56 E31.30964
G1 X153.116 Y129.724 E31.33107
G1 X152.26 Y129.819 E31.35971
G1 X151.939 Y129.828 E31.37039
G1 X151.793 Y129.83 E31.37525
G1 X68.517 Y129.83 E34.14502
G1 X67.819 Y129.821 E34.16824
G1 X67.176 Y129.772 E34.18968
G1 X66.544 Y129.645 E34.21113
G1 X65.933 Y129.44 E34.23256
G1 X65.352 Y129.162 E34.25398
G1 X64.809 Y128.813 E34.27545
G1 X64.314 Y128.4 E34.29689
G1 X63.874 Y127.929 E34.31833
G1 X63.495 Y127.407 E34.33979
G1 X63.184 Y126.843 E34.36121
G1 X62.946 Y126.244 E34.38265
G1 X62.783 Y125.62 E34.4041
G1 X62.688 Y124.761 E34.43284
G1 X62.679 Y124.428 E34.44392
G1 X62.677 Y124.288 E34.44858
G1 X62.677 Y93.72 E35.46527
G1 X62.686 Y93.055 E35.48739
G1 X62.735 Y92.412 E35.50884
G1 X62.863 Y91.78 E35.53029
G1 X63.068 Y91.169 E35.55172
G1 X63.347 Y90.588 E35.57316
G1 X63.696 Y90.045 E35.59463
G1 X64.109 Y89.551 E35.61605
G1 X64.58 Y89.111 E35.63748
G1 F3600 E25.63748
;MESH:Object 1
G0 F3600 X67.653 Y92.487
G0 X72.358 Y97.654
G0 X71.54 Y96.061
G0 X73.492 Y96.553
G0 X74.436 Y97.091
G0 X75.595 Y99.328
;TYPE:WALL-INNER
G1 F3600 E35.63748
G1 F900 X75.665 Y98.532 E35.66406
G1 X75.544 Y97.847 E35.6872
G1 X75.259 Y97.222 E35.71004
G1 X74.831 Y96.686 E35.73286
G1 X74.279 Y96.271 E35.75583
G1 X73.641 Y96.007 E35.77879
G1 X72.959 Y95.91 E35.8017
G1 X72.273 Y95.987 E35.82466
G1 X71.63 Y96.231 E35.84754
G1 X71.066 Y96.627 E35.87046
G1 X70.618 Y97.151 E35.89339
G1 X70.314 Y97.771 E35.91636
G1 X70.176 Y98.446 E35.93927
G1 X70.209 Y99.133 E35.96215
G1 X70.412 Y99.792 E35.98508
G1 X70.772 Y100.379 E36.00798
G1 X71.267 Y100.86 E36.03094
G1 X71.866 Y101.2 E36.05385
G1 X72.531 Y101.382 E36.07678
G1 X73.221 Y101.392 E36.09973
G1 X73.889 Y101.231 E36.12259
G1 X74.499 Y100.909 E36.14553
G1 X75.009 Y100.445 E36.16846
G1 X75.373 Y99.889 E36.19056
G1 X75.595 Y99.328 E36.21063
G1 F3600 E26.21063
G0 F3600 X73.957 Y101.411
G0 X73.298 Y99.661
G0 X67.289 Y101.387
G0 X69.087 Y101.411
G0 X68.877 Y123.63
G1 F3600 E36.21063
G1 F900 X68.877 Y94.116 E37.19227
G1 X151.123 Y94.116 E39.92778
G1 X151.123 Y123.63 E40.90942
G1 X68.877 Y123.63 E43.64494
G0 F3600 X68.477 Y124.03
G1 F900 X68.477 Y93.716 E44.65318
G1 X151.523 Y93.716 E47.4153
G1 X151.523 Y124.03 E48.42355
G1 X68.477 Y124.03 E51.18567
G1 F3600 E41.18567
G0 F3600 X69.086 Y99.274
G0 X70.02 Y99.167
G0 X71.606 Y100.406
G0 X72.611 Y100.823
G0 X73.69 Y100.703
G0 X74.402 Y100.238
G0 X75.202 Y99.235
G1 F3600 E51.18567
G1 F900 X75.262 Y98.55 E51.20854
G1 X75.159 Y97.967 E51.22824
G1 X74.916 Y97.433 E51.24775
G1 X74.55 Y96.975 E51.26725
G1 X74.079 Y96.621 E51.28684
G1 X73.535 Y96.396 E51.30643
G1 X72.953 Y96.313 E51.32598
G1 X72.368 Y96.379 E51.34556
G1 X71.819 Y96.587 E51.36509
G1 X71.337 Y96.925 E51.38467
G1 X70.955 Y97.372 E51.40422
G1 X70.696 Y97.901 E51.42381
G1 X70.578 Y98.477 E51.44337
G1 X70.606 Y99.064 E51.46291
G1 X70.779 Y99.626 E51.48247
G1 X71.087 Y100.127 E51.50203
G1 X71.509 Y100.537 E51.5216
G1 X72.02 Y100.827 E51.54114
G1 X72.588 Y100.983 E51.56074
G1 X73.176 Y100.991 E51.58029
G1 X73.747 Y100.854 E51.59982
G1 X74.267 Y100.579 E51.61939
G1 X74.702 Y100.183 E51.63895
G1 X75.016 Y99.704 E51.658
G1 X75.202 Y99.235 E51.67479
G0 F3600 X74.809 Y99.142
;TYPE:WALL-OUTER
G1 F900 X74.859 Y98.568 E51.69395
G1 X74.774 Y98.086 E51.71023
G1 X74.573 Y97.644 E51.72638
G1 X74.269 Y97.264 E51.74256
G1 X73.879 Y96.971 E51.75879
G1 X73.429 Y96.785 E51.77498
G1 X72.947 Y96.716 E51.79118
G1 X72.463 Y96.771 E51.80738
G1 X72.007 Y96.943 E51.82359
G1 X71.608 Y97.223 E51.8398
G1 X71.292 Y97.593 E51.85598
G1 X71.078 Y98.031 E51.8722
G1 X70.98 Y98.508 E51.88839
G1 X71.003 Y98.995 E51.90461
G1 X71.146 Y99.46 E51.92079
G1 X71.401 Y99.875 E51.93699
G1 X71.751 Y100.214 E51.9532
G1 X72.174 Y100.455 E51.96939
G1 X72.644 Y100.584 E51.9856
G1 X73.131 Y100.59 E52.0018
G1 X73.605 Y100.477 E52.01801
G1 X74.035 Y100.249 E52.03419
G1 X74.395 Y99.921 E52.05039
G1 X74.659 Y99.518 E52.06642
G1 X74.809 Y99.142 E52.07988
G0 F3600 X74.826 Y98.943
G1 F3600 E42.07988
G0 F3600 X75.124 Y98.969
G0 X73.957 Y101.411
G0 X73.298 Y99.661
G0 X67.289 Y101.387
G0 X69.087 Y101.411
G0 X68.377 Y124.16
G0 X68.077 Y124.43
G1 F3600 E52.07988
G1 F900 X68.077 Y93.316 E53.11474
G1 X151.923 Y93.316 E55.90347
G1 X151.923 Y124.43 E56.93832
G1 X68.077 Y124.43 E59.72705
G0 F3600 X68.077 Y124.23
G0 X68.347 Y124.16
G0 X68.987 Y123.24
G0 X69.267 Y123.24
;TYPE:SKIN
G1 F900 X69.267 Y94.506 E60.68275
G1 X150.733 Y94.506 E63.39232
G1 X150.733 Y123.24 E64.34801
G1 X69.267 Y123.24 E67.05758
G1 F3600 E57.05758
G0 F3600 X68.987 Y123.24
G0 X69.087 Y101.493
G0 X70.622 Y100.499
G0 X72.515 Y101.493
G0 X72.476 Y101.772
G1 F3600 E67.05758
G1 F900 X73.264 Y101.782 E67.0838
G1 X74.028 Y101.599 E67.10993
G1 X74.725 Y101.231 E67.13614
G1 X75.308 Y100.7 E67.16237
G1 X75.72 Y100.07 E67.18741
G1 X75.979 Y99.419 E67.21071
G1 X76.058 Y98.515 E67.24089
G1 X75.92 Y97.73 E67.2674
G1 X75.594 Y97.017 E67.29348
G1 X75.104 Y96.404 E67.31958
G1 X74.474 Y95.93 E67.3458
G1 X73.745 Y95.628 E67.37204
G1 X72.965 Y95.516 E67.39825
G1 X72.181 Y95.605 E67.4245
G1 X71.446 Y95.884 E67.45064
G1 X70.801 Y96.336 E67.47684
G1 X70.29 Y96.935 E67.50303
G1 X69.942 Y97.644 E67.5293
G1 X69.784 Y98.416 E67.55551
G1 X69.821 Y99.201 E67.58164
G1 X70.054 Y99.954 E67.60786
G1 X70.466 Y100.625 E67.63405
G1 X71.031 Y101.174 E67.66025
G1 X71.716 Y101.563 E67.68645
G1 X72.476 Y101.772 E67.71267
G1 F3600 E57.71267
G0 F3600 X72.515 Y101.493
G0 X72.765 Y99.721
G0 X72.503 Y125.214
G0 X72.503 Y123.42
G0 X69.885 Y123.52
G0 X69.885 Y123.059
G1 F3600 E67.71267
G1 F900 X69.447 Y122.621 E67.73327
G0 F3600 X69.447 Y122.055
G1 F900 X70.451 Y123.059 E67.7805
G0 F3600 X71.016 Y123.059
G1 F900 X69.447 Y121.49 E67.8543
G0 F3600 X69.447 Y120.924
G1 F900 X71.582 Y123.059 E67.95472
G0 F3600 X72.148 Y123.059
G1 F900 X69.447 Y120.358 E68.08177
G0 F3600 X69.447 Y119.793
G1 F900 X72.713 Y123.059 E68.23539
G0 F3600 X73.279 Y123.059
G1 F900 X69.447 Y119.227 E68.41564
G0 F3600 X69.447 Y118.661
G1 F900 X73.845 Y123.059 E68.6225
G0 F3600 X74.41 Y123.059
G1 F900 X69.447 Y118.096 E68.85595
G0 F3600 X69.447 Y117.53
G1 F900 X74.976 Y123.059 E69.11602
G0 F3600 X75.542 Y123.059
G1 F900 X69.447 Y116.964 E69.40271
G0 F3600 X69.447 Y116.398
G1 F900 X76.108 Y123.059 E69.71602
G0 F3600 X76.673 Y123.059
G1 F900 X69.447 Y115.833 E70.05591
G0 F3600 X69.447 Y115.267
G1 F900 X77.239 Y123.059 E70.42242
G0 F3600 X77.805 Y123.059
G1 F900 X69.447 Y114.701 E70.81555
G0 F3600 X69.447 Y114.136
G1 F900 X78.37 Y123.059 E71.23526
G0 F3600 X78.936 Y123.059
G1 F900 X69.447 Y113.57 E71.6816
G0 F3600 X69.447 Y113.004
G1 F900 X79.502 Y123.059 E72.15455
G0 F3600 X80.067 Y123.059
G1 F900 X69.447 Y112.439 E72.65409
G0 F3600 X69.447 Y111.873
G1 F900 X80.633 Y123.059 E73.18024
G0 F3600 X81.199 Y123.059
G1 F900 X69.447 Y111.307 E73.73302
G0 F3600 X69.447 Y110.742
G1 F900 X81.764 Y123.059 E74.31237
G0 F3600 X82.33 Y123.059
G1 F900 X69.447 Y110.176 E74.91835
G0 F3600 X69.447 Y109.61
G1 F900 X82.896 Y123.059 E75.55095
G0 F3600 X83.461 Y123.059
G1 F900 X69.447 Y109.045 E76.21013
G0 F3600 X69.447 Y108.479
G1 F900 X84.027 Y123.059 E76.89592
G0 F3600 X84.593 Y123.059
G1 F900 X69.447 Y107.913 E77.60835
G0 F3600 X69.447 Y107.348
G1 F900 X85.158 Y123.059 E78.34734
G0 F3600 X85.724 Y123.059
G1 F900 X69.447 Y106.782 E79.11296
G0 F3600 X69.447 Y106.216
G1 F900 X86.29 Y123.059 E79.90521
G0 F3600 X86.856 Y123.059
G1 F900 X69.447 Y105.65 E80.72407
G0 F3600 X69.447 Y105.085
G1 F900 X87.421 Y123.059 E81.56951
G0 F3600 X87.987 Y123.059
G1 F900 X69.447 Y104.519 E82.44158
G0 F3600 X69.447 Y103.953
G1 F900 X88.553 Y123.059 E83.34027
G0 F3600 X89.118 Y123.059
G1 F900 X69.447 Y103.388 E84.26553
G0 F3600 X69.447 Y102.822
G1 F900 X89.684 Y123.059 E85.21742
G0 F3600 X90.25 Y123.059
