;FLAVOR:Marlin
;TIME:19570
;Filament used: 9.10205m
;Layer height: 0.2
;MINX:21.855
;MINY:75.566
;MINZ:0.2
;MAXX:213.145
;MAXY:161.395
;MAXZ:5.8
;Generated with Cura_SteamEngine 4.2.1
M140 S60
M105
M190 S60
M104 S228
M105
M109 S228
M82 ;absolute extrusion mode
; Ender 3 Custom Start G-code
G28 ; Home all axes
M420 S1
G92 E0 ; Reset Extruder
G1 Z2.0 F3000 ; Move Z Axis up little to prevent scratching of Heat Bed
G1 X0.1 Y20 Z0.3 F5000.0 ; Move to start position
G1 X0.1 Y200.0 Z0.3 F1500.0 E15 ; Draw the first line
G1 X0.4 Y200.0 Z0.3 F5000.0 ; Move to side a little
G1 X0.4 Y20 Z0.3 F1500.0 E30 ; Draw the second line
G92 E0 ; Reset Extruder
G1 Z2.0 F3000 ; Move Z Axis up little to prevent scratching of Heat Bed
M141 S32
G92 E0
G92 E0
G1 F2400 E-10
;LAYER_COUNT:29
;LAYER:0
M107
M204 S500
M205 X8 Y8
G0 F6000 X28.989 Y76.407 Z0.2
;TYPE:SKIRT
G1 F2400 E0
G1 F1200 X29.888 Y76.086 E0.03175
G1 X30.811 Y75.842 E0.0635
G1 X31.752 Y75.676 E0.09528
G1 X32.944 Y75.579 E0.13506
G1 X33.265 Y75.57 E0.14574
G1 X33.585 Y75.566 E0.15639
G1 X46.922 Y75.566 E0.59998
G1 X47.08 Y75.567 E0.60523
G1 X48.808 Y75.591 E0.66271
G1 X48.993 Y75.595 E0.66887
G1 X49.433 Y75.608 E0.68351
G1 X51.971 Y75.612 E0.76792
G1 X53.926 Y75.569 E0.83296
G1 X54.176 Y75.566 E0.84128
G1 X113.143 Y75.566 E2.80253
G1 X113.307 Y75.567 E2.80798
G1 X115.048 Y75.592 E2.86589
G1 X115.207 Y75.596 E2.87118
G1 X115.635 Y75.608 E2.88542
G1 X118.211 Y75.611 E2.9711
G1 X120.152 Y75.569 E3.03567
G1 X120.398 Y75.566 E3.04386
G1 X179.365 Y75.566 E5.00511
G1 X179.523 Y75.567 E5.01036
G1 X181.251 Y75.591 E5.06784
G1 X181.436 Y75.595 E5.074
G1 X181.876 Y75.608 E5.08864
G1 X184.414 Y75.612 E5.17305
G1 X186.369 Y75.569 E5.23809
G1 X186.619 Y75.566 E5.24641
G1 X201.038 Y75.566 E5.72598
G1 X201.201 Y75.567 E5.73141
G1 X201.899 Y75.577 E5.75462
G1 X202.853 Y75.631 E5.78641
G1 X203.798 Y75.764 E5.81815
G1 X204.729 Y75.976 E5.8499
G1 X205.639 Y76.265 E5.88166
G1 X206.522 Y76.629 E5.91343
G1 X207.371 Y77.066 E5.94519
G1 X208.18 Y77.572 E5.97692
G1 X208.944 Y78.144 E6.00867
G1 X209.658 Y78.778 E6.04042
G1 X210.316 Y79.47 E6.07218
G1 X210.914 Y80.214 E6.10393
G1 X211.448 Y81.006 E6.1357
G1 X211.913 Y81.84 E6.16746
G1 X212.308 Y82.709 E6.19921
G1 X212.627 Y83.609 E6.23097
G1 X212.871 Y84.532 E6.26272
G1 X213.036 Y85.473 E6.2945
G1 X213.131 Y86.656 E6.33397
G1 X213.14 Y86.976 E6.34462
G1 X213.145 Y87.296 E6.35526
G1 X213.145 Y149.259 E8.41616
G1 X213.144 Y149.4 E8.42085
G1 X213.135 Y150.127 E8.44503
G1 X213.083 Y151.08 E8.47678
G1 X212.952 Y152.026 E8.50854
G1 X212.742 Y152.958 E8.54032
G1 X212.455 Y153.868 E8.57205
G1 X212.092 Y154.751 E8.60381
G1 X211.657 Y155.601 E8.63557
G1 X211.152 Y156.412 E8.66734
G1 X210.582 Y157.177 E8.69907
G1 X209.949 Y157.892 E8.73083
G1 X209.259 Y158.552 E8.76259
G1 X208.515 Y159.151 E8.79436
G1 X207.725 Y159.686 E8.82609
G1 X206.892 Y160.153 E8.85786
G1 X206.023 Y160.549 E8.88962
G1 X205.124 Y160.871 E8.92138
G1 X204.201 Y161.116 E8.95314
G1 X203.261 Y161.283 E8.9849
G1 X202.056 Y161.382 E9.02511
G1 X201.735 Y161.391 E9.03579
G1 X201.415 Y161.395 E9.04643
G1 X188.452 Y161.395 E9.47759
G1 X188.29 Y161.394 E9.48297
G1 X187.585 Y161.384 E9.50642
G1 X187.109 Y161.367 E9.52227
G1 X184.561 Y161.224 E9.60715
G1 X182.08 Y161.154 E9.6897
G1 X179.543 Y161.154 E9.77408
G1 X177.041 Y161.225 E9.85733
G1 X175.66 Y161.294 E9.90332
G1 X174.395 Y161.367 E9.94546
G1 X174.055 Y161.381 E9.95678
G1 X173.735 Y161.39 E9.96743
G1 X173.415 Y161.395 E9.97807
G1 X123.421 Y161.395 E11.64088
G1 X123.259 Y161.394 E11.64627
G1 X122.554 Y161.384 E11.66972
G1 X122.078 Y161.367 E11.68556
G1 X119.53 Y161.224 E11.77044
G1 X117.049 Y161.154 E11.85299
G1 X114.512 Y161.154 E11.93737
G1 X112.01 Y161.225 E12.02062
G1 X110.629 Y161.294 E12.06661
G1 X109.364 Y161.367 E12.10876
G1 X109.024 Y161.381 E12.12008
G1 X108.704 Y161.39 E12.13072
G1 X108.384 Y161.395 E12.14137
G1 X58.391 Y161.395 E13.80414
G1 X58.229 Y161.394 E13.80953
G1 X57.524 Y161.384 E13.83298
G1 X57.048 Y161.367 E13.84882
G1 X54.5 Y161.224 E13.9337
G1 X52.019 Y161.154 E14.01625
G1 X49.482 Y161.154 E14.10063
G1 X46.98 Y161.225 E14.18389
G1 X45.599 Y161.294 E14.22987
G1 X44.334 Y161.367 E14.27202
G1 X43.994 Y161.381 E14.28334
G1 X43.674 Y161.39 E14.29398
G1 X43.354 Y161.395 E14.30463
G1 X33.962 Y161.395 E14.61701
G1 X33.815 Y161.394 E14.6219
G1 X33.117 Y161.385 E14.64511
G1 X32.164 Y161.333 E14.67686
G1 X31.218 Y161.201 E14.70863
G1 X30.287 Y160.99 E14.74038
G1 X29.376 Y160.703 E14.77215
G1 X28.493 Y160.34 E14.8039
G1 X27.644 Y159.904 E14.83564
G1 X26.833 Y159.399 E14.86742
G1 X26.068 Y158.828 E14.89917
G1 X25.354 Y158.195 E14.93091
G1 X24.694 Y157.504 E14.96269
G1 X24.095 Y156.761 E14.99443
G1 X23.561 Y155.97 E15.02617
G1 X23.094 Y155.137 E15.05794
G1 X22.699 Y154.268 E15.08969
G1 X22.377 Y153.369 E15.12145
G1 X22.133 Y152.446 E15.1532
G1 X21.966 Y151.506 E15.18495
G1 X21.868 Y150.294 E15.2254
G1 X21.859 Y149.961 E15.23648
G1 X21.855 Y149.653 E15.24672
G1 X21.855 Y87.64 E17.30928
G1 X21.856 Y87.486 E17.3144
G1 X21.865 Y86.821 E17.33652
G1 X21.918 Y85.867 E17.3683
G1 X22.05 Y84.922 E17.40004
G1 X22.262 Y83.991 E17.4318
G1 X22.55 Y83.081 E17.46354
G1 X22.913 Y82.198 E17.4953
G1 X23.349 Y81.348 E17.52707
G1 X23.855 Y80.538 E17.55884
G1 X24.427 Y79.774 E17.59058
G1 X25.06 Y79.059 E17.62234
G1 X25.751 Y78.401 E17.65408
G1 X26.495 Y77.802 E17.68585
G1 X27.287 Y77.268 E17.71762
G1 X28.12 Y76.802 E17.74936
G1 X28.989 Y76.407 E17.78111
G0 F6000 X29.356 Y76.693
G1 F1200 X30.246 Y76.397 E17.81231
G1 X31.158 Y76.179 E17.84349
G1 X32.085 Y76.038 E17.87468
G1 X32.956 Y75.979 E17.90372
G1 X33.277 Y75.97 E17.9144
G1 X33.585 Y75.966 E17.92464
G1 X46.922 Y75.966 E18.36823
G1 X47.075 Y75.967 E18.37332
G1 X48.803 Y75.991 E18.4308
G1 X48.981 Y75.995 E18.43672
G1 X49.42 Y76.008 E18.45133
G1 X51.979 Y76.012 E18.53644
G1 X53.935 Y75.969 E18.60152
G1 X54.176 Y75.966 E18.60953
G1 X113.143 Y75.966 E20.57078
G1 X113.301 Y75.967 E20.57604
G1 X115.042 Y75.992 E20.63395
G1 X115.196 Y75.995 E20.63907
G1 X115.66 Y76.008 E20.65451
G1 X118.219 Y76.011 E20.73962
G1 X120.161 Y75.969 E20.80423
G1 X120.398 Y75.966 E20.81211
G1 X179.365 Y75.966 E22.77336
G1 X179.518 Y75.967 E22.77845
G1 X181.246 Y75.991 E22.83593
G1 X181.424 Y75.995 E22.84185
G1 X181.863 Y76.008 E22.85646
G1 X184.422 Y76.012 E22.94157
G1 X186.378 Y75.969 E23.00665
G1 X186.619 Y75.966 E23.01466
G1 X201.038 Y75.966 E23.49424
G1 X201.196 Y75.967 E23.4995
G1 X201.894 Y75.977 E23.52271
G1 X202.83 Y76.031 E23.5539
G1 X203.758 Y76.163 E23.58507
G1 X204.672 Y76.375 E23.61628
G1 X205.564 Y76.664 E23.64747
G1 X206.429 Y77.027 E23.67867
G1 X207.259 Y77.463 E23.70985
G1 X208.05 Y77.968 E23.74106
G1 X208.794 Y78.539 E23.77226
G1 X209.487 Y79.171 E23.80345
G1 X210.124 Y79.859 E23.83464
G1 X210.699 Y80.6 E23.86583
G1 X211.21 Y81.386 E23.89701
G1 X211.652 Y82.214 E23.92823
G1 X212.021 Y83.076 E23.95942
G1 X212.316 Y83.966 E23.9906
G1 X212.534 Y84.878 E24.02179
G1 X212.674 Y85.806 E24.05301
G1 X212.732 Y86.667 E24.08171
G1 X212.741 Y86.987 E24.09236
G1 X212.745 Y87.296 E24.10263
G1 X212.745 Y149.259 E26.16353
G1 X212.744 Y149.395 E26.16806
G1 X212.735 Y150.122 E26.19224
G1 X212.684 Y151.059 E26.22345
G1 X212.552 Y151.987 E26.25462
G1 X212.343 Y152.901 E26.28581
G1 X212.056 Y153.794 E26.31701
G1 X211.694 Y154.66 E26.34822
G1 X211.26 Y155.491 E26.37941
G1 X210.756 Y156.282 E26.4106
G1 X210.187 Y157.027 E26.44178
G1 X209.556 Y157.722 E26.473
G1 X208.869 Y158.36 E26.50419
G1 X208.13 Y158.937 E26.53537
G1 X207.344 Y159.449 E26.56657
G1 X206.518 Y159.892 E26.59774
G1 X205.656 Y160.264 E26.62897
G1 X204.767 Y160.56 E26.66013
G1 X203.855 Y160.78 E26.69134
G1 X202.928 Y160.921 E26.72252
G1 X202.044 Y160.982 E26.752
G1 X201.723 Y160.991 E26.76268
G1 X201.415 Y160.995 E26.77292
G1 X188.452 Y160.995 E27.20407
G1 X188.296 Y160.994 E27.20926
G1 X187.591 Y160.984 E27.23271
G1 X187.131 Y160.968 E27.24802
G1 X184.594 Y160.826 E27.33253
G1 X182.055 Y160.754 E27.41702
G1 X179.568 Y160.754 E27.49973
G1 X176.965 Y160.828 E27.58635
G1 X175.682 Y160.892 E27.62907
G1 X174.372 Y160.968 E27.67271
G1 X174.044 Y160.982 E27.68363
G1 X173.724 Y160.991 E27.69428
G1 X173.415 Y160.995 E27.70456
G1 X123.421 Y160.995 E29.36737
G1 X123.265 Y160.994 E29.37256
G1 X122.56 Y160.984 E29.39601
G1 X122.1 Y160.968 E29.41132
G1 X119.563 Y160.826 E29.49583
G1 X117.024 Y160.754 E29.58031
G1 X114.537 Y160.754 E29.66303
G1 X111.934 Y160.828 E29.74964
G1 X110.651 Y160.892 E29.79236
G1 X109.341 Y160.968 E29.83601
G1 X109.013 Y160.982 E29.84693
G1 X108.693 Y160.991 E29.85758
G1 X108.384 Y160.995 E29.86785
G1 X58.391 Y160.995 E31.53063
G1 X58.235 Y160.994 E31.53582
G1 X57.53 Y160.984 E31.55927
G1 X57.07 Y160.968 E31.57458
G1 X54.533 Y160.826 E31.65909
G1 X51.994 Y160.754 E31.74357
G1 X49.507 Y160.754 E31.82629
G1 X46.904 Y160.828 E31.9129
G1 X45.621 Y160.892 E31.95563
G1 X44.311 Y160.968 E31.99927
G1 X43.983 Y160.982 E32.01019
G1 X43.663 Y160.991 E32.02084
G1 X43.354 Y160.995 E32.03111
G1 X33.962 Y160.995 E32.34349
G1 X33.82 Y160.994 E32.34822
G1 X33.122 Y160.985 E32.37143
G1 X32.186 Y160.933 E32.40261
G1 X31.257 Y160.801 E32.43382
G1 X30.343 Y160.591 E32.46501
G1 X29.45 Y160.304 E32.49621
G1 X28.585 Y159.941 E32.52741
G1 X27.754 Y159.507 E32.55859
G1 X26.963 Y159.003 E32.58979
G1 X26.218 Y158.433 E32.62099
G1 X25.524 Y157.802 E32.65219
G1 X24.887 Y157.115 E32.68335
G1 X24.31 Y156.375 E32.71456
G1 X23.798 Y155.589 E32.74576
G1 X23.355 Y154.762 E32.77696
G1 X22.984 Y153.901 E32.80814
G1 X22.688 Y153.011 E32.83934
G1 X22.469 Y152.099 E32.87053
G1 X22.328 Y151.172 E32.90172
G1 X22.268 Y150.283 E32.93136
G1 X22.259 Y149.95 E32.94244
G1 X22.255 Y149.653 E32.95232
G1 X22.255 Y87.64 E35.01488
G1 X22.256 Y87.491 E35.01983
G1 X22.265 Y86.826 E35.04195
G1 X22.318 Y85.89 E35.07313
G1 X22.45 Y84.961 E35.10434
G1 X22.661 Y84.047 E35.13554
G1 X22.949 Y83.155 E35.16672
G1 X23.312 Y82.29 E35.19792
G1 X23.747 Y81.459 E35.22912
G1 X24.251 Y80.669 E35.26028
G1 X24.821 Y79.924 E35.29148
G1 X25.453 Y79.23 E35.3227
G1 X26.141 Y78.593 E35.35389
G1 X26.881 Y78.017 E35.38508
G1 X27.667 Y77.505 E35.41628
G1 X28.494 Y77.063 E35.44746
G1 X29.356 Y76.693 E35.47866
G0 F6000 X28.866 Y77.33
G1 F1200 X29.72 Y76.985 E35.5093
G1 X30.6 Y76.715 E35.53991
G1 X31.5 Y76.523 E35.57052
G1 X32.414 Y76.409 E35.60116
G1 X32.967 Y76.379 E35.61958
G1 X33.288 Y76.37 E35.63026
G1 X33.585 Y76.366 E35.64014
G1 X46.922 Y76.366 E36.08373
G1 X47.069 Y76.367 E36.08862
G1 X48.797 Y76.391 E36.1461
G1 X48.969 Y76.395 E36.15182
G1 X49.408 Y76.408 E36.16643
G1 X51.988 Y76.412 E36.25224
G1 X53.944 Y76.369 E36.31731
G1 X54.176 Y76.366 E36.32503
G1 X113.143 Y76.366 E38.28628
G1 X113.295 Y76.367 E38.29133
G1 X115.036 Y76.392 E38.34924
G1 X115.185 Y76.395 E38.3542
G1 X115.649 Y76.408 E38.36964
G1 X118.183 Y76.411 E38.45392
G1 X120.169 Y76.368 E38.51999
G1 X120.398 Y76.366 E38.52761
G1 X179.365 Y76.366 E40.48886
G1 X179.512 Y76.367 E40.49375
G1 X181.24 Y76.391 E40.55123
G1 X181.412 Y76.395 E40.55695
G1 X181.851 Y76.408 E40.57156
G1 X184.431 Y76.412 E40.65737
G1 X186.387 Y76.369 E40.72244
G1 X186.619 Y76.366 E40.73016
G1 X201.038 Y76.366 E41.20974
G1 X201.19 Y76.367 E41.21479
G1 X201.888 Y76.377 E41.23801
G1 X202.807 Y76.43 E41.26863
G1 X203.718 Y76.563 E41.29925
G1 X204.614 Y76.774 E41.32986
G1 X205.488 Y77.062 E41.36047
G1 X206.335 Y77.425 E41.39112
G1 X207.146 Y77.86 E41.42173
G1 X207.916 Y78.364 E41.45234
G1 X208.64 Y78.933 E41.48296
G1 X209.312 Y79.563 E41.5136
G1 X209.927 Y80.248 E41.54422
G1 X210.48 Y80.984 E41.57484
G1 X210.967 Y81.765 E41.60545
G1 X211.384 Y82.586 E41.63608
G1 X211.729 Y83.44 E41.66671
G1 X211.998 Y84.32 E41.69732
G1 X212.19 Y85.221 E41.72796
G1 X212.303 Y86.134 E41.75856
G1 X212.332 Y86.678 E41.77668
G1 X212.341 Y86.998 E41.78732
G1 X212.345 Y87.296 E41.79724
G1 X212.345 Y149.259 E43.85813
G1 X212.344 Y149.39 E43.86249
G1 X212.335 Y150.117 E43.88667
G1 X212.284 Y151.036 E43.91729
G1 X212.153 Y151.948 E43.94793
G1 X211.943 Y152.844 E43.97854
G1 X211.657 Y153.719 E44.00916
G1 X211.296 Y154.566 E44.03978
G1 X210.862 Y155.378 E44.0704
G1 X210.36 Y156.15 E44.10103
G1 X209.792 Y156.875 E44.13166
G1 X209.164 Y157.548 E44.16228
G1 X208.48 Y158.164 E44.1929
G1 X207.745 Y158.718 E44.22351
G1 X206.965 Y159.207 E44.25413
G1 X206.145 Y159.626 E44.28476
G1 X205.292 Y159.972 E44.31537
G1 X204.412 Y160.243 E44.346
G1 X203.512 Y160.436 E44.37661
G1 X202.598 Y160.551 E44.40725
G1 X202.033 Y160.582 E44.42607
G1 X201.712 Y160.591 E44.43675
G1 X201.415 Y160.595 E44.44663
G1 X188.452 Y160.595 E44.87778
G1 X188.302 Y160.594 E44.88277
G1 X187.597 Y160.584 E44.90622
G1 X187.154 Y160.568 E44.92097
G1 X184.63 Y160.427 E45.00505
G1 X182.066 Y160.354 E45.09036
G1 X179.557 Y160.354 E45.17381
G1 X176.98 Y160.427 E45.25955
G1 X175.573 Y160.497 E45.30641
G1 X174.349 Y160.568 E45.34719
G1 X174.033 Y160.582 E45.35771
G1 X173.713 Y160.591 E45.36836
G1 X173.415 Y160.595 E45.37827
G1 X123.421 Y160.595 E47.04108
G1 X123.271 Y160.594 E47.04607
G1 X122.566 Y160.584 E47.06952
G1 X122.123 Y160.568 E47.08426
G1 X119.599 Y160.427 E47.16834
G1 X117.035 Y160.354 E47.25365
G1 X114.526 Y160.354 E47.3371
G1 X111.949 Y160.427 E47.42285
G1 X110.542 Y160.497 E47.4697
G1 X109.318 Y160.568 E47.51048
G1 X109.002 Y160.582 E47.521
G1 X108.682 Y160.591 E47.53165
G1 X108.384 Y160.595 E47.54156
G1 X58.391 Y160.595 E49.20434
G1 X58.241 Y160.594 E49.20933
G1 X57.536 Y160.584 E49.23278
G1 X57.093 Y160.568 E49.24752
G1 X54.569 Y160.427 E49.3316
G1 X52.005 Y160.354 E49.41691
G1 X49.496 Y160.354 E49.50036
G1 X46.919 Y160.427 E49.58611
G1 X45.512 Y160.497 E49.63296
G1 X44.288 Y160.568 E49.67374
G1 X43.972 Y160.582 E49.68426
G1 X43.652 Y160.591 E49.69491
G1 X43.354 Y160.595 E49.70482
G1 X33.962 Y160.595 E50.0172
G1 X33.825 Y160.594 E50.02176
G1 X33.127 Y160.585 E50.04498
G1 X32.208 Y160.533 E50.07559
G1 X31.297 Y160.402 E50.1062
G1 X30.401 Y160.192 E50.13681
G1 X29.526 Y159.905 E50.16744
G1 X28.679 Y159.543 E50.19808
G1 X27.867 Y159.109 E50.2287
G1 X27.096 Y158.607 E50.2593
G1 X26.371 Y158.039 E50.28993
G1 X25.698 Y157.41 E50.32057
G1 X25.083 Y156.726 E50.35116
G1 X24.529 Y155.991 E50.38178
G1 X24.041 Y155.21 E50.41241
G1 X23.622 Y154.39 E50.44303
G1 X23.276 Y153.537 E50.47365
G1 X23.006 Y152.657 E50.50427
G1 X22.813 Y151.756 E50.53491
G1 X22.699 Y150.843 E50.56552
G1 X22.668 Y150.272 E50.58453
G1 X22.659 Y149.939 E50.59561
G1 X22.655 Y149.653 E50.60513
G1 X22.655 Y87.64 E52.66769
G1 X22.656 Y87.497 E52.67244
G1 X22.665 Y86.832 E52.69456
G1 X22.717 Y85.912 E52.72521
G1 X22.849 Y85.001 E52.75583
G1 X23.06 Y84.105 E52.78645
G1 X23.347 Y83.23 E52.81707
G1 X23.71 Y82.384 E52.84769
G1 X24.144 Y81.572 E52.87832
G1 X24.647 Y80.801 E52.90893
G1 X25.216 Y80.077 E52.93956
G1 X25.844 Y79.405 E52.97015
G1 X26.529 Y78.789 E53.00079
G1 X27.265 Y78.236 E53.03141
G1 X28.046 Y77.748 E53.06204
G1 X28.866 Y77.33 E53.09265
G0 F6000 X29.237 Y77.604
G1 F1200 X30.082 Y77.284 E53.12271
G1 X30.951 Y77.041 E53.15272
G1 X31.839 Y76.875 E53.18277
G1 X32.978 Y76.779 E53.22078
G1 X33.299 Y76.77 E53.23146
G1 X33.585 Y76.766 E53.24098
G1 X46.922 Y76.766 E53.68457
G1 X47.064 Y76.767 E53.68929
G1 X48.792 Y76.791 E53.74677
G1 X48.957 Y76.795 E53.75226
G1 X49.395 Y76.808 E53.76683
G1 X51.953 Y76.812 E53.85191
G1 X53.953 Y76.768 E53.91845
G1 X54.176 Y76.766 E53.92587
G1 X113.143 Y76.766 E55.88712
G1 X113.289 Y76.767 E55.89197
G1 X115.03 Y76.792 E55.94989
G1 X115.173 Y76.795 E55.95464
G1 X115.636 Y76.808 E55.97005
G1 X118.191 Y76.811 E56.05503
G1 X120.178 Y76.768 E56.12113
G1 X120.398 Y76.766 E56.12845
G1 X179.365 Y76.766 E58.0897
G1 X179.507 Y76.767 E58.09442
G1 X181.235 Y76.791 E58.1519
G1 X181.4 Y76.795 E58.15739
G1 X181.838 Y76.808 E58.17197
G1 X184.396 Y76.812 E58.25704
G1 X186.396 Y76.768 E58.32358
G1 X186.619 Y76.766 E58.331
G1 X201.038 Y76.766 E58.81058
G1 X201.184 Y76.767 E58.81543
G1 X201.882 Y76.777 E58.83865
G1 X202.784 Y76.83 E58.8687
G1 X203.677 Y76.962 E58.89873
G1 X204.555 Y77.173 E58.92876
G1 X205.411 Y77.461 E58.9588
G1 X206.238 Y77.823 E58.98883
G1 X207.03 Y78.258 E59.01888
G1 X207.781 Y78.76 E59.04892
G1 X208.484 Y79.327 E59.07896
G1 X209.134 Y79.954 E59.109
