;FLAVOR:Marlin
;TIME:12396
;Filament used: 9.30749m
;Layer height: 0.2
;MINX:8.326
;MINY:68.439
;MINZ:0.2
;MAXX:226.675
;MAXY:165.995
;MAXZ:10.6
;Generated with Cura_SteamEngine 4.1.0
M140 S60
M105
M190 S60
M104 S210
M105
M109 S210
M82 ;absolute extrusion mode
; Ender 3 Custom Start G-code
G28 ; Home all axes
M420 S1
G92 E0 ; Reset Extruder
G1 Z2.0 F3000 ; Move Z Axis up little to prevent scratching of Heat Bed
G1 X0.1 Y20 Z0.3 F5000.0 ; Move to start position
G1 X0.1 Y200.0 Z0.3 F1500.0 E15 ; Draw the first line
G1 X0.4 Y200.0 Z0.3 F5000.0 ; Move to side a little
G1 X0.4 Y20 Z0.3 F1500.0 E30 ; Draw the second line
G92 E0 ; Reset Extruder
G1 Z2.0 F3000 ; Move Z Axis up little to prevent scratching of Heat Bed
G92 E0
G92 E0
G1 F3600 E-6
;LAYER_COUNT:53
;LAYER:0
M107
M204 S500
M205 X10 Y10
G0 F3600 X14.782 Y68.89 Z0.2
;TYPE:SKIRT
G1 F3600 E0
G1 F1800 X15.558 Y68.747 E0.02362
G1 X16.563 Y68.681 E0.05377
G1 X33.93 Y68.659 E0.57363
G1 X34.719 Y68.698 E0.59728
G1 X35.5 Y68.817 E0.62093
G1 X35.789 Y68.891 E0.62986
G1 X36.869 Y68.89 E0.66219
G1 X36.894 Y68.89 E0.66294
G1 X41.924 Y68.9 E0.81351
G1 X144.513 Y68.9 E3.88442
G1 X193.069 Y68.901 E5.3379
G1 X198.102 Y68.889 E5.48856
G1 X198.134 Y68.889 E5.48952
G1 X201.285 Y68.894 E5.58384
G1 X201.399 Y68.862 E5.58738
G1 X202.176 Y68.723 E5.61101
G1 X203.169 Y68.661 E5.64079
G1 X210.669 Y68.673 E5.8653
G1 X210.795 Y68.637 E5.86922
G1 X211.573 Y68.5 E5.89287
G1 X212.519 Y68.44 E5.92124
G1 X212.927 Y68.439 E5.93346
G1 X212.956 Y68.439 E5.93433
G1 X218.29 Y68.446 E6.09399
G1 X219.079 Y68.487 E6.11764
G1 X220.164 Y68.677 E6.15062
G1 X220.389 Y68.733 E6.15756
G1 X221.145 Y68.962 E6.1812
G1 X221.873 Y69.267 E6.20483
G1 X222.302 Y69.489 E6.21929
G1 X222.424 Y69.557 E6.22347
G1 X223.094 Y69.976 E6.24712
G1 X223.718 Y70.46 E6.27076
G1 X224.289 Y71.005 E6.29439
G1 X224.802 Y71.605 E6.31802
G1 X225.253 Y72.254 E6.34168
G1 X225.635 Y72.945 E6.36531
G1 X225.945 Y73.671 E6.38895
G1 X226.002 Y73.852 E6.39463
G1 X226.089 Y74.049 E6.40107
G1 X226.334 Y74.799 E6.42469
G1 X226.503 Y75.571 E6.44835
G1 X226.598 Y76.461 E6.47514
G1 X226.626 Y77.026 E6.49207
G1 X226.635 Y77.335 E6.50133
G1 X226.638 Y77.352 E6.50184
G1 X226.675 Y78.141 E6.52549
G1 X226.652 Y78.711 E6.54256
G1 X226.625 Y79.06 E6.55304
G1 X226.524 Y79.843 E6.57667
G1 X226.451 Y80.156 E6.5863
G1 X226.459 Y83.572 E6.68855
G1 X226.459 Y157.693 E8.9073
G1 X226.451 Y158.052 E8.91805
G1 X226.433 Y158.443 E8.92976
G1 X226.357 Y159.229 E8.9534
G1 X226.201 Y160.003 E8.97704
G1 X225.968 Y160.758 E9.00069
G1 X225.661 Y161.485 E9.02431
G1 X225.281 Y162.177 E9.04794
G1 X224.833 Y162.827 E9.07157
G1 X224.322 Y163.429 E9.09521
G1 X224.034 Y163.72 E9.10747
G1 X223.918 Y163.831 E9.11227
G1 X223.32 Y164.347 E9.13592
G1 X222.674 Y164.8 E9.15953
G1 X221.984 Y165.186 E9.1832
G1 X221.26 Y165.5 E9.20682
G1 X220.507 Y165.739 E9.23047
G1 X219.734 Y165.901 E9.25411
G1 X218.949 Y165.983 E9.27774
G1 X218.525 Y165.995 E9.29044
G1 X16.479 Y165.995 E15.33851
G1 X15.69 Y165.955 E15.36216
G1 X14.91 Y165.836 E15.38577
G1 X14.145 Y165.638 E15.40943
G1 X13.405 Y165.364 E15.43305
G1 X12.696 Y165.016 E15.45669
G1 X12.025 Y164.598 E15.48036
G1 X11.401 Y164.115 E15.50398
G1 X10.987 Y163.734 E15.52082
G1 X10.87 Y163.618 E15.52575
G1 X10.338 Y163.034 E15.5494
G1 X9.868 Y162.4 E15.57302
G1 X9.465 Y161.721 E15.59666
G1 X9.132 Y161.005 E15.6203
G1 X8.873 Y160.259 E15.64393
G1 X8.691 Y159.491 E15.66756
G1 X8.587 Y158.708 E15.6912
G1 X8.562 Y158.121 E15.70879
G1 X8.541 Y154.262 E15.82431
G1 X8.541 Y80.115 E18.04383
G1 X8.542 Y80.049 E18.04581
G1 X8.464 Y79.683 E18.05701
G1 X8.409 Y79.273 E18.06939
G1 X8.371 Y78.919 E18.08005
G1 X8.326 Y78.13 E18.10371
G1 X8.349 Y77.626 E18.11881
G1 X8.349 Y77.118 E18.13402
G1 X8.368 Y76.623 E18.14885
G1 X8.438 Y75.836 E18.1725
G1 X8.587 Y75.061 E18.19612
G1 X8.814 Y74.304 E18.21978
G1 X8.998 Y73.837 E18.2348
G1 X9.06 Y73.693 E18.2395
G1 X9.408 Y72.985 E18.26311
G1 X9.827 Y72.315 E18.28677
G1 X10.116 Y71.927 E18.30125
G1 X10.251 Y71.757 E18.30775
G1 X10.773 Y71.165 E18.33137
G1 X11.352 Y70.628 E18.35501
G1 X11.982 Y70.152 E18.37865
G1 X12.378 Y69.9 E18.3927
G1 X12.592 Y69.773 E18.40015
G1 X13.291 Y69.405 E18.42379
G1 X14.023 Y69.11 E18.44742
G1 X14.782 Y68.89 E18.47107
G0 F3600 X14.932 Y69.265
G1 F1800 X15.69 Y69.134 E18.4941
G1 X16.564 Y69.081 E18.52031
G1 X33.931 Y69.059 E19.04018
G1 X34.699 Y69.098 E19.0632
G1 X35.459 Y69.217 E19.08622
G1 X35.741 Y69.291 E19.09495
G1 X36.87 Y69.29 E19.12875
G1 X36.893 Y69.29 E19.12943
G1 X41.923 Y69.3 E19.28
G1 X144.513 Y69.3 E22.35094
G1 X193.07 Y69.301 E23.80446
G1 X198.103 Y69.289 E23.95511
G1 X198.134 Y69.289 E23.95604
G1 X201.347 Y69.294 E24.05222
G1 X201.567 Y69.234 E24.05905
G1 X202.326 Y69.108 E24.08208
G1 X203.168 Y69.061 E24.10732
G1 X210.733 Y69.073 E24.33377
G1 X210.963 Y69.01 E24.34091
G1 X211.722 Y68.885 E24.36394
G1 X212.52 Y68.84 E24.38786
G1 X212.928 Y68.839 E24.40008
G1 X212.956 Y68.839 E24.40091
G1 X218.29 Y68.846 E24.56058
G1 X219.058 Y68.887 E24.58361
G1 X220.067 Y69.065 E24.61428
G1 X220.292 Y69.121 E24.62122
G1 X221.028 Y69.345 E24.64425
G1 X221.736 Y69.645 E24.66726
G1 X222.108 Y69.838 E24.67981
G1 X222.23 Y69.906 E24.68399
G1 X222.881 Y70.315 E24.707
G1 X223.487 Y70.789 E24.73003
G1 X224.04 Y71.324 E24.75306
G1 X224.534 Y71.913 E24.77608
G1 X224.965 Y72.55 E24.7991
G1 X225.327 Y73.229 E24.82213
G1 X225.617 Y73.941 E24.84515
G1 X225.644 Y74.033 E24.84802
G1 X225.73 Y74.23 E24.85445
G1 X225.964 Y74.962 E24.87745
G1 X226.121 Y75.715 E24.90048
G1 X226.199 Y76.481 E24.92353
G1 X226.227 Y77.046 E24.94046
G1 X226.236 Y77.355 E24.94971
G1 X226.236 Y77.371 E24.95019
G1 X226.242 Y77.411 E24.9514
G1 X226.275 Y78.179 E24.97441
G1 X226.253 Y78.68 E24.98943
G1 X226.226 Y79.029 E24.9999
G1 X226.127 Y79.792 E25.02294
G1 X226.051 Y80.111 E25.03275
G1 X226.059 Y83.573 E25.13638
G1 X226.059 Y157.693 E27.3551
G1 X226.051 Y158.033 E27.36528
G1 X226.033 Y158.424 E27.377
G1 X225.958 Y159.19 E27.40004
G1 X225.804 Y159.943 E27.42304
G1 X225.572 Y160.677 E27.44609
G1 X225.265 Y161.382 E27.46911
G1 X224.887 Y162.052 E27.49213
G1 X224.442 Y162.679 E27.51515
G1 X223.757 Y163.431 E27.5456
G1 X223.641 Y163.542 E27.5504
G1 X223.058 Y164.044 E27.57343
G1 X222.427 Y164.483 E27.59644
G1 X221.753 Y164.854 E27.61947
G1 X221.045 Y165.153 E27.64248
G1 X220.309 Y165.377 E27.66551
G1 X219.554 Y165.523 E27.68853
G1 X218.525 Y165.595 E27.71941
G1 X16.479 Y165.595 E33.76747
G1 X15.711 Y165.555 E33.7905
G1 X14.951 Y165.436 E33.81352
G1 X14.208 Y165.238 E33.83654
G1 X13.489 Y164.964 E33.85957
G1 X12.803 Y164.617 E33.88258
G1 X12.156 Y164.201 E33.90561
G1 X11.556 Y163.72 E33.92863
G1 X11.269 Y163.45 E33.94042
G1 X11.152 Y163.334 E33.94536
G1 X10.635 Y162.765 E33.96837
G1 X10.179 Y162.145 E33.99141
G1 X9.79 Y161.481 E34.01444
G1 X9.473 Y160.781 E34.03745
G1 X9.23 Y160.051 E34.06048
G1 X9.063 Y159.3 E34.08351
G1 X8.976 Y158.536 E34.10652
G1 X8.962 Y158.119 E34.11901
G1 X8.941 Y154.26 E34.23453
G1 X8.941 Y80.115 E36.454
G1 X8.942 Y80.044 E36.45612
G1 X8.931 Y80.002 E36.45742
G1 X8.806 Y79.23 E36.48083
G1 X8.768 Y78.876 E36.49149
G1 X8.726 Y78.108 E36.51451
G1 X8.748 Y77.653 E36.52815
G1 X8.746 Y77.622 E36.52908
G1 X8.748 Y77.133 E36.54372
G1 X8.767 Y76.638 E36.55855
G1 X8.837 Y75.872 E36.58157
G1 X8.985 Y75.117 E36.6046
G1 X9.211 Y74.382 E36.62762
G1 X9.365 Y73.996 E36.64006
G1 X9.427 Y73.852 E36.64475
G1 X9.768 Y73.162 E36.66779
G1 X10.178 Y72.511 E36.69082
G1 X10.429 Y72.176 E36.70335
G1 X10.564 Y72.006 E36.70985
G1 X11.073 Y71.429 E36.73288
G1 X11.639 Y70.909 E36.75589
G1 X12.256 Y70.45 E36.77891
G1 X12.582 Y70.244 E36.79045
G1 X12.796 Y70.117 E36.7979
G1 X13.477 Y69.76 E36.82092
G1 X14.192 Y69.475 E36.84396
G1 X14.932 Y69.265 E36.86698
G0 F3600 X15.081 Y69.642
G1 F1800 X15.819 Y69.522 E36.88937
G1 X16.564 Y69.481 E36.9117
G1 X33.931 Y69.459 E37.43157
G1 X34.678 Y69.498 E37.45396
G1 X35.417 Y69.617 E37.47636
G1 X35.691 Y69.691 E37.48486
G1 X36.87 Y69.69 E37.52015
G1 X36.892 Y69.69 E37.52081
G1 X41.922 Y69.7 E37.67138
G1 X144.513 Y69.7 E40.74235
G1 X193.071 Y69.701 E42.19589
G1 X198.104 Y69.689 E42.34655
G1 X198.133 Y69.689 E42.34742
G1 X201.402 Y69.695 E42.44527
G1 X201.733 Y69.607 E42.45553
G1 X202.473 Y69.495 E42.47793
G1 X203.168 Y69.461 E42.49876
G1 X210.786 Y69.473 E42.7268
G1 X211.128 Y69.383 E42.73738
G1 X211.868 Y69.272 E42.75978
G1 X212.521 Y69.24 E42.77935
G1 X212.929 Y69.239 E42.79157
G1 X212.955 Y69.239 E42.79234
G1 X218.289 Y69.246 E42.95201
G1 X219.036 Y69.287 E42.97441
G1 X219.971 Y69.453 E43.00283
G1 X220.196 Y69.509 E43.00977
G1 X220.911 Y69.728 E43.03216
G1 X221.913 Y70.188 E43.06516
G1 X222.035 Y70.256 E43.06934
G1 X222.668 Y70.654 E43.09173
G1 X223.255 Y71.118 E43.11412
G1 X223.789 Y71.642 E43.13652
G1 X224.264 Y72.22 E43.15891
G1 X224.675 Y72.845 E43.18131
G1 X225.016 Y73.511 E43.2037
G1 X225.285 Y74.209 E43.22609
G1 X225.288 Y74.22 E43.22644
G1 X225.37 Y74.409 E43.2326
G1 X225.593 Y75.124 E43.25502
G1 X225.738 Y75.858 E43.27742
G1 X225.799 Y76.501 E43.29675
G1 X225.827 Y77.066 E43.31369
G1 X225.836 Y77.358 E43.32243
G1 X225.836 Y77.403 E43.32378
G1 X225.846 Y77.469 E43.32578
G1 X225.874 Y78.216 E43.34815
G1 X225.854 Y78.649 E43.36113
G1 X225.827 Y78.998 E43.37161
G1 X225.73 Y79.74 E43.39401
G1 X225.651 Y80.067 E43.40408
G1 X225.659 Y83.574 E43.50906
G1 X225.659 Y157.693 E45.72774
G1 X225.652 Y158.015 E45.73738
G1 X225.634 Y158.406 E45.7491
G1 X225.559 Y159.15 E45.77149
G1 X225.406 Y159.882 E45.79387
G1 X225.175 Y160.594 E45.81628
G1 X224.87 Y161.277 E45.83867
G1 X224.494 Y161.924 E45.86107
G1 X224.051 Y162.526 E45.88344
G1 X223.481 Y163.142 E45.90856
G1 X223.365 Y163.253 E45.91337
G1 X222.797 Y163.74 E45.93577
G1 X222.181 Y164.164 E45.95815
G1 X221.523 Y164.52 E45.98055
G1 X220.831 Y164.804 E46.00294
G1 X220.113 Y165.013 E46.02532
G1 X219.376 Y165.143 E46.04772
G1 X218.525 Y165.195 E46.07325
G1 X16.479 Y165.195 E52.12132
G1 X15.732 Y165.155 E52.14371
G1 X14.994 Y165.036 E52.16609
G1 X14.272 Y164.838 E52.1885
G1 X13.576 Y164.565 E52.21088
G1 X12.913 Y164.218 E52.23328
G1 X12.29 Y163.803 E52.25568
G1 X11.551 Y163.166 E52.28489
G1 X11.434 Y163.05 E52.28982
G1 X10.931 Y162.496 E52.31222
G1 X10.491 Y161.891 E52.33461
G1 X10.118 Y161.243 E52.35699
G1 X9.816 Y160.558 E52.3794
G1 X9.589 Y159.845 E52.4018
G1 X9.439 Y159.113 E52.42417
G1 X9.362 Y158.117 E52.45407
G1 X9.341 Y154.258 E52.56959
G1 X9.341 Y80.115 E54.789
G1 X9.344 Y79.929 E54.79456
G1 X9.204 Y79.187 E54.81717
G1 X9.166 Y78.833 E54.82782
G1 X9.126 Y78.086 E54.85022
G1 X9.151 Y77.625 E54.86404
G1 X9.144 Y77.529 E54.86692
G1 X9.148 Y77.149 E54.87829
G1 X9.167 Y76.654 E54.89312
G1 X9.236 Y75.909 E54.91552
G1 X9.383 Y75.175 E54.93793
G1 X9.733 Y74.154 E54.97024
G1 X9.795 Y74.01 E54.97493
G1 X10.127 Y73.339 E54.99734
G1 X10.742 Y72.425 E55.03031
G1 X10.877 Y72.255 E55.03681
G1 X11.373 Y71.695 E55.05921
G1 X11.926 Y71.191 E55.0816
G1 X12.787 Y70.588 E55.11307
G1 X13.001 Y70.461 E55.12052
G1 X13.663 Y70.114 E55.14289
G1 X14.359 Y69.84 E55.16528
G1 X15.081 Y69.642 E55.18769
G0 F3600 X15.228 Y70.02
G1 F1800 X15.946 Y69.911 E55.20943
G1 X16.565 Y69.881 E55.22798
G1 X33.932 Y69.859 E55.74785
G1 X34.657 Y69.898 E55.76958
G1 X35.374 Y70.017 E55.79134
G1 X35.639 Y70.091 E55.79957
G1 X36.87 Y70.09 E55.83642
G1 X36.891 Y70.09 E55.83705
G1 X41.921 Y70.1 E55.98762
G1 X144.513 Y70.1 E59.05862
G1 X193.072 Y70.101 E60.51219
G1 X198.105 Y70.089 E60.66285
G1 X198.132 Y70.089 E60.66366
G1 X201.452 Y70.095 E60.76304
G1 X201.897 Y69.982 E60.77679
G1 X202.617 Y69.883 E60.79854
G1 X203.167 Y69.861 E60.81502
G1 X210.836 Y69.873 E61.04458
G1 X211.291 Y69.759 E61.05862
G1 X212.011 Y69.661 E61.08037
G1 X212.522 Y69.64 E61.09568
G1 X212.93 Y69.639 E61.1079
G1 X212.955 Y69.639 E61.10865
G1 X218.289 Y69.646 E61.26831
G1 X219.014 Y69.687 E61.29005
G1 X219.874 Y69.841 E61.3162
G1 X220.099 Y69.897 E61.32314
G1 X220.793 Y70.111 E61.34488
G1 X221.718 Y70.537 E61.37537
G1 X221.84 Y70.605 E61.37955
G1 X222.454 Y70.993 E61.40129
G1 X223.022 Y71.446 E61.42304
G1 X223.536 Y71.959 E61.44478
G1 X223.991 Y72.525 E61.46652
G1 X224.381 Y73.138 E61.48826
G1 X224.702 Y73.79 E61.51002
G1 X224.889 Y74.308 E61.5265
G1 X225.009 Y74.588 E61.53562
G1 X225.22 Y75.283 E61.55736
G1 X225.353 Y75.998 E61.57913
G1 X225.4 Y76.52 E61.59482
G1 X225.428 Y77.085 E61.61176
G1 X225.436 Y77.362 E61.62005
G1 X225.437 Y77.44 E61.62239
G1 X225.449 Y77.526 E61.62499
G1 X225.473 Y78.252 E61.64673
G1 X225.455 Y78.618 E61.6577
G1 X225.428 Y78.967 E61.66818
G1 X225.333 Y79.687 E61.68992
G1 X225.251 Y80.018 E61.70012
G1 X225.259 Y83.575 E61.8066
G1 X225.259 Y157.693 E64.02526
G1 X225.252 Y157.997 E64.03436
G1 X225.234 Y158.388 E64.04608
G1 X225.161 Y159.11 E64.0678
G1 X225.008 Y159.82 E64.08954
G1 X224.779 Y160.51 E64.1113
G1 X224.475 Y161.169 E64.13303
G1 X224.101 Y161.792 E64.15478
G1 X223.661 Y162.369 E64.1765
G1 X223.204 Y162.853 E64.19643
G1 X223.088 Y162.964 E64.20123
G1 X222.536 Y163.436 E64.22297
G1 X221.936 Y163.845 E64.24471
G1 X221.295 Y164.186 E64.26644
G1 X220.62 Y164.454 E64.28818
G1 X219.919 Y164.646 E64.30994
G1 X219.202 Y164.76 E64.33167
G1 X218.525 Y164.795 E64.35196
G1 X16.479 Y164.795 E70.40003
G1 X15.754 Y164.755 E70.42177
G1 X15.037 Y164.636 E70.44353
G1 X14.338 Y164.438 E70.46527
G1 X13.665 Y164.165 E70.48701
G1 X13.026 Y163.82 E70.50875
G1 X12.429 Y163.406 E70.5305
G1 X11.832 Y162.882 E70.55428
G1 X11.715 Y162.766 E70.55921
G1 X11.228 Y162.227 E70.58095
G1 X10.804 Y161.638 E70.60268
G1 X10.446 Y161.005 E70.62445
G1 X10.16 Y160.337 E70.6462
G1 X9.95 Y159.642 E70.66793
G1 X9.817 Y158.928 E70.68967
G1 X9.762 Y158.115 E70.71406
G1 X9.741 Y154.256 E70.82958
G1 X9.741 Y80.115 E73.04893
G1 X9.744 Y79.946 E73.05399
G1 X9.713 Y79.832 E73.05752
G1 X9.602 Y79.144 E73.07838
G1 X9.564 Y78.79 E73.08904
G1 X9.526 Y78.065 E73.11077
G1 X9.56 Y77.482 E73.12825
G1 X9.548 Y77.164 E73.13778
G1 X9.567 Y76.669 E73.15261
G1 X9.635 Y75.946 E73.17435
G1 X9.781 Y75.234 E73.1961
G1 X10.1 Y74.312 E73.22531
G1 X10.162 Y74.168 E73.23
G1 X10.486 Y73.518 E73.25174
G1 X11.055 Y72.674 E73.28221
G1 X11.19 Y72.504 E73.28871
G1 X11.673 Y71.96 E73.31048
G1 X12.212 Y71.474 E73.33221
G1 X12.991 Y70.932 E73.36062
G1 X13.205 Y70.805 E73.36807
G1 X13.849 Y70.469 E73.38981
G1 X14.526 Y70.207 E73.41154
G1 X15.228 Y70.02 E73.43329
G0 F3600 X15.373 Y70.398
G1 F1800 X16.07 Y70.301 E73.45435
G1 X16.565 Y70.281 E73.46918
G1 X33.932 Y70.259 E73.98905
G1 X34.635 Y70.298 E74.01012
G1 X35.329 Y70.417 E74.0312
G1 X35.586 Y70.491 E74.03921
G1 X36.871 Y70.49 E74.07767
G1 X36.89 Y70.49 E74.07824
G1 X41.92 Y70.5 E74.22881
G1 X144.513 Y70.5 E77.29984
G1 X193.073 Y70.501 E78.75344
G1 X198.106 Y70.489 E78.9041
G1 X198.132 Y70.489 E78.90488
G1 X201.492 Y70.495 E79.00546
G1 X202.059 Y70.359 E79.02291
G1 X202.758 Y70.274 E79.04399
G1 X203.167 Y70.261 E79.05624
G1 X210.873 Y70.273 E79.28691
G1 X211.452 Y70.136 E79.30472
G1 X212.151 Y70.052 E79.3258
G1 X212.523 Y70.04 E79.33694
G1 X212.931 Y70.039 E79.34915
G1 X212.954 Y70.039 E79.34984
G1 X218.288 Y70.046 E79.50951
G1 X218.991 Y70.087 E79.53059
G1 X219.777 Y70.23 E79.5545
G1 X220.002 Y70.286 E79.56144
G1 X220.675 Y70.494 E79.58253
G1 X221.524 Y70.886 E79.61052
G1 X221.646 Y70.954 E79.6147
G1 X222.24 Y71.332 E79.63578
G1 X222.788 Y71.774 E79.65685
G1 X223.282 Y72.275 E79.67791
G1 X223.716 Y72.829 E79.69898
G1 X224.085 Y73.429 E79.72007
G1 X224.383 Y74.066 E79.74112
G1 X224.499 Y74.411 E79.75201
G1 X224.648 Y74.766 E79.76354
G1 X224.847 Y75.442 E79.78463
G1 X224.967 Y76.135 E79.80568
G1 X225 Y76.54 E79.81785
G1 X225.028 Y77.105 E79.83478
G1 X225.036 Y77.365 E79.84257
G1 X225.037 Y77.47 E79.84571
G1 X225.053 Y77.583 E79.84913
G1 X225.057 Y78.587 E79.87918
G1 X225.03 Y78.936 E79.88966
G1 X224.935 Y79.634 E79.91075
G1 X224.851 Y79.968 E79.92106
G1 X224.859 Y83.576 E80.02906
G1 X224.859 Y157.693 E82.24768
G1 X224.852 Y157.978 E82.25622
G1 X224.834 Y158.369 E82.26794
G1 X224.762 Y159.069 E82.289
G1 X224.611 Y159.757 E82.31008
G1 X224.383 Y160.423 E82.33116
G1 X224.081 Y161.059 E82.35223
G1 X223.708 Y161.656 E82.3733
G1 X223.271 Y162.208 E82.39438
G1 X222.927 Y162.564 E82.4092
G1 X222.811 Y162.675 E82.414
