;FLAVOR:Marlin
;TIME:10191
;Filament used: 6.74193m
;Layer height: 0.2
;MINX:21.93
;MINY:74.385
;MINZ:0.2
;MAXX:213.07
;MAXY:159.335
;MAXZ:5.2
;Generated with Cura_SteamEngine 4.1.0
M140 S70
M105
M190 S70
M104 S200
M105
M109 S200
M82 ;absolute extrusion mode
; Ender 3 Custom Start G-code
G28 ; Home all axes
M420 S1
G92 E0 ; Reset Extruder
G1 Z2.0 F3000 ; Move Z Axis up little to prevent scratching of Heat Bed
G1 X0.1 Y20 Z0.3 F5000.0 ; Move to start position
G1 X0.1 Y200.0 Z0.3 F1500.0 E15 ; Draw the first line
G1 X0.4 Y200.0 Z0.3 F5000.0 ; Move to side a little
G1 X0.4 Y20 Z0.3 F1500.0 E30 ; Draw the second line
G92 E0 ; Reset Extruder
G1 Z2.0 F3000 ; Move Z Axis up little to prevent scratching of Heat Bed
G92 E0
G92 E0
G1 F3600 E-10
;LAYER_COUNT:26
;LAYER:0
M107
M204 S500
M205 X10 Y10
G0 F3600 X27.015 Y74.873 Z0.2
;TYPE:SKIRT
G1 F3600 E0
G1 F1800 X27.768 Y74.636 E0.02494
G1 X28.542 Y74.476 E0.04992
G1 X29.327 Y74.395 E0.07485
G1 X29.73 Y74.385 E0.08759
G1 X188.656 Y74.386 E5.10919
G1 X205.27 Y74.385 E5.63415
G1 X206.059 Y74.425 E5.65911
G1 X206.839 Y74.544 E5.68404
G1 X207.604 Y74.742 E5.70901
G1 X208.344 Y75.016 E5.73394
G1 X209.053 Y75.364 E5.7589
G1 X209.724 Y75.782 E5.78388
G1 X210.348 Y76.265 E5.80881
G1 X210.921 Y76.809 E5.83378
G1 X211.436 Y77.407 E5.85871
G1 X211.887 Y78.055 E5.88366
G1 X212.271 Y78.746 E5.90864
G1 X212.583 Y79.471 E5.93358
G1 X212.82 Y80.224 E5.95852
G1 X212.979 Y80.998 E5.98349
G1 X213.06 Y81.783 E6.00842
G1 X213.07 Y82.185 E6.02113
G1 X213.069 Y145.034 E8.00698
G1 X213.07 Y151.534 E8.21236
G1 X213.03 Y152.322 E8.23729
G1 X212.911 Y153.103 E8.26225
G1 X212.713 Y153.868 E8.28722
G1 X212.439 Y154.608 E8.31215
G1 X212.092 Y155.317 E8.33709
G1 X211.674 Y155.988 E8.36207
G1 X211.191 Y156.612 E8.387
G1 X210.647 Y157.185 E8.41197
G1 X210.049 Y157.7 E8.43691
G1 X209.401 Y158.151 E8.46185
G1 X208.711 Y158.535 E8.4868
G1 X207.985 Y158.847 E8.51177
G1 X207.232 Y159.084 E8.53671
G1 X206.458 Y159.244 E8.56169
G1 X205.673 Y159.325 E8.58662
G1 X205.27 Y159.335 E8.59936
G1 X46.344 Y159.334 E13.62097
G1 X29.73 Y159.335 E14.14592
G1 X28.941 Y159.295 E14.17088
G1 X28.161 Y159.176 E14.19581
G1 X27.396 Y158.978 E14.22078
G1 X26.656 Y158.704 E14.24572
G1 X25.947 Y158.356 E14.27067
G1 X25.276 Y157.938 E14.29565
G1 X24.652 Y157.455 E14.32058
G1 X24.079 Y156.911 E14.34555
G1 X23.564 Y156.313 E14.37048
G1 X23.113 Y155.665 E14.39543
G1 X22.729 Y154.974 E14.42041
G1 X22.417 Y154.249 E14.44535
G1 X22.18 Y153.496 E14.47029
G1 X22.021 Y152.722 E14.49526
G1 X21.94 Y151.937 E14.52019
G1 X21.93 Y151.535 E14.5329
G1 X21.931 Y88.686 E16.51875
G1 X21.93 Y82.186 E16.72413
G1 X21.97 Y81.398 E16.74906
G1 X22.089 Y80.617 E16.77402
G1 X22.287 Y79.852 E16.79899
G1 X22.561 Y79.112 E16.82392
G1 X22.908 Y78.403 E16.84886
G1 X23.326 Y77.732 E16.87384
G1 X23.809 Y77.108 E16.89878
G1 X24.353 Y76.535 E16.92374
G1 X24.951 Y76.02 E16.94868
G1 X25.599 Y75.569 E16.97362
G1 X26.289 Y75.185 E16.99857
G1 X27.015 Y74.873 E17.02354
G0 F3600 X27.38 Y75.168
G1 F1800 X28.121 Y74.962 E17.04784
G1 X28.88 Y74.834 E17.07216
G1 X29.73 Y74.785 E17.09907
G1 X188.656 Y74.786 E22.12067
G1 X205.27 Y74.785 E22.64563
G1 X206.038 Y74.825 E22.66993
G1 X206.798 Y74.944 E22.69423
G1 X207.541 Y75.142 E22.71853
G1 X208.26 Y75.416 E22.74284
G1 X208.947 Y75.763 E22.76716
G1 X209.593 Y76.179 E22.79144
G1 X210.193 Y76.66 E22.81574
G1 X210.74 Y77.201 E22.84004
G1 X211.228 Y77.796 E22.86436
G1 X211.651 Y78.438 E22.88865
G1 X212.006 Y79.121 E22.91297
G1 X212.287 Y79.837 E22.93728
G1 X212.493 Y80.578 E22.96158
G1 X212.621 Y81.336 E22.98587
G1 X212.67 Y82.185 E23.01274
G1 X212.669 Y145.034 E24.99859
G1 X212.67 Y151.534 E25.20397
G1 X212.63 Y152.302 E25.22827
G1 X212.511 Y153.062 E25.25257
G1 X212.313 Y153.805 E25.27687
G1 X212.039 Y154.524 E25.30118
G1 X211.693 Y155.211 E25.32549
G1 X211.276 Y155.857 E25.34978
G1 X210.795 Y156.457 E25.37408
G1 X210.255 Y157.004 E25.39837
G1 X209.66 Y157.492 E25.42268
G1 X209.018 Y157.916 E25.44699
G1 X208.335 Y158.27 E25.4713
G1 X207.62 Y158.552 E25.49559
G1 X206.879 Y158.758 E25.51989
G1 X206.12 Y158.886 E25.54421
G1 X205.27 Y158.935 E25.57111
G1 X46.344 Y158.934 E30.59271
G1 X29.73 Y158.935 E31.11767
G1 X28.962 Y158.895 E31.14197
G1 X28.202 Y158.776 E31.16628
G1 X27.459 Y158.578 E31.19057
G1 X26.74 Y158.304 E31.21488
G1 X26.053 Y157.957 E31.2392
G1 X25.407 Y157.541 E31.26348
G1 X24.807 Y157.06 E31.28778
G1 X24.26 Y156.519 E31.31209
G1 X23.772 Y155.924 E31.3364
G1 X23.349 Y155.282 E31.36069
G1 X22.994 Y154.599 E31.38502
G1 X22.713 Y153.883 E31.40932
G1 X22.507 Y153.142 E31.43362
G1 X22.379 Y152.384 E31.45791
G1 X22.33 Y151.535 E31.48478
G1 X22.331 Y88.686 E33.47063
G1 X22.33 Y82.186 E33.67601
G1 X22.37 Y81.418 E33.70031
G1 X22.489 Y80.658 E33.72462
G1 X22.687 Y79.915 E33.74891
G1 X22.961 Y79.196 E33.77323
G1 X23.307 Y78.509 E33.79753
G1 X23.724 Y77.863 E33.82182
G1 X24.205 Y77.263 E33.84612
G1 X24.745 Y76.716 E33.87041
G1 X25.34 Y76.228 E33.89472
G1 X25.982 Y75.804 E33.91903
G1 X26.665 Y75.45 E33.94334
G1 X27.38 Y75.168 E33.96763
G0 F3600 X27.037 Y75.724
G1 F1800 X27.742 Y75.473 E33.99127
G1 X28.47 Y75.299 E34.01492
G1 X29.212 Y75.204 E34.03856
G1 X29.73 Y75.185 E34.05494
G1 X188.656 Y75.186 E39.07654
G1 X205.27 Y75.185 E39.6015
G1 X206.017 Y75.225 E39.62514
G1 X206.756 Y75.344 E39.64879
G1 X207.477 Y75.542 E39.67241
G1 X208.173 Y75.815 E39.69603
G1 X208.836 Y76.162 E39.71968
G1 X209.459 Y76.577 E39.74333
G1 X210.033 Y77.056 E39.76695
G1 X210.554 Y77.593 E39.7906
G1 X211.013 Y78.183 E39.81421
G1 X211.408 Y78.819 E39.83787
G1 X211.732 Y79.493 E39.8615
G1 X211.982 Y80.198 E39.88514
G1 X212.156 Y80.926 E39.90879
G1 X212.251 Y81.668 E39.93242
G1 X212.27 Y82.185 E39.94877
G1 X212.269 Y145.034 E41.93462
G1 X212.27 Y151.534 E42.14
G1 X212.23 Y152.281 E42.16364
G1 X212.111 Y153.019 E42.18725
G1 X211.913 Y153.741 E42.21091
G1 X211.64 Y154.437 E42.23453
G1 X211.294 Y155.1 E42.25816
G1 X210.879 Y155.723 E42.28182
G1 X210.4 Y156.298 E42.30546
G1 X209.863 Y156.818 E42.32908
G1 X209.273 Y157.278 E42.35272
G1 X208.637 Y157.672 E42.37636
G1 X207.963 Y157.996 E42.39999
G1 X207.258 Y158.247 E42.42363
G1 X206.53 Y158.421 E42.44729
G1 X205.788 Y158.516 E42.47092
G1 X205.27 Y158.535 E42.4873
G1 X46.344 Y158.534 E47.50891
G1 X29.73 Y158.535 E48.03386
G1 X28.983 Y158.495 E48.0575
G1 X28.244 Y158.376 E48.08115
G1 X27.523 Y158.178 E48.10477
G1 X26.827 Y157.905 E48.1284
G1 X26.164 Y157.558 E48.15204
G1 X25.541 Y157.143 E48.17569
G1 X24.967 Y156.664 E48.19932
G1 X24.446 Y156.127 E48.22296
G1 X23.987 Y155.537 E48.24658
G1 X23.592 Y154.901 E48.27023
G1 X23.268 Y154.227 E48.29386
G1 X23.018 Y153.522 E48.3175
G1 X22.844 Y152.794 E48.34115
G1 X22.749 Y152.052 E48.36478
G1 X22.73 Y151.535 E48.38113
G1 X22.731 Y88.686 E50.36698
G1 X22.73 Y82.186 E50.57236
G1 X22.77 Y81.439 E50.596
G1 X22.889 Y80.701 E50.61962
G1 X23.087 Y79.979 E50.64327
G1 X23.36 Y79.283 E50.66689
G1 X23.706 Y78.62 E50.69052
G1 X24.121 Y77.997 E50.71418
G1 X24.6 Y77.422 E50.73782
G1 X25.137 Y76.902 E50.76144
G1 X25.727 Y76.442 E50.78508
G1 X26.363 Y76.048 E50.80872
G1 X27.037 Y75.724 E50.83235
G0 F3600 X27.407 Y76.007
G1 F1800 X28.1 Y75.79 E50.8553
G1 X28.812 Y75.649 E50.87823
G1 X29.73 Y75.585 E50.90731
G1 X188.656 Y75.586 E55.92891
G1 X205.27 Y75.585 E56.45387
G1 X205.995 Y75.625 E56.47681
G1 X206.712 Y75.744 E56.49977
G1 X207.411 Y75.942 E56.52273
G1 X208.084 Y76.215 E56.54568
G1 X208.723 Y76.56 E56.56862
G1 X209.32 Y76.974 E56.59158
G1 X209.868 Y77.45 E56.61451
G1 X210.361 Y77.984 E56.63748
G1 X210.791 Y78.569 E56.66042
G1 X211.155 Y79.198 E56.68338
G1 X211.448 Y79.863 E56.70634
G1 X211.666 Y80.556 E56.7293
G1 X211.806 Y81.268 E56.75222
G1 X211.87 Y82.185 E56.78127
G1 X211.869 Y145.034 E58.76712
G1 X211.87 Y151.534 E58.9725
G1 X211.83 Y152.259 E58.99544
G1 X211.711 Y152.976 E59.01841
G1 X211.514 Y153.675 E59.04135
G1 X211.241 Y154.348 E59.0643
G1 X210.895 Y154.987 E59.08726
G1 X210.482 Y155.584 E59.1102
G1 X210.005 Y156.132 E59.13315
G1 X209.471 Y156.625 E59.15612
G1 X208.887 Y157.056 E59.17905
G1 X208.258 Y157.42 E59.20202
G1 X207.593 Y157.713 E59.22498
G1 X206.9 Y157.93 E59.24792
G1 X206.188 Y158.071 E59.27086
G1 X205.27 Y158.135 E59.29993
G1 X46.344 Y158.134 E64.32154
G1 X29.73 Y158.135 E64.84649
G1 X29.005 Y158.095 E64.86943
G1 X28.288 Y157.976 E64.8924
G1 X27.589 Y157.778 E64.91536
G1 X26.916 Y157.505 E64.9383
G1 X26.277 Y157.16 E64.96125
G1 X25.68 Y156.746 E64.9842
G1 X25.132 Y156.27 E65.00714
G1 X24.639 Y155.736 E65.0301
G1 X24.209 Y155.151 E65.05304
G1 X23.845 Y154.522 E65.07601
G1 X23.552 Y153.857 E65.09897
G1 X23.334 Y153.164 E65.12192
G1 X23.194 Y152.452 E65.14485
G1 X23.13 Y151.535 E65.1739
G1 X23.131 Y88.686 E67.15974
G1 X23.13 Y82.186 E67.36512
G1 X23.17 Y81.461 E67.38807
G1 X23.289 Y80.744 E67.41103
G1 X23.486 Y80.045 E67.43398
G1 X23.759 Y79.372 E67.45693
G1 X24.105 Y78.733 E67.47989
G1 X24.518 Y78.136 E67.50282
G1 X24.995 Y77.588 E67.52578
G1 X25.529 Y77.095 E67.54874
G1 X26.113 Y76.664 E67.57168
G1 X26.742 Y76.3 E67.59464
G1 X27.407 Y76.007 E67.6176
G0 F3600 X27.772 Y76.302
G1 F1800 X28.452 Y76.118 E67.63986
G1 X29.148 Y76.012 E67.66211
G1 X29.73 Y75.985 E67.68052
G1 X188.656 Y75.986 E72.70212
G1 X205.27 Y75.985 E73.22708
G1 X205.973 Y76.025 E73.24932
G1 X206.667 Y76.144 E73.27157
G1 X207.342 Y76.342 E73.2938
G1 X207.992 Y76.614 E73.31606
G1 X208.606 Y76.959 E73.33832
G1 X209.176 Y77.37 E73.36052
G1 X209.697 Y77.844 E73.38278
G1 X210.161 Y78.374 E73.40503
G1 X210.561 Y78.953 E73.42727
G1 X210.893 Y79.574 E73.44952
G1 X211.153 Y80.228 E73.47176
G1 X211.337 Y80.908 E73.49402
G1 X211.443 Y81.604 E73.51626
G1 X211.47 Y82.185 E73.53464
G1 X211.469 Y145.034 E75.52049
G1 X211.47 Y151.534 E75.72587
G1 X211.43 Y152.237 E75.74812
G1 X211.311 Y152.931 E75.77037
G1 X211.114 Y153.607 E75.79261
G1 X210.841 Y154.256 E75.81486
G1 X210.497 Y154.87 E75.8371
G1 X210.085 Y155.441 E75.85935
G1 X209.611 Y155.961 E75.88158
G1 X209.082 Y156.425 E75.90381
G1 X208.503 Y156.826 E75.92607
G1 X207.882 Y157.158 E75.94832
G1 X207.228 Y157.418 E75.97055
G1 X206.548 Y157.602 E75.99281
G1 X205.852 Y157.708 E76.01506
G1 X205.27 Y157.735 E76.03347
G1 X46.344 Y157.734 E81.05507
G1 X29.73 Y157.735 E81.58003
G1 X29.027 Y157.695 E81.60228
G1 X28.333 Y157.576 E81.62452
G1 X27.658 Y157.378 E81.64675
G1 X27.008 Y157.106 E81.66901
G1 X26.394 Y156.761 E81.69127
G1 X25.824 Y156.35 E81.71347
G1 X25.303 Y155.876 E81.73573
G1 X24.839 Y155.346 E81.75799
G1 X24.439 Y154.767 E81.78022
G1 X24.107 Y154.146 E81.80247
G1 X23.847 Y153.492 E81.82471
G1 X23.663 Y152.812 E81.84697
G1 X23.557 Y152.116 E81.86921
G1 X23.53 Y151.535 E81.88759
G1 X23.531 Y88.686 E83.87344
G1 X23.53 Y82.186 E84.07882
G1 X23.57 Y81.483 E84.10107
G1 X23.689 Y80.789 E84.12332
G1 X23.886 Y80.113 E84.14557
G1 X24.159 Y79.464 E84.16781
G1 X24.503 Y78.85 E84.19005
G1 X24.915 Y78.279 E84.2123
G1 X25.389 Y77.759 E84.23453
G1 X25.918 Y77.295 E84.25676
G1 X26.497 Y76.894 E84.27902
G1 X27.118 Y76.562 E84.30127
G1 X27.772 Y76.302 E84.32351
G0 F3600 X27.492 Y76.834
G1 F1800 X28.134 Y76.609 E84.345
G1 X28.799 Y76.46 E84.36653
G1 X29.73 Y76.385 E84.39605
G1 X188.656 Y76.386 E89.41765
G1 X205.27 Y76.385 E89.94261
G1 X205.95 Y76.425 E89.96413
G1 X206.62 Y76.544 E89.98563
G1 X207.272 Y76.741 E90.00715
G1 X207.896 Y77.014 E90.02867
G1 X208.484 Y77.357 E90.05018
G1 X209.028 Y77.767 E90.07171
G1 X209.519 Y78.238 E90.0932
G1 X209.953 Y78.763 E90.11473
G1 X210.322 Y79.335 E90.13623
G1 X210.621 Y79.947 E90.15776
G1 X210.846 Y80.589 E90.17925
G1 X210.995 Y81.254 E90.20078
G1 X211.07 Y82.185 E90.2303
G1 X211.069 Y145.034 E92.21615
G1 X211.07 Y151.535 E92.42156
G1 X211.03 Y152.215 E92.44308
G1 X210.911 Y152.885 E92.46458
G1 X210.714 Y153.537 E92.4861
G1 X210.441 Y154.161 E92.50762
G1 X210.098 Y154.749 E92.52913
G1 X209.688 Y155.293 E92.55066
G1 X209.217 Y155.785 E92.57218
G1 X208.692 Y156.218 E92.59368
G1 X208.12 Y156.587 E92.61519
G1 X207.508 Y156.886 E92.63671
G1 X206.866 Y157.111 E92.65821
G1 X206.201 Y157.26 E92.67974
G1 X205.27 Y157.335 E92.70925
G1 X46.344 Y157.334 E97.73086
G1 X29.73 Y157.335 E98.25581
G1 X29.05 Y157.295 E98.27733
G1 X28.38 Y157.176 E98.29884
G1 X27.728 Y156.979 E98.32036
G1 X27.104 Y156.706 E98.34188
G1 X26.516 Y156.363 E98.36339
G1 X25.972 Y155.953 E98.38491
G1 X25.481 Y155.482 E98.40641
G1 X25.047 Y154.957 E98.42793
G1 X24.678 Y154.385 E98.44944
G1 X24.379 Y153.773 E98.47096
G1 X24.154 Y153.131 E98.49246
G1 X24.005 Y152.466 E98.51399
G1 X23.93 Y151.535 E98.5435
G1 X23.931 Y88.686 E100.52935
G1 X23.93 Y82.185 E100.73476
G1 X23.97 Y81.505 E100.75629
G1 X24.089 Y80.835 E100.77779
G1 X24.286 Y80.183 E100.79931
G1 X24.559 Y79.559 E100.82083
G1 X24.902 Y78.971 E100.84234
G1 X25.312 Y78.427 E100.86386
G1 X25.783 Y77.935 E100.88538
G1 X26.308 Y77.502 E100.90689
G1 X26.88 Y77.133 E100.9284
G1 X27.492 Y76.834 E100.94992
G0 F3600 X27.861 Y77.119
G1 F1800 X28.49 Y76.929 E100.97068
G1 X29.137 Y76.818 E100.99142
G1 X29.73 Y76.785 E101.01019
G1 X188.656 Y76.786 E106.03179
G1 X205.27 Y76.785 E106.55675
G1 X205.926 Y76.825 E106.57751
G1 X206.572 Y76.944 E106.59827
G1 X207.199 Y77.141 E106.61903
G1 X207.797 Y77.413 E106.63979
G1 X208.358 Y77.755 E106.66055
G1 X208.873 Y78.163 E106.68131
G1 X209.335 Y78.63 E106.70207
G1 X209.736 Y79.15 E106.72282
G1 X210.072 Y79.715 E106.74359
G1 X210.336 Y80.316 E106.76433
G1 X210.526 Y80.945 E106.78509
G1 X210.637 Y81.592 E106.80583
G1 X210.67 Y82.185 E106.8246
G1 X210.669 Y145.034 E108.81045
G1 X210.67 Y151.535 E109.01586
G1 X210.63 Y152.191 E109.03663
G1 X210.511 Y152.837 E109.05738
G1 X210.314 Y153.464 E109.07815
G1 X210.042 Y154.062 E109.09891
G1 X209.7 Y154.623 E109.11967
G1 X209.292 Y155.138 E109.14043
G1 X208.825 Y155.6 E109.16118
G1 X208.305 Y156.001 E109.18193
G1 X207.74 Y156.337 E109.2027
G1 X207.139 Y156.601 E109.22344
G1 X206.51 Y156.791 E109.2442
G1 X205.863 Y156.902 E109.26495
G1 X205.27 Y156.935 E109.28371
G1 X46.344 Y156.934 E114.30532
G1 X29.73 Y156.935 E114.83027
G1 X29.074 Y156.895 E114.85104
G1 X28.428 Y156.776 E114.87179
G1 X27.801 Y156.579 E114.89256
G1 X27.203 Y156.307 E114.91332
G1 X26.642 Y155.965 E114.93408
G1 X26.127 Y155.557 E114.95484
G1 X25.665 Y155.09 E114.97559
G1 X25.264 Y154.57 E114.99634
G1 X24.928 Y154.005 E115.01711
G1 X24.664 Y153.404 E115.03786
G1 X24.474 Y152.775 E115.05862
G1 X24.363 Y152.128 E115.07936
G1 X24.33 Y151.535 E115.09812
G1 X24.331 Y88.686 E117.08397
G1 X24.33 Y82.185 E117.28939
G1 X24.37 Y81.529 E117.31015
G1 X24.489 Y80.883 E117.33091
G1 X24.686 Y80.256 E117.35167
G1 X24.958 Y79.658 E117.37243
G1 X25.3 Y79.097 E117.39319
G1 X25.708 Y78.582 E117.41395
G1 X26.175 Y78.12 E117.43471
G1 X26.695 Y77.719 E117.45546
G1 X27.26 Y77.383 E117.47623
G1 X27.861 Y77.119 E117.49697
G0 F3600 X28.225 Y77.417
G1 F1800 X28.839 Y77.265 E117.51695
G1 X29.73 Y77.185 E117.54522
G1 X188.656 Y77.186 E122.56683
G1 X205.27 Y77.185 E123.09178
G1 X205.901 Y77.225 E123.11176
G1 X206.522 Y77.344 E123.13174
G1 X207.122 Y77.541 E123.15169
G1 X207.694 Y77.812 E123.17169
G1 X208.226 Y78.152 E123.19164
G1 X208.711 Y78.558 E123.21163
G1 X209.141 Y79.021 E123.23159
G1 X209.51 Y79.535 E123.25158
G1 X209.81 Y80.091 E123.27155
G1 X210.038 Y80.68 E123.2915
G1 X210.19 Y81.294 E123.31149
G1 X210.27 Y82.185 E123.33976
G1 X210.269 Y145.034 E125.3256
G1 X210.27 Y151.535 E125.53102
G1 X210.23 Y152.166 E125.55099
G1 X210.111 Y152.787 E125.57097
G1 X209.914 Y153.388 E125.59096
G1 X209.643 Y153.959 E125.61093
G1 X209.303 Y154.491 E125.63088
G1 X208.897 Y154.976 E125.65086
G1 X208.434 Y155.406 E125.67083
G1 X207.92 Y155.775 E125.69082
G1 X207.364 Y156.075 E125.71078
G1 X206.775 Y156.303 E125.73074
G1 X206.161 Y156.455 E125.75073
G1 X205.27 Y156.535 E125.77899
G1 X46.344 Y156.534 E130.8006
G1 X29.73 Y156.535 E131.32555
G1 X29.099 Y156.495 E131.34553
G1 X28.478 Y156.376 E131.36551
G1 X27.878 Y156.179 E131.38546
G1 X27.306 Y155.908 E131.40546
G1 X26.774 Y155.568 E131.42541
G1 X26.289 Y155.162 E131.4454
G1 X25.859 Y154.699 E131.46536
G1 X25.49 Y154.185 E131.48535
G1 X25.19 Y153.629 E131.50532
G1 X24.962 Y153.04 E131.52527
G1 X24.81 Y152.426 E131.54526
G1 X24.73 Y151.535 E131.57353
G1 X24.731 Y88.686 E133.55937
