;FLAVOR:Marlin
;TIME:6952
;Filament used: 6.28021m
;Layer height: 0.2
;Generated with Cura_SteamEngine 4.0.0
M140 S60
M105
M190 S60
M104 S210
M105
M109 S210
M82 ;absolute extrusion mode
; Ender 3 Custom Start G-code
G28 ; Home all axes
G92 E0 ; Reset Extruder
G1 Z2.0 F3000 ; Move Z Axis up little to prevent scratching of Heat Bed
G1 X0.1 Y20 Z0.3 F5000.0 ; Move to start position
G1 X0.1 Y200.0 Z0.3 F1500.0 E15 ; Draw the first line
G1 X0.4 Y200.0 Z0.3 F5000.0 ; Move to side a little
G1 X0.4 Y20 Z0.3 F1500.0 E30 ; Draw the second line
G92 E0 ; Reset Extruder
G1 Z2.0 F3000 ; Move Z Axis up little to prevent scratching of Heat Bed
; End of custom start GCode
G92 E0
G1 F3600 E-6
;LAYER_COUNT:52
;LAYER:0
M107
M204 S5000
M205 X30 Y30
;MESH:a2bc1ce0-2907-48ba-89a4-5a5a52848fd6.stl
G0 F2400 X9.747 Y79.235 Z0.2
M204 S500
M205 X20 Y20
;TYPE:WALL-INNER
G1 F3600 E0
G1 F1200 X9.755 Y79.235 E0.00025
G1 X9.785 Y78.032 E0.03828
G1 X19.31 Y78.077 E0.33924
G1 X19.31 Y143.905 E2.41922
G1 X19.337 Y144.227 E2.42943
G1 X19.428 Y144.566 E2.44052
G1 X19.577 Y144.883 E2.45159
G1 X19.777 Y145.167 E2.46256
G1 X20.023 Y145.414 E2.47358
G1 X20.309 Y145.614 E2.4846
G1 X20.624 Y145.761 E2.49559
G1 X20.962 Y145.852 E2.50665
G1 X21.249 Y145.877 E2.51575
G1 X21.284 Y145.88 E2.51686
G1 X198.714 Y145.879 E8.12314
G1 X198.739 Y145.877 E8.12393
G1 X199.037 Y145.853 E8.13338
G1 X199.376 Y145.761 E8.14448
G1 X199.691 Y145.614 E8.15546
G1 X199.977 Y145.414 E8.16649
G1 X200.223 Y145.167 E8.1775
G1 X200.423 Y144.883 E8.18848
G1 X200.572 Y144.566 E8.19954
G1 X200.663 Y144.227 E8.21064
G1 X200.69 Y143.906 E8.22081
G1 X200.69 Y78.078 E10.30079
G1 X210.215 Y78.033 E10.60176
G1 X210.245 Y79.235 E10.63975
G1 X210.253 Y79.235 E10.64
G1 X210.261 Y79.556 E10.65015
G1 X210.381 Y93.856 E11.102
G1 X210.503 Y125.057 E12.08787
G1 X210.559 Y145.837 E12.74446
G1 X210.531 Y146.189 E12.75562
G1 X210.52 Y146.223 E12.75675
G1 X198.742 Y146.276 E13.1289
G1 X198.716 Y146.276 E13.12972
G1 X197.384 Y146.282 E13.17181
G1 X22.617 Y146.281 E18.69394
G1 X21.283 Y146.276 E18.7361
G1 X21.247 Y146.276 E18.73723
G1 X9.499 Y146.225 E19.10844
G1 X9.443 Y145.917 E19.11833
G1 X9.496 Y125.239 E19.77169
G1 X9.619 Y93.857 E20.76328
G1 X9.739 Y79.565 E21.21489
G1 X9.747 Y79.235 E21.22532
M204 S5000
M205 X30 Y30
G0 F2400 X9.365 Y78.835
M204 S500
M205 X20 Y20
;TYPE:WALL-OUTER
G1 F1200 X9.395 Y77.63 E21.2634
G1 X19.71 Y77.679 E21.58933
G1 X19.71 Y143.888 E23.68134
G1 X19.733 Y144.158 E23.68991
G1 X19.805 Y144.428 E23.69874
G1 X19.924 Y144.681 E23.70757
G1 X20.084 Y144.909 E23.71637
G1 X20.281 Y145.106 E23.72517
G1 X20.51 Y145.266 E23.734
G1 X20.762 Y145.384 E23.74279
G1 X21.032 Y145.457 E23.75163
G1 X21.301 Y145.48 E23.76016
G1 X198.698 Y145.479 E29.3654
G1 X198.968 Y145.457 E29.37396
G1 X199.238 Y145.384 E29.38279
G1 X199.49 Y145.266 E29.39159
G1 X199.719 Y145.106 E29.40041
G1 X199.916 Y144.909 E29.40922
G1 X200.076 Y144.681 E29.41802
G1 X200.195 Y144.428 E29.42685
G1 X200.267 Y144.158 E29.43568
G1 X200.29 Y143.889 E29.44421
G1 X200.29 Y77.68 E31.53623
G1 X210.605 Y77.631 E31.86215
G1 X210.635 Y78.835 E31.90021
G1 X210.644 Y78.835 E31.90049
G1 X210.661 Y79.553 E31.92319
G1 X210.781 Y93.854 E32.37507
G1 X210.903 Y125.055 E33.36094
G1 X210.959 Y145.856 E34.0182
G1 X210.926 Y146.266 E34.03119
G1 X210.856 Y146.484 E34.03843
G1 X210.779 Y146.622 E34.04342
G1 X197.386 Y146.682 E34.4666
G1 X22.615 Y146.681 E39.98887
G1 X9.206 Y146.624 E40.41256
G1 X9.15 Y146.549 E40.41551
G1 X9.043 Y145.954 E40.43462
G1 X9.096 Y125.238 E41.08918
G1 X9.219 Y93.854 E42.08084
G1 X9.339 Y79.556 E42.53263
G1 X9.356 Y78.835 E42.55542
G1 X9.365 Y78.835 E42.5557
M204 S5000
M205 X30 Y30
G0 F2400 X9.369 Y78.635
G0 X9.809 Y78.645
G0 X10.165 Y78.424
M204 S500
M205 X20 Y20
;TYPE:SKIN
G1 F1200 X18.92 Y78.465 E42.83234
G1 X18.92 Y143.921 E44.90056
G1 X18.951 Y144.295 E44.91242
G1 X19.06 Y144.701 E44.9257
G1 X19.238 Y145.08 E44.93893
G1 X19.477 Y145.419 E44.95203
G1 X19.771 Y145.714 E44.96519
G1 X20.009 Y145.88 E44.97436
G1 X9.833 Y145.837 E45.2959
G1 X9.886 Y125.24 E45.94671
G1 X10.009 Y93.861 E46.9382
G1 X10.129 Y79.625 E47.38803
G1 X10.135 Y79.625 E47.38822
G1 X10.165 Y78.424 E47.42618
M204 S5000
M205 X30 Y30
G0 F2400 X9.886 Y78.417
G0 X9.963 Y78.215
G0 X19.128 Y78.258
G0 X19.2 Y78.703
G0 X18.74 Y78.703
M204 S500
M205 X20 Y20
G1 F1200 X18.68 Y78.643 E47.42886
M204 S5000
M205 X30 Y30
G0 F2400 X18.111 Y78.64
M204 S500
M205 X20 Y20
G1 F1200 X18.74 Y79.268 E47.45695
M204 S5000
M205 X30 Y30
G0 F2400 X18.74 Y79.834
M204 S500
M205 X20 Y20
G1 F1200 X17.544 Y78.638 E47.51039
M204 S5000
M205 X30 Y30
G0 F2400 X16.975 Y78.635
M204 S500
M205 X20 Y20
G1 F1200 X18.74 Y80.4 E47.58926
M204 S5000
M205 X30 Y30
G0 F2400 X18.74 Y80.965
M204 S500
M205 X20 Y20
G1 F1200 X16.406 Y78.632 E47.69353
M204 S5000
M205 X30 Y30
G0 F2400 X15.839 Y78.63
M204 S500
M205 X20 Y20
G1 F1200 X18.74 Y81.531 E47.82316
M204 S5000
M205 X30 Y30
G0 F2400 X18.74 Y82.097
M204 S500
M205 X20 Y20
G1 F1200 X15.27 Y78.627 E47.97822
M204 S5000
M205 X30 Y30
G0 F2400 X14.702 Y78.624
M204 S500
M205 X20 Y20
G1 F1200 X18.74 Y82.662 E48.15866
M204 S5000
M205 X30 Y30
G0 F2400 X18.74 Y83.228
M204 S500
M205 X20 Y20
G1 F1200 X14.133 Y78.621 E48.36452
M204 S5000
M205 X30 Y30
G0 F2400 X13.565 Y78.619
M204 S500
M205 X20 Y20
G1 F1200 X18.74 Y83.794 E48.59577
M204 S5000
M205 X30 Y30
G0 F2400 X18.74 Y84.359
M204 S500
M205 X20 Y20
G1 F1200 X12.997 Y78.616 E48.8524
M204 S5000
M205 X30 Y30
G0 F2400 X12.428 Y78.614
M204 S500
M205 X20 Y20
G1 F1200 X18.74 Y84.925 E49.13443
M204 S5000
M205 X30 Y30
G0 F2400 X18.74 Y85.491
M204 S500
M205 X20 Y20
G1 F1200 X11.86 Y78.611 E49.44186
M204 S5000
M205 X30 Y30
G0 F2400 X11.292 Y78.609
M204 S500
M205 X20 Y20
G1 F1200 X18.74 Y86.057 E49.77467
M204 S5000
M205 X30 Y30
G0 F2400 X18.74 Y86.622
M204 S500
M205 X20 Y20
G1 F1200 X10.723 Y78.606 E50.13289
M204 S5000
M205 X30 Y30
G0 F2400 X10.335 Y78.783
M204 S500
M205 X20 Y20
G1 F1200 X18.74 Y87.188 E50.50847
M204 S5000
M205 X30 Y30
G0 F2400 X18.74 Y87.754
M204 S500
M205 X20 Y20
G1 F1200 X10.32 Y79.334 E50.88472
M204 S5000
M205 X30 Y30
G0 F2400 X10.306 Y79.885
M204 S500
M205 X20 Y20
G1 F1200 X18.74 Y88.319 E51.26159
M204 S5000
M205 X30 Y30
G0 F2400 X18.74 Y88.885
M204 S500
M205 X20 Y20
G1 F1200 X10.301 Y80.446 E51.63869
M204 S5000
M205 X30 Y30
G0 F2400 X10.296 Y81.006
M204 S500
M205 X20 Y20
G1 F1200 X18.74 Y89.451 E52.01603
M204 S5000
M205 X30 Y30
G0 F2400 X18.74 Y90.016
M204 S500
M205 X20 Y20
G1 F1200 X10.291 Y81.568 E52.39355
M204 S5000
M205 X30 Y30
G0 F2400 X10.286 Y82.129
M204 S500
M205 X20 Y20
G1 F1200 X18.74 Y90.582 E52.7713
M204 S5000
M205 X30 Y30
G0 F2400 X18.74 Y91.148
M204 S500
M205 X20 Y20
G1 F1200 X10.282 Y82.689 E53.14927
M204 S5000
M205 X30 Y30
G0 F2400 X10.277 Y83.251
M204 S500
M205 X20 Y20
G1 F1200 X18.74 Y91.713 E53.52742
M204 S5000
M205 X30 Y30
G0 F2400 X18.74 Y92.279
M204 S500
M205 X20 Y20
G1 F1200 X10.272 Y83.811 E53.90581
M204 S5000
M205 X30 Y30
G0 F2400 X10.267 Y84.372
M204 S500
M205 X20 Y20
G1 F1200 X18.74 Y92.845 E54.28443
M204 S5000
M205 X30 Y30
G0 F2400 X18.74 Y93.41
M204 S500
M205 X20 Y20
G1 F1200 X10.263 Y84.934 E54.6632
M204 S5000
M205 X30 Y30
G0 F2400 X10.258 Y85.494
M204 S500
M205 X20 Y20
G1 F1200 X18.74 Y93.976 E55.04222
M204 S5000
M205 X30 Y30
G0 F2400 X18.74 Y94.542
M204 S500
M205 X20 Y20
G1 F1200 X10.253 Y86.055 E55.42146
M204 S5000
M205 X30 Y30
G0 F2400 X10.249 Y86.617
M204 S500
M205 X20 Y20
G1 F1200 X18.74 Y95.107 E55.80086
M204 S5000
M205 X30 Y30
G0 F2400 X18.74 Y95.673
M204 S500
M205 X20 Y20
G1 F1200 X10.244 Y87.177 E56.1805
M204 S5000
M205 X30 Y30
G0 F2400 X10.239 Y87.738
M204 S500
M205 X20 Y20
G1 F1200 X18.74 Y96.239 E56.56037
M204 S5000
M205 X30 Y30
G0 F2400 X18.74 Y96.805
M204 S500
M205 X20 Y20
G1 F1200 X10.235 Y88.299 E56.94044
M204 S5000
M205 X30 Y30
G0 F2400 X10.23 Y88.86
M204 S500
M205 X20 Y20
G1 F1200 X18.74 Y97.37 E57.32071
M204 S5000
M205 X30 Y30
G0 F2400 X18.74 Y97.936
M204 S500
M205 X20 Y20
G1 F1200 X10.225 Y89.421 E57.7012
M204 S5000
M205 X30 Y30
G0 F2400 X10.221 Y89.982
M204 S500
M205 X20 Y20
G1 F1200 X18.74 Y98.502 E58.0819
M204 S5000
M205 X30 Y30
G0 F2400 X18.74 Y99.067
M204 S500
M205 X20 Y20
G1 F1200 X10.216 Y90.543 E58.4628
M204 S5000
M205 X30 Y30
G0 F2400 X10.211 Y91.104
M204 S500
M205 X20 Y20
G1 F1200 X18.74 Y99.633 E58.84391
M204 S5000
M205 X30 Y30
G0 F2400 X18.74 Y100.199
M204 S500
M205 X20 Y20
G1 F1200 X10.207 Y91.665 E59.22523
M204 S5000
M205 X30 Y30
G0 F2400 X10.202 Y92.226
M204 S500
M205 X20 Y20
G1 F1200 X18.74 Y100.764 E59.60676
M204 S5000
M205 X30 Y30
G0 F2400 X18.74 Y101.33
M204 S500
M205 X20 Y20
G1 F1200 X10.197 Y92.787 E59.9885
M204 S5000
M205 X30 Y30
G0 F2400 X10.192 Y93.348
M204 S500
M205 X20 Y20
G1 F1200 X18.74 Y101.896 E60.37047
M204 S5000
M205 X30 Y30
G0 F2400 X18.74 Y102.461
M204 S500
M205 X20 Y20
G1 F1200 X10.187 Y93.909 E60.75264
M204 S5000
M205 X30 Y30
G0 F2400 X10.185 Y94.473
M204 S500
M205 X20 Y20
G1 F1200 X18.74 Y103.027 E61.1349
M204 S5000
M205 X30 Y30
G0 F2400 X18.74 Y103.593
M204 S500
M205 X20 Y20
G1 F1200 X10.183 Y95.036 E61.51727
M204 S5000
M205 X30 Y30
G0 F2400 X10.181 Y95.6
M204 S500
M205 X20 Y20
G1 F1200 X18.74 Y104.158 E61.8997
M204 S5000
M205 X30 Y30
G0 F2400 X18.74 Y104.724
M204 S500
M205 X20 Y20
G1 F1200 X10.179 Y96.163 E62.28225
M204 S5000
M205 X30 Y30
G0 F2400 X10.177 Y96.727
M204 S500
M205 X20 Y20
G1 F1200 X18.74 Y105.29 E62.66489
M204 S5000
M205 X30 Y30
G0 F2400 X18.74 Y105.856
M204 S500
M205 X20 Y20
G1 F1200 X10.174 Y97.29 E63.04766
M204 S5000
M205 X30 Y30
G0 F2400 X10.172 Y97.853
M204 S500
M205 X20 Y20
G1 F1200 X18.74 Y106.421 E63.43053
M204 S5000
M205 X30 Y30
G0 F2400 X18.74 Y106.987
M204 S500
M205 X20 Y20
G1 F1200 X10.17 Y98.417 E63.81348
M204 S5000
M205 X30 Y30
G0 F2400 X10.168 Y98.98
M204 S500
M205 X20 Y20
G1 F1200 X18.74 Y107.553 E64.19654
M204 S5000
M205 X30 Y30
G0 F2400 X18.74 Y108.118
M204 S500
M205 X20 Y20
G1 F1200 X10.166 Y99.544 E64.57967
M204 S5000
M205 X30 Y30
G0 F2400 X10.163 Y100.107
M204 S500
M205 X20 Y20
G1 F1200 X18.74 Y108.684 E64.96293
M204 S5000
M205 X30 Y30
G0 F2400 X18.74 Y109.25
M204 S500
M205 X20 Y20
G1 F1200 X10.161 Y100.671 E65.34629
M204 S5000
M205 X30 Y30
G0 F2400 X10.159 Y101.235
M204 S500
M205 X20 Y20
G1 F1200 X18.74 Y109.815 E65.72971
M204 S5000
M205 X30 Y30
G0 F2400 X18.74 Y110.381
M204 S500
M205 X20 Y20
G1 F1200 X10.156 Y101.797 E66.11328
M204 S5000
M205 X30 Y30
G0 F2400 X10.154 Y102.361
M204 S500
M205 X20 Y20
G1 F1200 X18.74 Y110.947 E66.49695
M204 S5000
M205 X30 Y30
G0 F2400 X18.74 Y111.512
M204 S500
M205 X20 Y20
G1 F1200 X10.152 Y102.925 E66.88068
M204 S5000
M205 X30 Y30
G0 F2400 X10.15 Y103.488
M204 S500
M205 X20 Y20
G1 F1200 X18.74 Y112.078 E67.26453
M204 S5000
M205 X30 Y30
G0 F2400 X18.74 Y112.644
M204 S500
M205 X20 Y20
G1 F1200 X10.148 Y104.052 E67.64846
M204 S5000
M205 X30 Y30
G0 F2400 X10.146 Y104.615
M204 S500
M205 X20 Y20
G1 F1200 X18.74 Y113.209 E68.03249
M204 S5000
M205 X30 Y30
G0 F2400 X18.74 Y113.775
M204 S500
M205 X20 Y20
G1 F1200 X10.144 Y105.179 E68.4166
M204 S5000
M205 X30 Y30
G0 F2400 X10.142 Y105.742
M204 S500
M205 X20 Y20
G1 F1200 X18.74 Y114.341 E68.80082
M204 S5000
M205 X30 Y30
G0 F2400 X18.74 Y114.906
M204 S500
M205 X20 Y20
G1 F1200 X10.139 Y106.305 E69.18516
M204 S5000
M205 X30 Y30
G0 F2400 X10.137 Y106.869
M204 S500
M205 X20 Y20
G1 F1200 X18.74 Y115.472 E69.56959
M204 S5000
M205 X30 Y30
G0 F2400 X18.74 Y116.038
M204 S500
M205 X20 Y20
G1 F1200 X10.134 Y107.432 E69.95415
M204 S5000
M205 X30 Y30
G0 F2400 X10.132 Y107.996
M204 S500
M205 X20 Y20
G1 F1200 X18.74 Y116.604 E70.3388
M204 S5000
M205 X30 Y30
G0 F2400 X18.74 Y117.169
M204 S500
M205 X20 Y20
G1 F1200 X10.13 Y108.559 E70.72353
M204 S5000
M205 X30 Y30
G0 F2400 X10.128 Y109.123
M204 S500
M205 X20 Y20
G1 F1200 X18.74 Y117.735 E71.10836
M204 S5000
M205 X30 Y30
G0 F2400 X18.74 Y118.301
M204 S500
M205 X20 Y20
G1 F1200 X10.126 Y109.687 E71.49328
M204 S5000
M205 X30 Y30
G0 F2400 X10.124 Y110.25
M204 S500
M205 X20 Y20
G1 F1200 X18.74 Y118.866 E71.87829
M204 S5000
M205 X30 Y30
G0 F2400 X18.74 Y119.432
M204 S500
M205 X20 Y20
G1 F1200 X10.121 Y110.813 E72.26343
M204 S5000
M205 X30 Y30
G0 F2400 X10.119 Y111.377
M204 S500
M205 X20 Y20
G1 F1200 X18.74 Y119.998 E72.64866
M204 S5000
M205 X30 Y30
G0 F2400 X18.74 Y120.563
M204 S500
M205 X20 Y20
G1 F1200 X10.117 Y111.94 E73.03398
M204 S5000
M205 X30 Y30
G0 F2400 X10.115 Y112.504
M204 S500
M205 X20 Y20
G1 F1200 X18.74 Y121.129 E73.41939
M204 S5000
M205 X30 Y30
G0 F2400 X18.74 Y121.695
M204 S500
M205 X20 Y20
G1 F1200 X10.113 Y113.067 E73.80491
M204 S5000
M205 X30 Y30
G0 F2400 X10.11 Y113.631
M204 S500
M205 X20 Y20
G1 F1200 X18.74 Y122.26 E74.19052
M204 S5000
M205 X30 Y30
G0 F2400 X18.74 Y122.826
M204 S500
M205 X20 Y20
G1 F1200 X10.108 Y114.194 E74.57624
M204 S5000
M205 X30 Y30
G0 F2400 X10.106 Y114.758
M204 S500
M205 X20 Y20
G1 F1200 X18.74 Y123.392 E74.96205
M204 S5000
M205 X30 Y30
G0 F2400 X18.74 Y123.957
M204 S500
M205 X20 Y20
G1 F1200 X10.104 Y115.322 E75.34793
M204 S5000
M205 X30 Y30
G0 F2400 X10.101 Y115.884
M204 S500
M205 X20 Y20
G1 F1200 X18.74 Y124.523 E75.73396
M204 S5000
M205 X30 Y30
G0 F2400 X18.74 Y125.089
M204 S500
M205 X20 Y20
G1 F1200 X10.099 Y116.448 E76.12009
M204 S5000
M205 X30 Y30
G0 F2400 X10.097 Y117.012
M204 S500
M205 X20 Y20
G1 F1200 X18.74 Y125.654 E76.50628
M204 S5000
M205 X30 Y30
G0 F2400 X18.74 Y126.22
M204 S500
M205 X20 Y20
G1 F1200 X10.095 Y117.575 E76.89258
M204 S5000
M205 X30 Y30
G0 F2400 X10.093 Y118.139
M204 S500
M205 X20 Y20
G1 F1200 X18.74 Y126.786 E77.27897
M204 S5000
M205 X30 Y30
G0 F2400 X18.74 Y127.352
M204 S500
M205 X20 Y20
G1 F1200 X10.091 Y118.702 E77.66547
M204 S5000
M205 X30 Y30
G0 F2400 X10.088 Y119.266
M204 S500
M205 X20 Y20
G1 F1200 X18.74 Y127.917 E78.05207
M204 S5000
M205 X30 Y30
G0 F2400 X18.74 Y128.483
M204 S500
M205 X20 Y20
G1 F1200 X10.086 Y119.829 E78.43877
M204 S5000
M205 X30 Y30
G0 F2400 X10.084 Y120.392
M204 S500
M205 X20 Y20
G1 F1200 X18.74 Y129.049 E78.82559
M204 S5000
M205 X30 Y30
G0 F2400 X18.74 Y129.614
M204 S500
M205 X20 Y20
G1 F1200 X10.081 Y120.956 E79.21249
M204 S5000
M205 X30 Y30
G0 F2400 X10.079 Y121.519
M204 S500
M205 X20 Y20
G1 F1200 X18.74 Y130.18 E79.59951
M204 S5000
M205 X30 Y30
G0 F2400 X18.74 Y130.746
M204 S500
M205 X20 Y20
G1 F1200 X10.077 Y122.083 E79.98662
M204 S5000
M205 X30 Y30
G0 F2400 X10.075 Y122.646
M204 S500
M205 X20 Y20
G1 F1200 X18.74 Y131.311 E80.37382
M204 S5000
M205 X30 Y30
G0 F2400 X18.74 Y131.877
M204 S500
M205 X20 Y20
G1 F1200 X10.073 Y123.21 E80.7611
M204 S5000
M205 X30 Y30
G0 F2400 X10.071 Y123.774
M204 S500
M205 X20 Y20
G1 F1200 X18.74 Y132.443 E81.14848
M204 S5000
M205 X30 Y30
G0 F2400 X18.74 Y133.008
M204 S500
M205 X20 Y20
G1 F1200 X10.069 Y124.337 E81.53594
M204 S5000
M205 X30 Y30
G0 F2400 X10.066 Y124.9
M204 S500
M205 X20 Y20
G1 F1200 X18.74 Y133.574 E81.92354
M204 S5000
M205 X30 Y30
G0 F2400 X18.74 Y134.14
M204 S500
M205 X20 Y20
G1 F1200 X10.064 Y125.464 E82.31123
M204 S5000
M205 X30 Y30
G0 F2400 X10.063 Y126.029
M204 S500
M205 X20 Y20
G1 F1200 X18.74 Y134.705 E82.69894
M204 S5000
M205 X30 Y30
G0 F2400 X18.74 Y135.271
M204 S500
M205 X20 Y20
G1 F1200 X10.062 Y126.593 E83.08671
M204 S5000
M205 X30 Y30
G0 F2400 X10.06 Y127.157
M204 S500
M205 X20 Y20
G1 F1200 X18.74 Y135.837 E83.47458
M204 S5000
M205 X30 Y30
G0 F2400 X18.74 Y136.403
M204 S500
M205 X20 Y20
G1 F1200 X10.059 Y127.721 E83.86251
M204 S5000
M205 X30 Y30
G0 F2400 X10.057 Y128.286
M204 S500
M205 X20 Y20
G1 F1200 X18.74 Y136.968 E84.25049
M204 S5000
M205 X30 Y30
G0 F2400 X18.74 Y137.534
M204 S500
M205 X20 Y20
G1 F1200 X10.056 Y128.85 E84.63854
M204 S5000
M205 X30 Y30
G0 F2400 X10.055 Y129.414
M204 S500
M205 X20 Y20
G1 F1200 X18.74 Y138.1 E85.02665
M204 S5000
M205 X30 Y30
G0 F2400 X18.74 Y138.665
M204 S500
M205 X20 Y20
G1 F1200 X10.053 Y129.978 E85.41483
M204 S5000
M205 X30 Y30
G0 F2400 X10.052 Y130.543
M204 S500
M205 X20 Y20
G1 F1200 X18.74 Y139.231 E85.80305
M204 S5000
M205 X30 Y30
G0 F2400 X18.74 Y139.797
M204 S500
M205 X20 Y20
G1 F1200 X10.05 Y131.107 E86.19137
M204 S5000
M205 X30 Y30
G0 F2400 X10.049 Y131.671
M204 S500
M205 X20 Y20
G1 F1200 X18.74 Y140.362 E86.57972
M204 S5000
M205 X30 Y30
