;FLAVOR:Marlin
;TIME:12319
;Filament used: 8.11316m
;Layer height: 0.2
;MINX:45.21
;MINY:52.71
;MINZ:0.2
;MAXX:189.792
;MAXY:182.29
;MAXZ:10
;Generated with Cura_SteamEngine 4.1.0
M140 S70
M105
M190 S70
M104 S210
M105
M109 S210
M82 ;absolute extrusion mode
; Ender 3 Custom Start G-code
G28 ; Home all axes
M420 S1
G92 E0 ; Reset Extruder
G1 Z2.0 F3000 ; Move Z Axis up little to prevent scratching of Heat Bed
G1 X0.1 Y20 Z0.3 F5000.0 ; Move to start position
G1 X0.1 Y200.0 Z0.3 F1500.0 E15 ; Draw the first line
G1 X0.4 Y200.0 Z0.3 F5000.0 ; Move to side a little
G1 X0.4 Y20 Z0.3 F1500.0 E30 ; Draw the second line
G92 E0 ; Reset Extruder
G1 Z2.0 F3000 ; Move Z Axis up little to prevent scratching of Heat Bed
G92 E0
G92 E0
G1 F3600 E-8
;LAYER_COUNT:50
;LAYER:0
M107
M204 S500
M205 X10 Y10
G0 F3600 X52.292 Y57.347 Z0.2
;TYPE:SKIRT
G1 F3600 E0
G1 F1800 X53.094 Y56.708 E0.0307
G1 X54.386 Y55.812 E0.07776
G1 X55.262 Y55.287 E0.10833
G1 X56.663 Y54.566 E0.1555
G1 X57.611 Y54.154 E0.18644
G1 X59.094 Y53.625 E0.23357
G1 X60.069 Y53.348 E0.26391
G1 X61.611 Y53.015 E0.31113
G1 X62.633 Y52.864 E0.34206
G1 X64.204 Y52.738 E0.38924
G1 X64.824 Y52.713 E0.40781
G1 X71.485 Y52.71 E0.6072
G1 X71.489 Y52.71 E0.60732
G1 X163.51 Y52.711 E3.36189
G1 X170 Y52.711 E3.55616
G1 X170.446 Y52.724 E3.56952
G1 X171.844 Y52.804 E3.61143
G1 X172.815 Y52.921 E3.64071
G1 X174.368 Y53.208 E3.68799
G1 X175.358 Y53.459 E3.71856
G1 X176.853 Y53.944 E3.76561
G1 X177.813 Y54.327 E3.79654
G1 X179.236 Y55.008 E3.84377
G1 X180.122 Y55.506 E3.87419
G1 X181.444 Y56.366 E3.9214
G1 X182.269 Y56.983 E3.95224
G1 X183.463 Y58.007 E3.99932
G1 X184.192 Y58.72 E4.02985
G1 X185.244 Y59.893 E4.07701
G1 X185.881 Y60.706 E4.10793
G1 X186.769 Y62.008 E4.15511
G1 X187.286 Y62.883 E4.18553
G1 X187.997 Y64.289 E4.23269
G1 X188.401 Y65.24 E4.26362
G1 X188.92 Y66.728 E4.3108
G1 X189.192 Y67.71 E4.3413
G1 X189.513 Y69.255 E4.38853
G1 X189.655 Y70.267 E4.41912
G1 X189.771 Y71.837 E4.46625
G1 X189.792 Y72.415 E4.48356
G1 X189.79 Y76.953 E4.6194
G1 X189.789 Y155.824 E6.98034
G1 X189.789 Y162.5 E7.18018
G1 X189.775 Y162.962 E7.19401
G1 X189.687 Y164.446 E7.23851
G1 X189.561 Y165.456 E7.26898
G1 X189.263 Y167.007 E7.31626
G1 X189.007 Y167.99 E7.34666
G1 X188.512 Y169.483 E7.39375
G1 X188.117 Y170.451 E7.42504
G1 X187.425 Y171.868 E7.47225
G1 X186.923 Y172.745 E7.5025
G1 X186.054 Y174.06 E7.54968
G1 X185.431 Y174.881 E7.58053
G1 X184.397 Y176.069 E7.62768
G1 X183.676 Y176.794 E7.65828
G1 X182.495 Y177.837 E7.70545
G1 X181.685 Y178.463 E7.73609
G1 X180.375 Y179.344 E7.78335
G1 X179.49 Y179.858 E7.81398
G1 X178.078 Y180.559 E7.86117
G1 X177.123 Y180.957 E7.89214
G1 X175.633 Y181.464 E7.93926
G1 X174.647 Y181.729 E7.96982
G1 X173.099 Y182.038 E8.01707
G1 X172.086 Y182.172 E8.04766
G1 X170.859 Y182.253 E8.08447
G1 X170.407 Y182.27 E8.09801
G1 X167.899 Y182.29 E8.17308
G1 X167.837 Y182.29 E8.17494
G1 X71.49 Y182.289 E11.059
G1 X65 Y182.289 E11.25328
G1 X64.505 Y182.273 E11.2681
G1 X62.933 Y182.173 E11.31525
G1 X61.905 Y182.039 E11.34628
G1 X60.358 Y181.731 E11.3935
G1 X59.368 Y181.465 E11.42419
G1 X57.878 Y180.958 E11.4713
G1 X56.923 Y180.56 E11.50227
G1 X55.511 Y179.859 E11.54946
G1 X54.651 Y179.362 E11.57919
G1 X53.627 Y178.679 E11.61604
G1 X53.515 Y178.603 E11.62009
G1 X53.229 Y178.405 E11.6305
G1 X52.506 Y177.838 E11.65801
G1 X51.325 Y176.795 E11.70517
G1 X50.623 Y176.091 E11.73493
G1 X49.813 Y175.167 E11.77171
G1 X49.73 Y175.071 E11.77551
G1 X49.506 Y174.807 E11.78588
G1 X48.967 Y174.092 E11.81268
G1 X48.284 Y173.069 E11.8495
G1 X48.192 Y172.929 E11.85451
G1 X48.006 Y172.637 E11.86488
G1 X47.59 Y171.896 E11.89032
G1 X47.046 Y170.793 E11.92713
G1 X46.985 Y170.669 E11.93127
G1 X46.837 Y170.355 E11.94166
G1 X46.503 Y169.524 E11.96847
G1 X46.11 Y168.36 E12.00524
G1 X46.05 Y168.175 E12.01107
G1 X45.948 Y167.846 E12.02138
G1 X45.748 Y167.056 E12.04577
G1 X45.508 Y165.848 E12.08264
G1 X45.468 Y165.632 E12.08921
G1 X45.41 Y165.29 E12.0996
G1 X45.317 Y164.494 E12.12359
G1 X45.237 Y163.268 E12.16036
G1 X45.22 Y162.791 E12.17465
G1 X45.21 Y160.306 E12.24904
G1 X45.21 Y160.275 E12.24997
G1 X45.211 Y79.176 E14.67759
G1 X45.211 Y72.5 E14.87743
G1 X45.224 Y72.049 E14.89094
G1 X45.3 Y70.736 E14.93031
G1 X45.407 Y69.825 E14.95777
G1 X45.682 Y68.274 E15.00492
G1 X45.924 Y67.287 E15.03534
G1 X46.398 Y65.786 E15.08246
G1 X46.774 Y64.822 E15.11343
G1 X47.443 Y63.396 E15.16058
G1 X47.94 Y62.497 E15.19133
G1 X48.792 Y61.169 E15.23856
G1 X49.397 Y60.349 E15.26906
G1 X50.411 Y59.148 E15.31611
G1 X51.124 Y58.409 E15.34685
G1 X52.292 Y57.347 E15.39411
G0 F3600 X52.561 Y57.643
G1 F1800 X53.322 Y57.037 E15.42323
G1 X54.614 Y56.141 E15.47029
G1 X55.445 Y55.642 E15.49931
G1 X56.846 Y54.921 E15.54647
G1 X57.746 Y54.531 E15.57584
G1 X59.229 Y54.002 E15.62297
G1 X60.153 Y53.739 E15.65173
G1 X61.695 Y53.406 E15.69895
G1 X62.665 Y53.263 E15.7283
G1 X64.236 Y53.137 E15.77548
G1 X64.825 Y53.113 E15.79312
G1 X71.486 Y53.11 E15.99251
G1 X71.489 Y53.11 E15.9926
G1 X163.51 Y53.111 E18.74717
G1 X170 Y53.111 E18.94144
G1 X170.423 Y53.123 E18.95411
G1 X171.821 Y53.203 E18.99603
G1 X172.743 Y53.314 E19.02382
G1 X174.296 Y53.601 E19.0711
G1 X175.235 Y53.839 E19.1001
G1 X176.73 Y54.324 E19.14714
G1 X177.64 Y54.688 E19.17648
G1 X179.063 Y55.369 E19.22371
G1 X179.904 Y55.841 E19.25257
G1 X181.226 Y56.701 E19.29978
G1 X182.008 Y57.287 E19.32903
G1 X183.202 Y58.311 E19.37612
G1 X183.894 Y58.987 E19.40508
G1 X184.946 Y60.16 E19.45224
G1 X185.55 Y60.931 E19.48156
G1 X186.438 Y62.233 E19.52874
G1 X186.929 Y63.064 E19.55763
G1 X187.64 Y64.47 E19.60479
G1 X188.023 Y65.372 E19.63413
G1 X188.542 Y66.86 E19.6813
G1 X188.8 Y67.792 E19.71025
G1 X189.121 Y69.337 E19.75748
G1 X189.256 Y70.297 E19.7865
G1 X189.372 Y71.867 E19.83363
G1 X189.392 Y72.415 E19.85004
G1 X189.39 Y76.953 E19.98588
G1 X189.389 Y155.824 E22.34682
G1 X189.389 Y162.5 E22.54666
G1 X189.376 Y162.938 E22.55978
G1 X189.288 Y164.422 E22.60428
G1 X189.168 Y165.38 E22.63318
G1 X188.87 Y166.931 E22.68045
G1 X188.627 Y167.864 E22.70931
G1 X188.132 Y169.357 E22.7564
G1 X187.757 Y170.275 E22.78608
G1 X187.065 Y171.692 E22.83329
G1 X186.59 Y172.525 E22.86199
G1 X185.721 Y173.84 E22.90917
G1 X185.129 Y174.618 E22.93844
G1 X184.095 Y175.806 E22.98558
G1 X183.411 Y176.495 E23.01464
G1 X182.23 Y177.538 E23.06181
G1 X181.462 Y178.132 E23.09087
G1 X180.152 Y179.013 E23.13813
G1 X179.313 Y179.5 E23.16717
G1 X177.901 Y180.201 E23.21436
G1 X176.994 Y180.579 E23.24377
G1 X175.504 Y181.086 E23.29088
G1 X174.569 Y181.337 E23.31986
G1 X173.021 Y181.646 E23.36712
G1 X172.059 Y181.773 E23.39616
G1 X170.832 Y181.854 E23.43297
G1 X170.404 Y181.87 E23.44579
G1 X167.896 Y181.89 E23.52087
G1 X167.837 Y181.89 E23.52263
G1 X71.49 Y181.889 E26.4067
G1 X65 Y181.889 E26.60097
G1 X64.53 Y181.874 E26.61505
G1 X62.958 Y181.774 E26.6622
G1 X61.983 Y181.647 E26.69163
G1 X60.436 Y181.339 E26.73885
G1 X59.497 Y181.087 E26.76795
G1 X58.007 Y180.58 E26.81506
G1 X57.1 Y180.202 E26.84448
G1 X55.688 Y179.501 E26.89167
G1 X54.873 Y179.029 E26.91986
G1 X53.849 Y178.346 E26.9567
G1 X53.743 Y178.274 E26.96054
G1 X53.457 Y178.076 E26.97095
G1 X52.771 Y177.539 E26.99703
G1 X51.59 Y176.496 E27.0442
G1 X50.923 Y175.827 E27.07247
G1 X50.113 Y174.903 E27.10926
G1 X50.035 Y174.813 E27.11282
G1 X49.811 Y174.549 E27.12318
G1 X49.3 Y173.87 E27.14862
G1 X48.617 Y172.847 E27.18544
G1 X48.53 Y172.714 E27.1902
G1 X48.344 Y172.422 E27.20056
G1 X47.948 Y171.719 E27.22472
G1 X47.404 Y170.616 E27.26153
G1 X47.347 Y170.498 E27.26545
G1 X47.199 Y170.184 E27.27585
G1 X46.882 Y169.396 E27.30127
G1 X46.489 Y168.232 E27.33805
G1 X46.432 Y168.056 E27.34358
G1 X46.33 Y167.727 E27.35389
G1 X46.14 Y166.978 E27.37703
G1 X45.9 Y165.77 E27.41389
G1 X45.862 Y165.565 E27.42013
G1 X45.804 Y165.223 E27.43052
G1 X45.716 Y164.468 E27.45327
G1 X45.636 Y163.242 E27.49005
G1 X45.62 Y162.79 E27.50359
G1 X45.61 Y160.305 E27.57797
G1 X45.61 Y160.275 E27.57887
G1 X45.611 Y79.176 E30.0065
G1 X45.611 Y72.5 E30.20634
G1 X45.623 Y72.072 E30.21916
G1 X45.699 Y70.759 E30.25853
G1 X45.801 Y69.895 E30.28457
G1 X46.076 Y68.344 E30.33172
G1 X46.305 Y67.408 E30.36056
G1 X46.779 Y65.907 E30.40768
G1 X47.137 Y64.992 E30.43709
G1 X47.806 Y63.566 E30.48424
G1 X48.277 Y62.713 E30.51341
G1 X49.129 Y61.385 E30.56064
G1 X49.703 Y60.607 E30.58958
G1 X50.717 Y59.406 E30.63663
G1 X51.393 Y58.705 E30.66579
G1 X52.561 Y57.643 E30.71304
G0 F3600 X52.83 Y57.939
G1 F1800 X53.55 Y57.366 E30.74059
G1 X54.842 Y56.47 E30.78765
G1 X55.628 Y55.998 E30.81509
G1 X57.029 Y55.277 E30.86226
G1 X57.88 Y54.908 E30.89003
G1 X59.363 Y54.379 E30.93716
G1 X60.237 Y54.13 E30.96436
G1 X61.779 Y53.797 E31.01158
G1 X62.697 Y53.661 E31.03936
G1 X64.268 Y53.535 E31.08654
G1 X64.825 Y53.513 E31.10323
G1 X71.486 Y53.51 E31.30262
G1 X71.489 Y53.51 E31.30271
G1 X163.51 Y53.511 E34.05728
G1 X170 Y53.511 E34.25155
G1 X170.4 Y53.522 E34.26353
G1 X171.798 Y53.602 E34.30544
G1 X172.67 Y53.708 E34.33174
G1 X174.223 Y53.995 E34.37901
G1 X175.111 Y54.22 E34.40643
G1 X176.606 Y54.705 E34.45348
G1 X177.468 Y55.049 E34.48126
G1 X178.891 Y55.73 E34.52849
G1 X179.686 Y56.176 E34.55577
G1 X181.008 Y57.036 E34.60298
G1 X181.748 Y57.59 E34.63065
G1 X182.942 Y58.614 E34.67774
G1 X183.596 Y59.254 E34.70513
G1 X184.648 Y60.427 E34.7523
G1 X185.22 Y61.157 E34.78006
G1 X186.108 Y62.459 E34.82723
G1 X186.572 Y63.244 E34.85453
G1 X187.283 Y64.65 E34.90169
G1 X187.645 Y65.504 E34.92946
G1 X188.164 Y66.992 E34.97663
G1 X188.409 Y67.873 E35.004
G1 X188.73 Y69.418 E35.05124
G1 X188.857 Y70.326 E35.07868
G1 X188.973 Y71.896 E35.12581
G1 X188.992 Y72.415 E35.14135
G1 X188.99 Y76.953 E35.2772
G1 X188.989 Y155.824 E37.63813
G1 X188.989 Y162.5 E37.83797
G1 X188.977 Y162.914 E37.85037
G1 X188.889 Y164.398 E37.89487
G1 X188.775 Y165.305 E37.92223
G1 X188.477 Y166.856 E37.96951
G1 X188.247 Y167.738 E37.99679
G1 X187.752 Y169.231 E38.04388
G1 X187.398 Y170.1 E38.07197
G1 X186.706 Y171.517 E38.11917
G1 X186.256 Y172.304 E38.14631
G1 X185.387 Y173.619 E38.19349
G1 X184.827 Y174.356 E38.2212
G1 X183.793 Y175.544 E38.26834
G1 X183.147 Y176.195 E38.2958
G1 X181.966 Y177.238 E38.34296
G1 X181.238 Y177.8 E38.37049
G1 X179.928 Y178.681 E38.41775
G1 X179.135 Y179.142 E38.44521
G1 X177.723 Y179.843 E38.49239
G1 X176.865 Y180.2 E38.52021
G1 X175.375 Y180.707 E38.56733
G1 X174.49 Y180.945 E38.59476
G1 X172.942 Y181.254 E38.64201
G1 X172.033 Y181.374 E38.66946
G1 X170.806 Y181.455 E38.70627
G1 X170.401 Y181.47 E38.7184
G1 X167.893 Y181.49 E38.79348
G1 X167.837 Y181.49 E38.79515
G1 X71.49 Y181.489 E41.67921
G1 X65 Y181.489 E41.87349
G1 X64.556 Y181.475 E41.88678
G1 X62.984 Y181.375 E41.93394
G1 X62.061 Y181.254 E41.9618
G1 X60.514 Y180.946 E42.00902
G1 X59.626 Y180.708 E42.03654
G1 X58.136 Y180.201 E42.08365
G1 X57.278 Y179.844 E42.11147
G1 X55.866 Y179.143 E42.15866
G1 X55.095 Y178.696 E42.18534
G1 X54.071 Y178.013 E42.22218
G1 X53.971 Y177.945 E42.2258
G1 X53.685 Y177.747 E42.23621
G1 X53.035 Y177.239 E42.26091
G1 X51.854 Y176.196 E42.30807
G1 X51.224 Y175.563 E42.33481
G1 X50.414 Y174.639 E42.37159
G1 X50.34 Y174.554 E42.37496
G1 X50.116 Y174.29 E42.38533
G1 X49.632 Y173.648 E42.40939
G1 X48.949 Y172.625 E42.44621
G1 X48.867 Y172.499 E42.45071
G1 X48.681 Y172.207 E42.46108
G1 X48.307 Y171.542 E42.48392
G1 X47.763 Y170.439 E42.52073
G1 X47.709 Y170.327 E42.52445
G1 X47.561 Y170.013 E42.53484
G1 X47.261 Y169.268 E42.55888
G1 X46.868 Y168.104 E42.59566
G1 X46.814 Y167.938 E42.60089
G1 X46.712 Y167.609 E42.6112
G1 X46.532 Y166.9 E42.63309
G1 X46.292 Y165.692 E42.66996
G1 X46.257 Y165.498 E42.67586
G1 X46.199 Y165.156 E42.68624
G1 X46.115 Y164.442 E42.70777
G1 X46.035 Y163.216 E42.74454
G1 X46.02 Y162.788 E42.75736
G1 X46.01 Y160.303 E42.83175
G1 X46.01 Y160.275 E42.83259
G1 X46.011 Y79.176 E45.26021
G1 X46.011 Y72.5 E45.46005
G1 X46.023 Y72.095 E45.47218
G1 X46.099 Y70.782 E45.51155
G1 X46.195 Y69.965 E45.53618
G1 X46.47 Y68.414 E45.58333
G1 X46.687 Y67.528 E45.61063
G1 X47.161 Y66.027 E45.65775
G1 X47.499 Y65.162 E45.68555
G1 X48.168 Y63.736 E45.7327
G1 X48.613 Y62.929 E45.76029
G1 X49.465 Y61.601 E45.80752
G1 X50.008 Y60.865 E45.8349
G1 X51.022 Y59.664 E45.88195
G1 X51.662 Y59.001 E45.90953
G1 X52.83 Y57.939 E45.95679
G0 F3600 X53.099 Y58.235
G1 F1800 X53.778 Y57.695 E45.98276
G1 X55.07 Y56.799 E46.02982
G1 X55.811 Y56.354 E46.0557
G1 X57.212 Y55.633 E46.10286
G1 X58.015 Y55.285 E46.12906
G1 X59.498 Y54.756 E46.17619
G1 X60.322 Y54.521 E46.20184
G1 X61.864 Y54.188 E46.24906
G1 X62.729 Y54.06 E46.27524
G1 X64.3 Y53.934 E46.32241
G1 X64.825 Y53.913 E46.33814
G1 X71.486 Y53.91 E46.53753
G1 X71.489 Y53.91 E46.53762
G1 X163.51 Y53.911 E49.29219
G1 X170 Y53.911 E49.48646
G1 X170.377 Y53.922 E49.49775
G1 X171.775 Y54.002 E49.53967
G1 X172.597 Y54.101 E49.56445
G1 X174.15 Y54.388 E49.61173
G1 X174.988 Y54.6 E49.6376
G1 X176.483 Y55.085 E49.68465
G1 X177.295 Y55.41 E49.71083
G1 X178.718 Y56.091 E49.75806
G1 X179.468 Y56.512 E49.7838
G1 X180.79 Y57.372 E49.83101
G1 X181.488 Y57.894 E49.8571
G1 X182.682 Y58.918 E49.90419
G1 X183.298 Y59.521 E49.92999
G1 X184.35 Y60.694 E49.97716
G1 X184.89 Y61.382 E50.00334
G1 X185.778 Y62.684 E50.05051
G1 X186.215 Y63.425 E50.07626
G1 X186.926 Y64.831 E50.12343
G1 X187.268 Y65.635 E50.14958
G1 X187.787 Y67.123 E50.19675
G1 X188.017 Y67.954 E50.22256
G1 X188.338 Y69.499 E50.2698
G1 X188.458 Y70.356 E50.2957
G1 X188.574 Y71.926 E50.34283
G1 X188.592 Y72.415 E50.35748
G1 X188.59 Y76.953 E50.49332
G1 X188.589 Y155.824 E52.85425
G1 X188.589 Y162.5 E53.05409
G1 X188.577 Y162.891 E53.0658
G1 X188.489 Y164.375 E53.1103
G1 X188.382 Y165.229 E53.13606
G1 X188.084 Y166.78 E53.18334
G1 X187.868 Y167.612 E53.20907
G1 X187.373 Y169.105 E53.25616
G1 X187.039 Y169.924 E53.28263
G1 X186.347 Y171.341 E53.32984
G1 X185.922 Y172.084 E53.35546
G1 X185.053 Y173.399 E53.40264
G1 X184.525 Y174.093 E53.42874
G1 X183.491 Y175.281 E53.47589
G1 X182.882 Y175.895 E53.50178
G1 X181.701 Y176.938 E53.54894
G1 X181.015 Y177.468 E53.57489
G1 X179.705 Y178.349 E53.62215
G1 X178.957 Y178.784 E53.64805
G1 X177.545 Y179.485 E53.69524
G1 X176.736 Y179.821 E53.72146
G1 X175.246 Y180.328 E53.76857
G1 X174.412 Y180.552 E53.79442
G1 X172.864 Y180.861 E53.84168
G1 X172.007 Y180.975 E53.86756
G1 X170.78 Y181.056 E53.90437
G1 X170.398 Y181.07 E53.91581
G1 X167.89 Y181.09 E53.99088
G1 X167.837 Y181.09 E53.99247
G1 X71.49 Y181.089 E56.87653
G1 X65 Y181.089 E57.07081
G1 X64.581 Y181.076 E57.08336
G1 X63.009 Y180.976 E57.13051
G1 X62.139 Y180.862 E57.15677
G1 X60.592 Y180.554 E57.20399
G1 X59.755 Y180.329 E57.22993
G1 X58.265 Y179.822 E57.27705
G1 X57.456 Y179.486 E57.30327
G1 X56.044 Y178.785 E57.35046
G1 X55.317 Y178.364 E57.37561
G1 X54.293 Y177.681 E57.41245
G1 X54.198 Y177.616 E57.4159
G1 X53.912 Y177.418 E57.42631
G1 X53.3 Y176.939 E57.44957
G1 X52.119 Y175.896 E57.49674
G1 X51.525 Y175.3 E57.52193
G1 X50.715 Y174.376 E57.55871
G1 X50.645 Y174.295 E57.56191
G1 X50.421 Y174.031 E57.57228
G1 X49.965 Y173.426 E57.59496
G1 X49.282 Y172.403 E57.63178
G1 X49.204 Y172.284 E57.63603
G1 X49.018 Y171.992 E57.6464
G1 X48.666 Y171.365 E57.66792
G1 X48.122 Y170.262 E57.70474
G1 X48.071 Y170.157 E57.70823
G1 X47.923 Y169.843 E57.71862
G1 X47.64 Y169.14 E57.74131
G1 X47.247 Y167.976 E57.77808
G1 X47.196 Y167.819 E57.78302
G1 X47.094 Y167.49 E57.79334
G1 X46.925 Y166.822 E57.81396
G1 X46.685 Y165.614 E57.85083
G1 X46.651 Y165.432 E57.85637
G1 X46.593 Y165.09 E57.86675
G1 X46.514 Y164.416 E57.88707
G1 X46.434 Y163.19 E57.92385
G1 X46.42 Y162.787 E57.93592
G1 X46.41 Y160.302 E58.0103
G1 X46.41 Y160.275 E58.01111
G1 X46.411 Y79.176 E60.43874
G1 X46.411 Y72.5 E60.63858
G1 X46.422 Y72.119 E60.64999
G1 X46.498 Y70.806 E60.68936
G1 X46.588 Y70.035 E60.71259
G1 X46.863 Y68.484 E60.75975
G1 X47.068 Y67.649 E60.78548
G1 X47.542 Y66.148 E60.8326
G1 X47.861 Y65.332 E60.85883
G1 X48.53 Y63.906 E60.90598
G1 X48.95 Y63.145 E60.932
G1 X49.802 Y61.817 E60.97923
G1 X50.314 Y61.123 E61.00504
G1 X51.328 Y59.922 E61.05209
G1 X51.931 Y59.297 E61.07809
G1 X53.099 Y58.235 E61.12535
G0 F3600 X53.368 Y58.531
G1 F1800 X54.006 Y58.023 E61.14976
G1 X55.298 Y57.127 E61.19682
G1 X55.994 Y56.709 E61.22113
