;FLAVOR:Marlin
;TIME:14165
;Filament used: 10.0953m
;Layer height: 0.2
;MINX:8.2
;MINY:95.173
;MINZ:0.2
;MAXX:226.8
;MAXY:148.038
;MAXZ:8.8
;Generated with Cura_SteamEngine 4.1.0
M140 S70
M105
M190 S70
M104 S210
M105
M109 S210
M82 ;absolute extrusion mode
; Ender 3 Custom Start G-code
G28 ; Home all axes
M420 S1
G92 E0 ; Reset Extruder
G1 Z2.0 F3000 ; Move Z Axis up little to prevent scratching of Heat Bed
G1 X0.1 Y20 Z0.3 F5000.0 ; Move to start position
G1 X0.1 Y200.0 Z0.3 F1500.0 E15 ; Draw the first line
G1 X0.4 Y200.0 Z0.3 F5000.0 ; Move to side a little
G1 X0.4 Y20 Z0.3 F1500.0 E30 ; Draw the second line
G92 E0 ; Reset Extruder
G1 Z2.0 F3000 ; Move Z Axis up little to prevent scratching of Heat Bed
G92 E0
G92 E0
G1 F3600 E-6
;LAYER_COUNT:44
;LAYER:0
M107
M204 S500
M205 X10 Y10
G0 F3600 X14.738 Y95.849 Z0.2
;TYPE:SKIRT
G1 F3600 E0
G1 F1800 X15.522 Y95.749 E0.02366
G1 X16.107 Y95.726 E0.04118
G1 X16.923 Y95.725 E0.06561
G1 X17.712 Y95.764 E0.08926
G1 X18.493 Y95.883 E0.1129
G1 X19.258 Y96.079 E0.13654
G1 X19.999 Y96.353 E0.16019
G1 X20.522 Y96.608 E0.17761
G1 X20.619 Y96.535 E0.18124
G1 X21.292 Y96.122 E0.20488
G1 X22.004 Y95.78 E0.22853
G1 X22.747 Y95.512 E0.25217
G1 X23.513 Y95.32 E0.27581
G1 X24.294 Y95.207 E0.29943
G1 X25.022 Y95.173 E0.32125
G1 X44.838 Y95.174 E0.91442
G1 X209.984 Y95.173 E5.85792
G1 X210.773 Y95.213 E5.88157
G1 X211.554 Y95.333 E5.90522
G1 X212.318 Y95.53 E5.92884
G1 X213.059 Y95.805 E5.9525
G1 X213.768 Y96.152 E5.97613
G1 X214.438 Y96.57 E5.99977
G1 X214.479 Y96.602 E6.00132
G1 X215.172 Y96.283 E6.02416
G1 X215.919 Y96.028 E6.04779
G1 X216.688 Y95.849 E6.07142
G1 X217.472 Y95.749 E6.09508
G1 X218.067 Y95.726 E6.11291
G1 X218.883 Y95.726 E6.13733
G1 X219.672 Y95.766 E6.16098
G1 X220.452 Y95.885 E6.1846
G1 X221.217 Y96.083 E6.20825
G1 X221.957 Y96.357 E6.23187
G1 X222.666 Y96.705 E6.25552
G1 X223.337 Y97.123 E6.27918
G1 X223.961 Y97.606 E6.3028
G1 X224.398 Y98.011 E6.32064
G1 X224.515 Y98.128 E6.32559
G1 X225.045 Y98.714 E6.34924
G1 X225.512 Y99.35 E6.37286
G1 X225.913 Y100.03 E6.39649
G1 X226.243 Y100.748 E6.42015
G1 X226.498 Y101.495 E6.44377
G1 X226.677 Y102.264 E6.46741
G1 X226.777 Y103.048 E6.49107
G1 X226.8 Y103.643 E6.50889
G1 X226.8 Y104.041 E6.5208
G1 X226.76 Y104.83 E6.54445
G1 X226.641 Y105.61 E6.56807
G1 X226.443 Y106.375 E6.59173
G1 X226.169 Y107.115 E6.61535
G1 X225.821 Y107.824 E6.63899
G1 X225.461 Y108.402 E6.65937
G1 X225.531 Y108.498 E6.66293
G1 X225.928 Y109.18 E6.68655
G1 X226.255 Y109.899 E6.71019
G1 X226.508 Y110.647 E6.73383
G1 X226.683 Y111.417 E6.75747
G1 X226.78 Y112.201 E6.78112
G1 X226.8 Y112.763 E6.79795
G1 X226.8 Y139.523 E7.59899
G1 X226.76 Y140.312 E7.62263
G1 X226.641 Y141.092 E7.64625
G1 X226.488 Y141.707 E7.66522
G1 X226.376 Y142.091 E7.6772
G1 X226.117 Y142.837 E7.70084
G1 X225.783 Y143.553 E7.72449
G1 X225.38 Y144.231 E7.7481
G1 X224.909 Y144.866 E7.77176
G1 X224.183 Y145.634 E7.8034
G1 X223.918 Y145.879 E7.8142
G1 X223.312 Y146.385 E7.83783
G1 X222.658 Y146.828 E7.86148
G1 X221.962 Y147.201 E7.88512
G1 X221.232 Y147.503 E7.90876
G1 X220.568 Y147.706 E7.92955
G1 X220.234 Y147.792 E7.93987
G1 X219.46 Y147.95 E7.96352
G1 X218.287 Y148.038 E7.99873
G1 X213.256 Y148.037 E8.14933
G1 X24.027 Y148.038 E13.81373
G1 X24.026 Y148.038 E13.81376
G1 X16.711 Y148.037 E14.03273
G1 X15.922 Y147.997 E14.05638
G1 X15.142 Y147.877 E14.08
G1 X14.53 Y147.726 E14.09887
G1 X14.149 Y147.615 E14.11075
G1 X13.403 Y147.356 E14.13439
G1 X12.687 Y147.023 E14.15803
G1 X12.009 Y146.619 E14.18165
G1 X11.374 Y146.149 E14.2053
G1 X10.604 Y145.421 E14.23702
G1 X10.359 Y145.156 E14.24782
G1 X9.853 Y144.55 E14.27146
G1 X9.41 Y143.896 E14.2951
G1 X9.037 Y143.2 E14.31874
G1 X8.735 Y142.47 E14.34239
G1 X8.534 Y141.811 E14.36301
G1 X8.448 Y141.478 E14.37331
G1 X8.289 Y140.705 E14.39693
G1 X8.2 Y139.528 E14.43226
G1 X8.2 Y112.773 E15.23315
G1 X8.24 Y111.984 E15.2568
G1 X8.359 Y111.204 E15.28042
G1 X8.557 Y110.439 E15.30407
G1 X8.831 Y109.699 E15.32769
G1 X9.179 Y108.99 E15.35133
G1 X9.542 Y108.407 E15.37189
G1 X9.488 Y108.334 E15.37461
G1 X9.087 Y107.654 E15.39824
G1 X8.757 Y106.936 E15.4219
G1 X8.502 Y106.189 E15.44552
G1 X8.323 Y105.42 E15.46916
G1 X8.223 Y104.636 E15.49282
G1 X8.2 Y104.041 E15.51064
G1 X8.2 Y103.643 E15.52255
G1 X8.24 Y102.854 E15.5462
G1 X8.359 Y102.074 E15.56982
G1 X8.557 Y101.309 E15.59348
G1 X8.831 Y100.569 E15.6171
G1 X9.179 Y99.86 E15.64074
G1 X9.597 Y99.189 E15.6644
G1 X10.08 Y98.565 E15.68802
G1 X10.485 Y98.128 E15.70586
G1 X10.602 Y98.011 E15.71081
G1 X11.188 Y97.481 E15.73446
G1 X11.824 Y97.014 E15.75808
G1 X12.504 Y96.613 E15.78171
G1 X13.222 Y96.283 E15.80537
G1 X13.969 Y96.028 E15.829
G1 X14.738 Y95.849 E15.85263
G0 F3600 X14.927 Y96.222
G1 F1800 X15.692 Y96.138 E15.87567
G1 X16.108 Y96.126 E15.88812
G1 X16.924 Y96.125 E15.91255
G1 X17.692 Y96.164 E15.93557
G1 X18.452 Y96.283 E15.9586
G1 X19.196 Y96.479 E15.98163
G1 X19.915 Y96.752 E16.00465
G1 X20.562 Y97.078 E16.02634
G1 X21.011 Y96.754 E16.04291
G1 X21.678 Y96.371 E16.06593
G1 X22.382 Y96.06 E16.08897
G1 X23.113 Y95.823 E16.11198
G1 X23.866 Y95.664 E16.13501
G1 X24.631 Y95.583 E16.15804
G1 X25.022 Y95.573 E16.16975
G1 X44.838 Y95.574 E16.76292
G1 X209.984 Y95.573 E21.70642
G1 X210.752 Y95.613 E21.72944
G1 X211.512 Y95.733 E21.75248
G1 X212.256 Y95.93 E21.77552
G1 X212.974 Y96.204 E21.79852
G1 X213.661 Y96.551 E21.82156
G1 X214.308 Y96.967 E21.84458
G1 X214.45 Y97.081 E21.85004
G1 X214.693 Y96.94 E21.85844
G1 X215.395 Y96.625 E21.88148
G1 X216.126 Y96.385 E21.90451
G1 X216.877 Y96.222 E21.92751
G1 X217.642 Y96.138 E21.95055
G1 X218.067 Y96.126 E21.96328
G1 X218.883 Y96.126 E21.9877
G1 X219.651 Y96.166 E22.01072
G1 X220.411 Y96.285 E22.03375
G1 X221.154 Y96.483 E22.05677
G1 X221.873 Y96.757 E22.0798
G1 X222.559 Y97.104 E22.10281
G1 X223.206 Y97.52 E22.12584
G1 X223.806 Y98.001 E22.14886
G1 X224.116 Y98.293 E22.16161
G1 X224.233 Y98.41 E22.16656
G1 X224.747 Y98.982 E22.18958
G1 X225.2 Y99.604 E22.21261
G1 X225.586 Y100.269 E22.23563
G1 X225.901 Y100.971 E22.25866
G1 X226.141 Y101.702 E22.28169
G1 X226.304 Y102.453 E22.3047
G1 X226.388 Y103.218 E22.32773
G1 X226.4 Y103.643 E22.34046
G1 X226.4 Y104.041 E22.35237
G1 X226.36 Y104.809 E22.37539
G1 X226.241 Y105.569 E22.39842
G1 X226.043 Y106.312 E22.42144
G1 X225.769 Y107.031 E22.44447
G1 X225.422 Y107.717 E22.46748
G1 X225.006 Y108.364 E22.49051
G1 X224.971 Y108.408 E22.49219
G1 X225.218 Y108.75 E22.50482
G1 X225.6 Y109.417 E22.52783
G1 X225.912 Y110.12 E22.55085
G1 X226.149 Y110.852 E22.57388
G1 X226.309 Y111.605 E22.59693
G1 X226.39 Y112.37 E22.61995
G1 X226.4 Y112.763 E22.63172
G1 X226.4 Y139.523 E23.43276
G1 X226.36 Y140.291 E23.45578
G1 X226.241 Y141.051 E23.47881
G1 X226.104 Y141.595 E23.4956
G1 X225.992 Y141.979 E23.50757
G1 X225.739 Y142.705 E23.53059
G1 X225.411 Y143.401 E23.55362
G1 X225.013 Y144.059 E23.57664
G1 X224.549 Y144.673 E23.59968
G1 X223.912 Y145.341 E23.62731
G1 X223.647 Y145.586 E23.63811
G1 X223.055 Y146.078 E23.66115
G1 X222.416 Y146.506 E23.68417
G1 X221.736 Y146.865 E23.70719
G1 X221.023 Y147.152 E23.7302
G1 X220.468 Y147.318 E23.74754
G1 X220.134 Y147.404 E23.75786
G1 X219.38 Y147.557 E23.78089
G1 X218.288 Y147.638 E23.81367
G1 X213.257 Y147.637 E23.96427
G1 X24.027 Y147.638 E29.6287
G1 X24.026 Y147.638 E29.62873
G1 X16.711 Y147.637 E29.8477
G1 X15.943 Y147.597 E29.87072
G1 X15.183 Y147.477 E29.89375
G1 X14.642 Y147.342 E29.91045
G1 X14.261 Y147.231 E29.92232
G1 X13.535 Y146.977 E29.94535
G1 X12.839 Y146.65 E29.96837
G1 X12.18 Y146.252 E29.99141
G1 X11.567 Y145.789 E30.01441
G1 X10.897 Y145.15 E30.04212
G1 X10.652 Y144.885 E30.05293
G1 X10.16 Y144.293 E30.07597
G1 X9.732 Y143.654 E30.09899
G1 X9.373 Y142.974 E30.12201
G1 X9.086 Y142.261 E30.14502
G1 X8.921 Y141.711 E30.1622
G1 X8.835 Y141.378 E30.1725
G1 X8.682 Y140.625 E30.1955
G1 X8.6 Y139.528 E30.22843
G1 X8.6 Y112.773 E31.02932
G1 X8.64 Y112.005 E31.05234
G1 X8.759 Y111.245 E31.07536
G1 X8.957 Y110.502 E31.09838
G1 X9.231 Y109.783 E31.12141
G1 X9.578 Y109.097 E31.14443
G1 X9.994 Y108.45 E31.16745
G1 X10.034 Y108.402 E31.16932
G1 X9.8 Y108.08 E31.18124
G1 X9.414 Y107.415 E31.20425
G1 X9.099 Y106.713 E31.22729
G1 X8.859 Y105.982 E31.25032
G1 X8.696 Y105.231 E31.27332
G1 X8.612 Y104.466 E31.29636
G1 X8.6 Y104.041 E31.30909
G1 X8.6 Y103.643 E31.321
G1 X8.64 Y102.875 E31.34402
G1 X8.759 Y102.115 E31.36705
G1 X8.957 Y101.372 E31.39006
G1 X9.231 Y100.653 E31.4131
G1 X9.578 Y99.967 E31.43611
G1 X9.994 Y99.32 E31.45913
G1 X10.475 Y98.72 E31.48215
G1 X10.767 Y98.41 E31.4949
G1 X10.884 Y98.293 E31.49985
G1 X11.456 Y97.779 E31.52287
G1 X12.078 Y97.326 E31.54591
G1 X12.743 Y96.94 E31.56892
G1 X13.445 Y96.625 E31.59196
G1 X14.176 Y96.385 E31.61499
G1 X14.927 Y96.222 E31.63799
G0 F3600 X15.113 Y96.598
G1 F1800 X16.108 Y96.526 E31.66785
G1 X16.924 Y96.525 E31.69228
G1 X17.671 Y96.564 E31.71467
G1 X18.41 Y96.683 E31.73708
G1 X19.132 Y96.879 E31.75947
G1 X19.828 Y97.152 E31.78185
G1 X20.492 Y97.497 E31.80425
G1 X20.592 Y97.564 E31.80785
G1 X20.783 Y97.402 E31.81535
G1 X21.402 Y96.982 E31.83774
G1 X22.062 Y96.63 E31.86013
G1 X22.756 Y96.35 E31.88254
G1 X23.476 Y96.146 E31.90494
G1 X24.213 Y96.02 E31.92732
G1 X25.022 Y95.973 E31.95158
G1 X44.838 Y95.974 E32.54475
G1 X209.984 Y95.973 E37.48825
G1 X210.731 Y96.013 E37.51064
G1 X211.47 Y96.133 E37.53305
G1 X212.191 Y96.33 E37.55543
G1 X212.888 Y96.604 E37.57785
G1 X213.551 Y96.95 E37.60023
G1 X214.173 Y97.365 E37.62262
G1 X214.412 Y97.564 E37.63193
G1 X214.93 Y97.268 E37.64978
G1 X215.616 Y96.969 E37.67218
G1 X216.33 Y96.745 E37.69458
G1 X217.063 Y96.598 E37.71696
G1 X218.067 Y96.526 E37.74709
G1 X218.883 Y96.526 E37.77152
G1 X219.63 Y96.566 E37.79391
G1 X220.368 Y96.685 E37.81629
G1 X221.09 Y96.883 E37.8387
G1 X221.786 Y97.156 E37.86108
G1 X222.449 Y97.503 E37.88348
G1 X223.072 Y97.918 E37.90589
G1 X223.833 Y98.576 E37.936
G1 X223.95 Y98.693 E37.94096
G1 X224.45 Y99.25 E37.96336
G1 X224.887 Y99.856 E37.98573
G1 X225.258 Y100.506 E38.00813
G1 X225.557 Y101.192 E38.03053
G1 X225.781 Y101.906 E38.05293
G1 X225.928 Y102.639 E38.07531
G1 X226 Y103.643 E38.10544
G1 X226 Y104.041 E38.11735
G1 X225.96 Y104.788 E38.13975
G1 X225.841 Y105.526 E38.16212
G1 X225.643 Y106.248 E38.18453
G1 X225.37 Y106.944 E38.20691
G1 X225.023 Y107.607 E38.22931
G1 X224.608 Y108.23 E38.25172
G1 X224.468 Y108.392 E38.25813
G1 X224.468 Y108.393 E38.25816
G1 X224.904 Y109.002 E38.28058
G1 X225.271 Y109.653 E38.30295
G1 X225.567 Y110.34 E38.32534
G1 X225.788 Y111.055 E38.34774
G1 X225.932 Y111.789 E38.37014
G1 X226 Y112.763 E38.39936
G1 X226 Y139.523 E39.2004
G1 X225.96 Y140.27 E39.22279
G1 X225.841 Y141.008 E39.24517
G1 X225.72 Y141.483 E39.25984
G1 X225.608 Y141.867 E39.27182
G1 X225.36 Y142.573 E39.29421
G1 X225.039 Y143.248 E39.31659
G1 X224.647 Y143.886 E39.339
G1 X224.19 Y144.478 E39.36139
G1 X223.64 Y145.047 E39.38508
G1 X223.375 Y145.292 E39.39588
G1 X222.799 Y145.77 E39.41829
G1 X222.176 Y146.183 E39.44066
G1 X221.512 Y146.528 E39.46306
G1 X220.815 Y146.8 E39.48546
G1 X220.368 Y146.931 E39.4994
G1 X220.034 Y147.017 E39.50973
G1 X219.301 Y147.164 E39.5321
G1 X218.288 Y147.238 E39.56251
G1 X213.257 Y147.237 E39.71311
G1 X24.027 Y147.238 E45.37754
G1 X16.712 Y147.237 E45.59651
G1 X15.965 Y147.197 E45.6189
G1 X15.227 Y147.078 E45.64128
G1 X14.754 Y146.958 E45.65589
G1 X14.373 Y146.847 E45.66776
G1 X13.667 Y146.599 E45.69016
G1 X12.991 Y146.278 E45.71257
G1 X12.354 Y145.887 E45.73494
G1 X11.762 Y145.429 E45.75734
G1 X11.191 Y144.878 E45.7811
G1 X10.946 Y144.613 E45.7919
G1 X10.468 Y144.037 E45.81431
G1 X10.055 Y143.414 E45.83668
G1 X9.71 Y142.75 E45.85908
G1 X9.438 Y142.053 E45.88148
G1 X9.308 Y141.611 E45.89527
G1 X9.222 Y141.278 E45.90556
G1 X9.074 Y140.545 E45.92795
G1 X9 Y139.528 E45.95847
G1 X9 Y112.773 E46.75936
G1 X9.04 Y112.026 E46.78175
G1 X9.159 Y111.288 E46.80413
G1 X9.357 Y110.566 E46.82654
G1 X9.63 Y109.87 E46.84892
G1 X9.977 Y109.207 E46.87132
G1 X10.392 Y108.584 E46.89373
G1 X10.536 Y108.415 E46.90037
G1 X10.113 Y107.828 E46.92203
G1 X9.742 Y107.178 E46.94443
G1 X9.443 Y106.492 E46.96683
G1 X9.219 Y105.778 E46.98923
G1 X9.072 Y105.045 E47.01161
G1 X9 Y104.041 E47.04174
G1 X9 Y103.643 E47.05366
G1 X9.04 Y102.896 E47.07605
G1 X9.159 Y102.158 E47.09843
G1 X9.357 Y101.436 E47.12084
G1 X9.63 Y100.74 E47.14322
G1 X9.977 Y100.077 E47.16562
G1 X10.392 Y99.454 E47.18802
G1 X11.05 Y98.693 E47.21814
G1 X11.167 Y98.576 E47.22309
G1 X11.724 Y98.076 E47.2455
G1 X12.33 Y97.639 E47.26786
G1 X12.98 Y97.268 E47.29027
G1 X13.666 Y96.969 E47.31267
G1 X14.38 Y96.745 E47.33507
G1 X15.113 Y96.598 E47.35745
G0 F3600 X15.296 Y96.977
G1 F1800 X16.109 Y96.926 E47.38183
G1 X16.925 Y96.925 E47.40626
G1 X17.65 Y96.964 E47.42799
G1 X18.367 Y97.083 E47.44975
G1 X19.066 Y97.279 E47.47148
G1 X19.74 Y97.551 E47.49323
G1 X20.379 Y97.896 E47.51497
G1 X20.616 Y98.06 E47.5236
G1 X21.178 Y97.608 E47.54519
G1 X21.791 Y97.218 E47.56694
G1 X22.443 Y96.898 E47.58868
G1 X23.126 Y96.651 E47.61042
G1 X23.832 Y96.481 E47.63216
G1 X24.553 Y96.39 E47.65391
G1 X25.022 Y96.373 E47.66796
G1 X44.838 Y96.374 E48.26113
G1 X209.984 Y96.373 E53.20463
G1 X210.71 Y96.413 E53.2264
G1 X211.426 Y96.532 E53.24812
G1 X212.125 Y96.73 E53.26987
G1 X212.798 Y97.003 E53.29161
G1 X213.437 Y97.348 E53.31335
G1 X214.034 Y97.762 E53.3351
G1 X214.378 Y98.062 E53.34876
G1 X214.532 Y97.952 E53.35442
G1 X215.166 Y97.598 E53.37616
G1 X215.835 Y97.315 E53.3979
G1 X216.531 Y97.107 E53.41965
G1 X217.246 Y96.977 E53.4414
G1 X218.067 Y96.926 E53.46603
G1 X218.883 Y96.926 E53.49045
G1 X219.608 Y96.966 E53.51219
G1 X220.325 Y97.085 E53.53394
G1 X221.024 Y97.283 E53.55569
G1 X221.697 Y97.556 E53.57743
G1 X222.336 Y97.901 E53.59917
G1 X222.933 Y98.315 E53.62092
G1 X223.55 Y98.859 E53.64554
G1 X223.667 Y98.976 E53.65049
G1 X224.151 Y99.517 E53.67222
G1 X224.574 Y100.108 E53.69398
G1 X224.928 Y100.742 E53.71571
G1 X225.211 Y101.411 E53.73746
G1 X225.419 Y102.107 E53.7592
G1 X225.549 Y102.822 E53.78096
G1 X225.6 Y103.643 E53.80558
G1 X225.6 Y104.041 E53.81749
G1 X225.56 Y104.766 E53.83923
G1 X225.441 Y105.483 E53.86098
G1 X225.243 Y106.182 E53.88273
G1 X224.97 Y106.855 E53.90447
G1 X224.625 Y107.494 E53.92621
G1 X224.211 Y108.091 E53.94796
G1 X223.939 Y108.4 E53.96028
G1 X224.169 Y108.659 E53.97065
G1 X224.589 Y109.252 E53.9924
G1 X224.941 Y109.888 E54.01416
G1 X225.221 Y110.558 E54.0359
G1 X225.425 Y111.255 E54.05764
G1 X225.552 Y111.97 E54.07937
G1 X225.6 Y112.763 E54.10316
G1 X225.6 Y139.523 E54.90419
G1 X225.56 Y140.248 E54.92593
G1 X225.441 Y140.965 E54.94768
G1 X225.336 Y141.371 E54.96024
G1 X225.224 Y141.755 E54.97221
G1 X224.983 Y142.44 E54.99395
G1 X224.667 Y143.094 E55.01569
G1 X224.282 Y143.71 E55.03743
G1 X223.831 Y144.28 E55.05919
G1 X223.368 Y144.753 E55.07901
G1 X223.103 Y144.998 E55.08981
G1 X222.544 Y145.461 E55.11154
G1 X221.937 Y145.86 E55.13328
G1 X221.289 Y146.189 E55.15503
G1 X220.269 Y146.544 E55.18736
G1 X219.935 Y146.63 E55.19769
G1 X219.222 Y146.772 E55.21945
G1 X218.288 Y146.838 E55.24748
G1 X213.257 Y146.837 E55.39808
G1 X24.027 Y146.838 E61.06251
G1 X16.712 Y146.837 E61.28148
G1 X15.987 Y146.797 E61.30321
G1 X15.27 Y146.678 E61.32497
G1 X14.866 Y146.574 E61.33746
G1 X14.485 Y146.463 E61.34934
G1 X13.8 Y146.221 E61.37108
G1 X13.145 Y145.906 E61.39284
G1 X12.529 Y145.521 E61.41458
G1 X11.96 Y145.071 E61.4363
G1 X11.485 Y144.606 E61.4562
G1 X11.24 Y144.341 E61.467
G1 X10.777 Y143.782 E61.48873
G1 X10.378 Y143.175 E61.51047
G1 X10.049 Y142.527 E61.53223
G1 X9.696 Y141.511 E61.56442
G1 X9.61 Y141.178 E61.57472
G1 X9.467 Y140.466 E61.59646
G1 X9.4 Y139.528 E61.62461
G1 X9.4 Y112.773 E62.42549
G1 X9.44 Y112.048 E62.44723
G1 X9.559 Y111.331 E62.46899
G1 X9.757 Y110.632 E62.49073
G1 X10.03 Y109.959 E62.51247
G1 X10.375 Y109.32 E62.53421
G1 X10.789 Y108.723 E62.55596
G1 X11.064 Y108.407 E62.5685
G1 X10.849 Y108.167 E62.57814
G1 X10.426 Y107.576 E62.5999
G1 X10.072 Y106.942 E62.62163
G1 X9.789 Y106.273 E62.64338
G1 X9.581 Y105.577 E62.66512
G1 X9.451 Y104.862 E62.68688
G1 X9.4 Y104.041 E62.7115
G1 X9.4 Y103.643 E62.72341
G1 X9.44 Y102.918 E62.74515
G1 X9.559 Y102.201 E62.76691
G1 X9.757 Y101.502 E62.78865
