;FLAVOR:Marlin
;TIME:19271
;Filament used: 12.7452m
;Layer height: 0.2
;MINX:8.2
;MINY:90.295
;MINZ:0.2
;MAXX:226.8
;MAXY:143.725
;MAXZ:8.8
;Generated with Cura_SteamEngine 4.3.0
M140 S70
M105
M190 S70
M104 S240
M105
M109 S240
M82 ;absolute extrusion mode
; Ender 3 Custom Start G-code
G28 ; Home all axes
M420 S1
G92 E0 ; Reset Extruder
G1 Z2.0 F3000 ; Move Z Axis up little to prevent scratching of Heat Bed
G1 X0.1 Y20 Z0.3 F5000.0 ; Move to start position
G1 X0.1 Y200.0 Z0.3 F1500.0 E15 ; Draw the first line
G1 X0.4 Y200.0 Z0.3 F5000.0 ; Move to side a little
G1 X0.4 Y20 Z0.3 F1500.0 E30 ; Draw the second line
G92 E0 ; Reset Extruder
G1 Z2.0 F3000 ; Move Z Axis up little to prevent scratching of Heat Bed
G92 E0
G92 E0
G1 F3000 E-8
;LAYER_COUNT:44
;LAYER:0
M107
M204 S500
M205 X8 Y8
G0 F6000 X15.418 Y90.512 Z0.2
;TYPE:SKIRT
G1 F3000 E0
G1 F1200 X16.203 Y90.431 E0.02625
G1 X16.605 Y90.421 E0.03962
G1 X18.036 Y90.421 E0.08722
G1 X18.484 Y90.359 E0.10226
G1 X18.753 Y90.333 E0.11125
G1 X19.503 Y90.297 E0.13622
G1 X207.939 Y90.295 E6.40363
G1 X215.472 Y90.295 E6.65418
G1 X216.188 Y90.328 E6.67802
G1 X216.47 Y90.354 E6.68744
G1 X216.938 Y90.421 E6.70316
G1 X218.395 Y90.421 E6.75162
G1 X219.184 Y90.461 E6.7779
G1 X219.964 Y90.58 E6.80414
G1 X220.729 Y90.778 E6.83042
G1 X221.469 Y91.052 E6.85667
G1 X222.178 Y91.4 E6.88294
G1 X222.849 Y91.818 E6.90923
G1 X223.473 Y92.301 E6.93548
G1 X224.046 Y92.844 E6.96173
G1 X224.561 Y93.443 E6.98801
G1 X225.012 Y94.091 E7.01427
G1 X225.396 Y94.782 E7.04056
G1 X225.708 Y95.507 E7.06681
G1 X225.945 Y96.26 E7.09307
G1 X226.104 Y97.034 E7.11935
G1 X226.115 Y97.137 E7.12279
G1 X226.243 Y97.416 E7.133
G1 X226.498 Y98.163 E7.15925
G1 X226.677 Y98.932 E7.18552
G1 X226.777 Y99.716 E7.2118
G1 X226.8 Y100.311 E7.23161
G1 X226.8 Y100.694 E7.24435
G1 X226.76 Y101.483 E7.27062
G1 X226.641 Y102.263 E7.29686
G1 X226.443 Y103.028 E7.32315
G1 X226.169 Y103.768 E7.34939
G1 X225.821 Y104.477 E7.37566
G1 X225.82 Y104.479 E7.37574
G1 X225.82 Y135.925 E8.42163
G1 X225.78 Y136.714 E8.44791
G1 X225.661 Y137.494 E8.47415
G1 X225.463 Y138.259 E8.50044
G1 X225.189 Y138.999 E8.52668
G1 X224.841 Y139.708 E8.55295
G1 X224.423 Y140.379 E8.57924
G1 X223.94 Y141.003 E8.60549
G1 X223.397 Y141.576 E8.63175
G1 X222.798 Y142.091 E8.65802
G1 X222.15 Y142.542 E8.68428
G1 X221.459 Y142.926 E8.71057
G1 X220.734 Y143.238 E8.73682
G1 X219.981 Y143.475 E8.76308
G1 X219.207 Y143.634 E8.78936
G1 X218.422 Y143.715 E8.81561
G1 X218.02 Y143.725 E8.82898
G1 X16.98 Y143.725 E15.5156
G1 X16.191 Y143.685 E15.54188
G1 X15.411 Y143.566 E15.56812
G1 X14.646 Y143.368 E15.5944
G1 X13.906 Y143.094 E15.62065
G1 X13.197 Y142.746 E15.64692
G1 X12.526 Y142.328 E15.67321
G1 X11.902 Y141.845 E15.69945
G1 X11.329 Y141.302 E15.72571
G1 X10.814 Y140.703 E15.75198
G1 X10.363 Y140.055 E15.77824
G1 X9.979 Y139.364 E15.80454
G1 X9.667 Y138.639 E15.83079
G1 X9.43 Y137.886 E15.85704
G1 X9.271 Y137.112 E15.88333
G1 X9.19 Y136.327 E15.90957
G1 X9.18 Y135.925 E15.92295
G1 X9.18 Y104.465 E16.96931
G1 X9.087 Y104.307 E16.97541
G1 X8.757 Y103.589 E17.00169
G1 X8.502 Y102.842 E17.02795
G1 X8.323 Y102.073 E17.05421
G1 X8.223 Y101.289 E17.08049
G1 X8.2 Y100.694 E17.1003
G1 X8.2 Y100.311 E17.11304
G1 X8.24 Y99.522 E17.13931
G1 X8.359 Y98.742 E17.16556
G1 X8.557 Y97.977 E17.19184
G1 X8.831 Y97.237 E17.21808
G1 X8.894 Y97.108 E17.22286
G1 X8.964 Y96.652 E17.2382
G1 X9.162 Y95.887 E17.26448
G1 X9.436 Y95.147 E17.29073
G1 X9.784 Y94.438 E17.317
G1 X10.202 Y93.767 E17.34329
G1 X10.685 Y93.143 E17.36954
G1 X11.228 Y92.57 E17.39579
G1 X11.827 Y92.055 E17.42207
G1 X12.475 Y91.604 E17.44833
G1 X13.166 Y91.22 E17.47462
G1 X13.891 Y90.908 E17.50087
G1 X14.644 Y90.671 E17.52713
G1 X15.418 Y90.512 E17.55341
G0 F6000 X15.756 Y90.87
G1 F1200 X16.605 Y90.821 E17.58169
G1 X18.055 Y90.821 E17.62992
G1 X18.522 Y90.757 E17.6456
G1 X18.791 Y90.731 E17.65459
G1 X19.503 Y90.697 E17.6783
G1 X207.939 Y90.695 E23.9457
G1 X215.472 Y90.695 E24.19625
G1 X216.151 Y90.726 E24.21886
G1 X216.433 Y90.752 E24.22828
G1 X216.907 Y90.821 E24.24421
G1 X218.395 Y90.821 E24.2937
G1 X219.163 Y90.861 E24.31928
G1 X219.923 Y90.98 E24.34486
G1 X220.666 Y91.178 E24.37044
G1 X221.385 Y91.452 E24.39603
G1 X222.071 Y91.799 E24.4216
G1 X222.718 Y92.215 E24.44718
G1 X223.318 Y92.696 E24.47276
G1 X223.865 Y93.237 E24.49835
G1 X224.353 Y93.832 E24.52394
G1 X224.776 Y94.474 E24.54951
G1 X225.131 Y95.157 E24.57512
G1 X225.412 Y95.872 E24.60067
G1 X225.618 Y96.614 E24.62628
G1 X225.725 Y97.246 E24.6476
G1 X225.901 Y97.639 E24.66192
G1 X226.141 Y98.37 E24.68751
G1 X226.304 Y99.121 E24.71307
G1 X226.388 Y99.886 E24.73867
G1 X226.4 Y100.311 E24.75281
G1 X226.4 Y100.694 E24.76555
G1 X226.36 Y101.462 E24.79113
G1 X226.241 Y102.222 E24.81671
G1 X226.043 Y102.965 E24.84229
G1 X225.769 Y103.684 E24.86788
G1 X225.422 Y104.37 E24.89345
G1 X225.42 Y104.373 E24.89357
G1 X225.42 Y135.925 E25.94299
G1 X225.38 Y136.693 E25.96857
G1 X225.261 Y137.453 E25.99416
G1 X225.063 Y138.196 E26.01973
G1 X224.789 Y138.915 E26.04532
G1 X224.442 Y139.601 E26.07089
G1 X224.026 Y140.248 E26.09648
G1 X223.545 Y140.848 E26.12205
G1 X223.004 Y141.395 E26.14764
G1 X222.409 Y141.883 E26.17324
G1 X221.767 Y142.306 E26.19881
G1 X221.084 Y142.661 E26.22441
G1 X220.369 Y142.942 E26.24996
G1 X219.627 Y143.148 E26.27557
G1 X218.869 Y143.276 E26.30114
G1 X218.02 Y143.325 E26.32943
G1 X16.98 Y143.325 E33.01604
G1 X16.212 Y143.285 E33.04162
G1 X15.452 Y143.166 E33.06721
G1 X14.709 Y142.968 E33.09278
G1 X13.99 Y142.694 E33.11837
G1 X13.304 Y142.347 E33.14394
G1 X12.657 Y141.931 E33.16953
G1 X12.057 Y141.45 E33.1951
G1 X11.51 Y140.909 E33.22069
G1 X11.022 Y140.314 E33.24629
G1 X10.599 Y139.672 E33.27186
G1 X10.244 Y138.989 E33.29746
G1 X9.963 Y138.274 E33.32301
G1 X9.757 Y137.532 E33.34862
G1 X9.629 Y136.774 E33.37419
G1 X9.58 Y135.925 E33.40248
G1 X9.58 Y104.354 E34.45253
G1 X9.414 Y104.068 E34.46353
G1 X9.099 Y103.366 E34.48912
G1 X8.859 Y102.635 E34.51471
G1 X8.696 Y101.884 E34.54027
G1 X8.612 Y101.119 E34.56587
G1 X8.6 Y100.694 E34.58001
G1 X8.6 Y100.311 E34.59275
G1 X8.64 Y99.543 E34.61833
G1 X8.759 Y98.783 E34.64391
G1 X8.957 Y98.04 E34.66949
G1 X9.231 Y97.321 E34.69508
G1 X9.281 Y97.222 E34.69877
G1 X9.364 Y96.693 E34.71658
G1 X9.562 Y95.95 E34.74215
G1 X9.836 Y95.231 E34.76775
G1 X10.183 Y94.545 E34.79331
G1 X10.599 Y93.898 E34.8189
G1 X11.08 Y93.298 E34.84448
G1 X11.621 Y92.751 E34.87006
G1 X12.216 Y92.263 E34.89566
G1 X12.858 Y91.84 E34.92123
G1 X13.541 Y91.485 E34.94683
G1 X14.256 Y91.204 E34.97238
G1 X14.998 Y90.998 E34.998
G1 X15.756 Y90.87 E35.02356
G0 F6000 X15.346 Y91.335
G1 F1200 X16.088 Y91.24 E35.04844
G1 X16.605 Y91.221 E35.06565
G1 X18.072 Y91.221 E35.11444
G1 X18.561 Y91.155 E35.13086
G1 X18.83 Y91.129 E35.13984
G1 X19.503 Y91.097 E35.16225
G1 X207.939 Y91.095 E41.42966
G1 X215.472 Y91.095 E41.68021
G1 X216.115 Y91.125 E41.70162
G1 X216.397 Y91.151 E41.71104
G1 X216.877 Y91.221 E41.72717
G1 X218.395 Y91.221 E41.77766
G1 X219.142 Y91.261 E41.80254
G1 X219.88 Y91.38 E41.8274
G1 X220.602 Y91.578 E41.8523
G1 X221.298 Y91.851 E41.87717
G1 X221.961 Y92.198 E41.90206
G1 X222.584 Y92.613 E41.92696
G1 X223.158 Y93.092 E41.95182
G1 X223.679 Y93.629 E41.97671
G1 X224.138 Y94.219 E42.00157
G1 X224.533 Y94.855 E42.02647
G1 X224.857 Y95.529 E42.05135
G1 X225.107 Y96.234 E42.07622
G1 X225.281 Y96.962 E42.10112
G1 X225.329 Y97.337 E42.11369
G1 X225.557 Y97.86 E42.13267
G1 X225.781 Y98.574 E42.15756
G1 X225.928 Y99.307 E42.18242
G1 X226 Y100.311 E42.2159
G1 X226 Y100.694 E42.22864
G1 X225.96 Y101.441 E42.25352
G1 X225.841 Y102.179 E42.27839
G1 X225.643 Y102.901 E42.30329
G1 X225.37 Y103.597 E42.32815
G1 X225.023 Y104.26 E42.35304
G1 X225.02 Y104.265 E42.35324
G1 X225.02 Y135.925 E43.40625
G1 X224.98 Y136.672 E43.43113
G1 X224.861 Y137.41 E43.456
G1 X224.663 Y138.132 E43.4809
G1 X224.39 Y138.828 E43.50576
G1 X224.043 Y139.491 E43.53065
G1 X223.628 Y140.114 E43.55555
G1 X223.149 Y140.688 E43.58041
G1 X222.612 Y141.209 E43.6053
G1 X222.022 Y141.668 E43.63016
G1 X221.386 Y142.063 E43.65506
G1 X220.712 Y142.387 E43.67994
G1 X220.007 Y142.637 E43.70481
G1 X219.279 Y142.811 E43.72971
G1 X218.537 Y142.906 E43.75459
G1 X218.02 Y142.925 E43.7718
G1 X16.98 Y142.925 E50.45842
G1 X16.233 Y142.885 E50.4833
G1 X15.495 Y142.766 E50.50816
G1 X14.773 Y142.568 E50.53306
G1 X14.077 Y142.295 E50.55793
G1 X13.414 Y141.948 E50.58282
G1 X12.791 Y141.533 E50.60771
G1 X12.217 Y141.054 E50.63258
G1 X11.696 Y140.517 E50.65746
G1 X11.237 Y139.927 E50.68233
G1 X10.842 Y139.291 E50.70723
G1 X10.518 Y138.617 E50.7321
G1 X10.268 Y137.912 E50.75698
G1 X10.094 Y137.184 E50.78187
G1 X9.999 Y136.442 E50.80676
G1 X9.98 Y135.925 E50.82396
G1 X9.98 Y104.248 E51.87754
G1 X9.742 Y103.831 E51.89351
G1 X9.443 Y103.145 E51.9184
G1 X9.219 Y102.431 E51.94329
G1 X9.072 Y101.698 E51.96816
G1 X9 Y100.694 E52.00164
G1 X9 Y100.311 E52.01437
G1 X9.04 Y99.564 E52.03925
G1 X9.159 Y98.826 E52.06412
G1 X9.357 Y98.104 E52.08902
G1 X9.63 Y97.408 E52.11388
G1 X9.667 Y97.337 E52.11655
G1 X9.764 Y96.736 E52.1368
G1 X9.962 Y96.014 E52.1617
G1 X10.235 Y95.318 E52.18656
G1 X10.582 Y94.655 E52.21145
G1 X10.997 Y94.032 E52.23635
G1 X11.476 Y93.458 E52.26121
G1 X12.013 Y92.937 E52.2861
G1 X12.603 Y92.478 E52.31096
G1 X13.239 Y92.083 E52.33586
G1 X13.913 Y91.759 E52.36074
G1 X14.618 Y91.509 E52.38562
G1 X15.346 Y91.335 E52.41051
G0 F6000 X15.688 Y91.685
G1 F1200 X16.605 Y91.621 E52.44108
G1 X18.106 Y91.621 E52.49101
G1 X18.124 Y91.617 E52.49162
G1 X18.599 Y91.554 E52.50756
G1 X18.868 Y91.528 E52.51655
G1 X19.503 Y91.497 E52.53769
G1 X207.939 Y91.495 E58.8051
G1 X215.472 Y91.495 E59.05565
G1 X216.078 Y91.523 E59.07582
G1 X216.36 Y91.549 E59.08524
G1 X216.848 Y91.621 E59.10165
G1 X218.395 Y91.621 E59.1531
G1 X219.12 Y91.661 E59.17725
G1 X219.837 Y91.78 E59.20143
G1 X220.536 Y91.978 E59.22559
G1 X221.209 Y92.251 E59.24975
G1 X221.848 Y92.596 E59.2739
G1 X222.445 Y93.01 E59.29806
G1 X222.993 Y93.486 E59.32221
G1 X223.486 Y94.02 E59.34638
G1 X223.916 Y94.605 E59.37053
G1 X224.28 Y95.234 E59.3947
G1 X224.573 Y95.899 E59.41887
G1 X224.791 Y96.592 E59.44303
G1 X224.931 Y97.304 E59.46717
G1 X224.94 Y97.439 E59.47167
G1 X225.211 Y98.079 E59.49478
G1 X225.419 Y98.775 E59.51894
G1 X225.549 Y99.49 E59.54311
G1 X225.6 Y100.311 E59.57047
G1 X225.6 Y100.694 E59.58321
G1 X225.56 Y101.419 E59.60736
G1 X225.441 Y102.136 E59.63153
G1 X225.243 Y102.835 E59.6557
G1 X224.97 Y103.508 E59.67985
G1 X224.625 Y104.147 E59.70401
G1 X224.62 Y104.154 E59.70429
G1 X224.62 Y135.925 E60.761
G1 X224.58 Y136.65 E60.78515
G1 X224.461 Y137.367 E60.80932
G1 X224.263 Y138.066 E60.83349
G1 X223.99 Y138.739 E60.85764
G1 X223.645 Y139.378 E60.8818
G1 X223.231 Y139.975 E60.90596
G1 X222.755 Y140.523 E60.9301
G1 X222.221 Y141.016 E60.95428
G1 X221.636 Y141.446 E60.97842
G1 X221.007 Y141.81 E61.00259
G1 X220.342 Y142.103 E61.02676
G1 X219.649 Y142.321 E61.05093
G1 X218.937 Y142.461 E61.07506
G1 X218.02 Y142.525 E61.10564
G1 X16.98 Y142.525 E67.79225
G1 X16.255 Y142.485 E67.8164
G1 X15.538 Y142.366 E67.84058
G1 X14.839 Y142.168 E67.86474
G1 X14.166 Y141.895 E67.8889
G1 X13.527 Y141.55 E67.91305
G1 X12.93 Y141.136 E67.93721
G1 X12.382 Y140.66 E67.96136
G1 X11.889 Y140.126 E67.98553
G1 X11.459 Y139.541 E68.00968
G1 X11.095 Y138.912 E68.03385
G1 X10.802 Y138.247 E68.05802
G1 X10.584 Y137.554 E68.08218
G1 X10.444 Y136.842 E68.10631
G1 X10.38 Y135.925 E68.13689
G1 X10.38 Y104.147 E69.19383
G1 X10.072 Y103.595 E69.21485
G1 X9.789 Y102.926 E69.23901
G1 X9.581 Y102.23 E69.26317
G1 X9.451 Y101.515 E69.28734
G1 X9.4 Y100.694 E69.3147
G1 X9.4 Y100.311 E69.32744
G1 X9.44 Y99.586 E69.35159
G1 X9.559 Y98.869 E69.37577
G1 X9.757 Y98.17 E69.39993
G1 X10.03 Y97.497 E69.42409
G1 X10.051 Y97.457 E69.42559
G1 X10.164 Y96.779 E69.44845
G1 X10.362 Y96.08 E69.47261
G1 X10.635 Y95.407 E69.49677
G1 X10.98 Y94.768 E69.52092
G1 X11.394 Y94.171 E69.54509
G1 X11.87 Y93.623 E69.56923
G1 X12.404 Y93.13 E69.5934
G1 X12.989 Y92.7 E69.61755
G1 X13.618 Y92.336 E69.64172
G1 X14.283 Y92.043 E69.66589
G1 X14.976 Y91.825 E69.69005
G1 X15.688 Y91.685 E69.71419
G0 F6000 X15.328 Y92.154
G1 F1200 X16.024 Y92.048 E69.7376
G1 X16.605 Y92.021 E69.75695
G1 X18.155 Y92.021 E69.8085
G1 X18.213 Y92.008 E69.81048
G1 X18.638 Y91.952 E69.82474
G1 X18.907 Y91.926 E69.83372
G1 X19.503 Y91.897 E69.85357
G1 X207.939 Y91.895 E76.12098
G1 X215.472 Y91.895 E76.37153
G1 X216.041 Y91.921 E76.39047
G1 X216.323 Y91.947 E76.39989
G1 X216.738 Y92.021 E76.41391
G1 X218.395 Y92.021 E76.46902
G1 X219.098 Y92.061 E76.49244
G1 X219.792 Y92.18 E76.51586
G1 X220.467 Y92.378 E76.53926
G1 X221.116 Y92.65 E76.56266
G1 X221.73 Y92.995 E76.58609
G1 X222.301 Y93.406 E76.60949
G1 X222.822 Y93.88 E76.63291
G1 X223.286 Y94.41 E76.65634
G1 X223.686 Y94.989 E76.67975
G1 X224.018 Y95.61 E76.70317
G1 X224.278 Y96.264 E76.72658
G1 X224.462 Y96.944 E76.75001
G1 X224.558 Y97.573 E76.77117
G1 X224.597 Y97.645 E76.7739
G1 X224.864 Y98.296 E76.7973
G1 X225.054 Y98.974 E76.82072
G1 X225.167 Y99.669 E76.84414
G1 X225.2 Y100.311 E76.86552
G1 X225.2 Y100.694 E76.87826
G1 X225.16 Y101.397 E76.90168
G1 X225.041 Y102.091 E76.9251
G1 X224.843 Y102.766 E76.94849
G1 X224.571 Y103.415 E76.9719
G1 X224.226 Y104.029 E76.99532
G1 X224.22 Y104.037 E76.99565
G1 X224.22 Y135.925 E78.05625
G1 X224.18 Y136.628 E78.07967
G1 X224.061 Y137.322 E78.10309
G1 X223.863 Y137.997 E78.12649
G1 X223.591 Y138.646 E78.14989
G1 X223.246 Y139.26 E78.17332
G1 X222.835 Y139.831 E78.19672
G1 X222.361 Y140.352 E78.22015
G1 X221.831 Y140.816 E78.24357
G1 X221.252 Y141.216 E78.26698
G1 X220.631 Y141.548 E78.2904
G1 X219.977 Y141.808 E78.31381
G1 X219.297 Y141.992 E78.33724
G1 X218.601 Y142.098 E78.36066
G1 X218.02 Y142.125 E78.38
G1 X16.98 Y142.125 E85.06662
G1 X16.277 Y142.085 E85.09004
G1 X15.583 Y141.966 E85.11346
G1 X14.908 Y141.768 E85.13685
G1 X14.259 Y141.496 E85.16026
G1 X13.645 Y141.151 E85.18368
G1 X13.074 Y140.74 E85.20708
G1 X12.553 Y140.266 E85.23051
G1 X12.089 Y139.736 E85.25394
G1 X11.689 Y139.157 E85.27735
G1 X11.357 Y138.536 E85.30077
G1 X11.097 Y137.882 E85.32417
G1 X10.913 Y137.202 E85.3476
G1 X10.807 Y136.506 E85.37102
G1 X10.78 Y135.925 E85.39037
G1 X10.78 Y104.033 E86.4511
G1 X10.741 Y103.978 E86.45334
G1 X10.403 Y103.36 E86.47677
G1 X10.136 Y102.709 E86.50017
G1 X9.946 Y102.031 E86.52359
G1 X9.833 Y101.336 E86.54701
G1 X9.8 Y100.694 E86.56839
G1 X9.8 Y100.311 E86.58113
G1 X9.84 Y99.608 E86.60455
G1 X9.959 Y98.914 E86.62797
G1 X10.157 Y98.239 E86.65137
G1 X10.429 Y97.59 E86.67477
G1 X10.442 Y97.566 E86.67568
G1 X10.445 Y97.518 E86.67728
G1 X10.564 Y96.824 E86.7007
G1 X10.762 Y96.149 E86.72409
G1 X11.034 Y95.5 E86.7475
G1 X11.379 Y94.886 E86.77092
G1 X11.79 Y94.315 E86.79432
G1 X12.264 Y93.794 E86.81775
G1 X12.794 Y93.33 E86.84118
G1 X13.373 Y92.93 E86.86458
G1 X13.994 Y92.598 E86.88801
G1 X14.648 Y92.338 E86.91141
G1 X15.328 Y92.154 E86.93484
G0 F6000 X15.674 Y92.496
G1 F1200 X16.605 Y92.421 E86.96591
G1 X18.202 Y92.421 E87.01903
G1 X18.301 Y92.399 E87.0224
G1 X18.676 Y92.35 E87.03498
G1 X18.945 Y92.324 E87.04397
G1 X19.503 Y92.297 E87.06255
G1 X207.939 Y92.295 E93.32995
G1 X215.472 Y92.295 E93.5805
G1 X216.004 Y92.319 E93.59822
G1 X216.286 Y92.345 E93.60763
G1 X216.71 Y92.421 E93.62196
G1 X218.395 Y92.421 E93.678
G1 X219.075 Y92.461 E93.70066
G1 X219.745 Y92.58 E93.72329
G1 X220.397 Y92.777 E93.74595
G1 X221.021 Y93.049 E93.76859
G1 X221.609 Y93.393 E93.79125
G1 X222.153 Y93.803 E93.8139
G1 X222.644 Y94.274 E93.83653
G1 X223.078 Y94.799 E93.85919
G1 X223.447 Y95.371 E93.88183
G1 X223.746 Y95.983 E93.90448
G1 X223.971 Y96.625 E93.92711
G1 X224.12 Y97.29 E93.94978
G1 X224.15 Y97.663 E93.96222
G1 X224.265 Y97.877 E93.9703
G1 X224.514 Y98.511 E93.99296
G1 X224.687 Y99.17 E94.01562
G1 X224.781 Y99.844 E94.03825
G1 X224.8 Y100.311 E94.0538
G1 X224.8 Y100.694 E94.06654
G1 X224.76 Y101.374 E94.08919
G1 X224.641 Y102.044 E94.11183
G1 X224.444 Y102.696 E94.13448
G1 X224.172 Y103.32 E94.15712
G1 X223.828 Y103.908 E94.17978
G1 X223.82 Y103.919 E94.18023
G1 X223.82 Y135.925 E95.24475
G1 X223.78 Y136.605 E95.26741
G1 X223.661 Y137.275 E95.29004
G1 X223.464 Y137.927 E95.3127
