;FLAVOR:Marlin
;TIME:7571
;Filament used: 1.10279m
;Layer height: 0.2
;Generated with Cura_SteamEngine 4.0.0
M140 S80
M105
M190 S80
M104 S230
M105
M109 S230
M82 ;absolute extrusion mode
; Ender 3 Custom Start G-code
G28 ; Home all axes
G92 E0 ; Reset Extruder
G1 Z2.0 F3000 ; Move Z Axis up little to prevent scratching of Heat Bed
G1 X0.1 Y20 Z0.3 F5000.0 ; Move to start position
G1 X0.1 Y200.0 Z0.3 F1500.0 E15 ; Draw the first line
G1 X0.4 Y200.0 Z0.3 F5000.0 ; Move to side a little
G1 X0.4 Y20 Z0.3 F1500.0 E30 ; Draw the second line
G92 E0 ; Reset Extruder
G1 Z2.0 F3000 ; Move Z Axis up little to prevent scratching of Heat Bed
; End of custom start GCode
G92 E0
G1 F3600 E-6
;LAYER_COUNT:338
;LAYER:0
M107
M204 S5000
M205 X30 Y30
G0 F3600 X68.873 Y82.642 Z0.2
M204 S500
M205 X20 Y20
;TYPE:SKIRT
G1 F3600 E0
G1 F1800 X69.443 Y82.209 E0.02381
G1 X70.058 Y81.843 E0.04761
G1 X70.709 Y81.548 E0.07138
G1 X71.39 Y81.327 E0.0952
G1 X72.09 Y81.184 E0.11896
G1 X73.02 Y81.116 E0.14997
G1 X145.501 Y81.106 E2.5607
G1 X146.215 Y81.146 E2.58449
G1 X146.921 Y81.265 E2.6083
G1 X147.608 Y81.462 E2.63207
G1 X148.269 Y81.735 E2.65586
G1 X148.896 Y82.08 E2.67966
G1 X149.48 Y82.493 E2.70345
G1 X150.015 Y82.968 E2.72724
G1 X150.493 Y83.5 E2.75103
G1 X150.909 Y84.082 E2.77483
G1 X151.257 Y84.706 E2.79859
G1 X151.534 Y85.366 E2.8224
G1 X151.735 Y86.052 E2.84617
G1 X151.881 Y86.983 E2.87752
G1 X152.049 Y89.031 E2.94586
G1 X152.069 Y89.458 E2.96008
G1 X152.101 Y91.59 E3.031
G1 X152.072 Y92.301 E3.05466
G1 X151.594 Y97.255 E3.2202
G1 X151.368 Y102.561 E3.39684
G1 X151.441 Y107.846 E3.57264
G1 X151.821 Y113.207 E3.75139
G1 X152.079 Y115.77 E3.83707
G1 X152.111 Y116.417 E3.85861
G1 X152.102 Y127.099 E4.2139
G1 X152.061 Y127.814 E4.23772
G1 X151.941 Y128.519 E4.2615
G1 X151.743 Y129.206 E4.28528
G1 X151.47 Y129.867 E4.30907
G1 X151.125 Y130.493 E4.33284
G1 X150.711 Y131.077 E4.35665
G1 X150.247 Y131.6 E4.37991
G1 X150.021 Y131.828 E4.39058
G1 X149.49 Y132.307 E4.41437
G1 X148.909 Y132.723 E4.43814
G1 X148.285 Y133.073 E4.46193
G1 X147.626 Y133.35 E4.48571
G1 X146.94 Y133.552 E4.50949
G1 X146.235 Y133.677 E4.53331
G1 X145.443 Y133.722 E4.55969
G1 X141.617 Y133.702 E4.68695
G1 X141.199 Y133.686 E4.70086
G1 X135.725 Y133.299 E4.88338
G1 X131.703 Y133.214 E5.01718
G1 X84.044 Y133.254 E6.60233
G1 X77.145 Y133.694 E6.83226
G1 X76.741 Y133.707 E6.8457
G1 X73.254 Y133.709 E6.96168
G1 X72.54 Y133.669 E6.98546
G1 X71.834 Y133.55 E7.00928
G1 X71.147 Y133.353 E7.03305
G1 X70.485 Y133.081 E7.05685
G1 X69.858 Y132.736 E7.08065
G1 X69.274 Y132.324 E7.10442
G1 X68.874 Y131.979 E7.12199
G1 X68.445 Y131.577 E7.14155
G1 X67.951 Y131.06 E7.16533
G1 X67.518 Y130.49 E7.18914
G1 X67.151 Y129.876 E7.21293
G1 X66.856 Y129.225 E7.2367
G1 X66.634 Y128.545 E7.26049
G1 X66.49 Y127.844 E7.2843
G1 X66.421 Y126.905 E7.31561
G1 X66.425 Y116.073 E7.67589
G1 X66.464 Y115.369 E7.69934
G1 X66.706 Y113.185 E7.77242
G1 X67.084 Y107.849 E7.95034
G1 X67.157 Y102.564 E8.12614
G1 X66.931 Y97.254 E8.30291
G1 X66.446 Y92.145 E8.4736
G1 X66.419 Y91.395 E8.49856
G1 X66.468 Y89.233 E8.57049
G1 X66.488 Y88.847 E8.58334
G1 X66.643 Y86.985 E8.64549
G1 X66.742 Y86.277 E8.66927
G1 X66.92 Y85.584 E8.69306
G1 X67.173 Y84.915 E8.71685
G1 X67.5 Y84.279 E8.74064
G1 X67.896 Y83.683 E8.76444
G1 X68.356 Y83.135 E8.78823
G1 X68.873 Y82.642 E8.81199
M204 S5000
M205 X30 Y30
G0 F3600 X69.251 Y82.848
M204 S500
M205 X20 Y20
G1 F1800 X69.814 Y82.445 E8.83502
G1 X70.42 Y82.109 E8.85807
G1 X71.06 Y81.845 E8.8811
G1 X71.727 Y81.657 E8.90414
G1 X72.411 Y81.547 E8.92719
G1 X73.02 Y81.516 E8.94747
G1 X145.501 Y81.506 E11.3582
G1 X146.193 Y81.546 E11.38125
G1 X146.875 Y81.665 E11.40428
G1 X147.539 Y81.862 E11.42731
G1 X148.175 Y82.135 E11.45033
G1 X148.777 Y82.478 E11.47338
G1 X149.334 Y82.889 E11.4964
G1 X149.841 Y83.361 E11.51944
G1 X150.289 Y83.889 E11.54247
G1 X150.674 Y84.465 E11.56551
G1 X150.99 Y85.081 E11.58854
G1 X151.233 Y85.73 E11.61159
G1 X151.4 Y86.402 E11.63462
G1 X151.482 Y87.015 E11.65519
G1 X151.65 Y89.063 E11.72354
G1 X151.669 Y89.464 E11.73689
G1 X151.701 Y91.596 E11.80781
G1 X151.674 Y92.262 E11.82998
G1 X151.196 Y97.217 E11.99555
G1 X150.968 Y102.567 E12.17365
G1 X151.042 Y107.863 E12.34981
G1 X151.422 Y113.24 E12.5291
G1 X151.681 Y115.81 E12.61501
G1 X151.711 Y116.417 E12.63522
G1 X151.702 Y127.099 E12.99051
G1 X151.661 Y127.79 E13.01353
G1 X151.542 Y128.472 E13.03656
G1 X151.344 Y129.136 E13.0596
G1 X151.071 Y129.773 E13.08265
G1 X150.726 Y130.373 E13.10567
G1 X150.315 Y130.931 E13.12872
G1 X149.963 Y131.318 E13.14612
G1 X149.737 Y131.546 E13.1568
G1 X149.222 Y132.009 E13.17983
G1 X148.657 Y132.409 E13.20286
G1 X148.05 Y132.742 E13.22589
G1 X147.408 Y133.002 E13.24892
G1 X146.741 Y133.187 E13.27195
G1 X146.056 Y133.294 E13.29501
G1 X145.445 Y133.322 E13.31535
G1 X141.619 Y133.302 E13.4426
G1 X141.227 Y133.287 E13.45565
G1 X135.741 Y132.899 E13.63857
G1 X131.712 Y132.814 E13.77261
G1 X84.033 Y132.854 E15.35842
G1 X77.119 Y133.295 E15.58885
G1 X76.74 Y133.307 E15.60146
G1 X73.253 Y133.309 E15.71744
G1 X72.562 Y133.269 E15.74046
G1 X71.88 Y133.15 E15.76348
G1 X71.216 Y132.954 E15.78651
G1 X70.579 Y132.682 E15.80955
G1 X69.978 Y132.338 E15.83258
G1 X69.42 Y131.928 E15.85561
G1 X69.147 Y131.687 E15.86772
G1 X68.718 Y131.285 E15.88728
G1 X68.241 Y130.783 E15.91031
G1 X67.825 Y130.23 E15.93332
G1 X67.475 Y129.632 E15.95637
G1 X67.197 Y128.998 E15.97939
G1 X66.994 Y128.336 E16.00242
G1 X66.868 Y127.655 E16.02546
G1 X66.821 Y126.905 E16.05045
G1 X66.825 Y116.073 E16.41073
G1 X66.862 Y115.414 E16.43268
G1 X67.104 Y113.235 E16.5056
G1 X67.483 Y107.865 E16.68465
G1 X67.557 Y102.57 E16.86078
G1 X67.329 Y97.218 E17.03895
G1 X66.844 Y92.107 E17.20971
G1 X66.819 Y91.404 E17.2331
G1 X66.868 Y89.242 E17.30503
G1 X66.887 Y88.88 E17.31709
G1 X67.042 Y87.018 E17.37923
G1 X67.139 Y86.333 E17.40224
G1 X67.314 Y85.663 E17.42527
G1 X67.566 Y85.017 E17.44834
G1 X67.89 Y84.406 E17.47134
G1 X68.283 Y83.835 E17.49439
G1 X68.739 Y83.314 E17.51742
G1 X69.251 Y82.848 E17.54045
M204 S5000
M205 X30 Y30
G0 F3600 X69.628 Y83.061
M204 S500
M205 X20 Y20
G1 F1800 X70.183 Y82.688 E17.56269
G1 X70.779 Y82.384 E17.58494
G1 X71.407 Y82.154 E17.60719
G1 X72.058 Y81.999 E17.62944
G1 X73.02 Y81.916 E17.66156
G1 X145.501 Y81.906 E20.07229
G1 X146.169 Y81.946 E20.09454
G1 X146.827 Y82.065 E20.11678
G1 X147.467 Y82.262 E20.13906
G1 X148.078 Y82.534 E20.1613
G1 X148.653 Y82.876 E20.18355
G1 X149.182 Y83.285 E20.20579
G1 X149.659 Y83.754 E20.22804
G1 X150.077 Y84.277 E20.25031
G1 X150.43 Y84.845 E20.27255
G1 X150.712 Y85.452 E20.29481
G1 X150.92 Y86.088 E20.31707
G1 X151.083 Y87.048 E20.34946
G1 X151.251 Y89.096 E20.4178
G1 X151.269 Y89.47 E20.43026
G1 X151.301 Y91.602 E20.50118
G1 X151.276 Y92.224 E20.52188
G1 X150.796 Y97.2 E20.68815
G1 X150.567 Y102.556 E20.86645
G1 X150.642 Y107.879 E21.04352
G1 X151.023 Y113.275 E21.22343
G1 X151.283 Y115.85 E21.30951
G1 X151.311 Y116.417 E21.3284
G1 X151.302 Y127.099 E21.68368
G1 X151.261 Y127.767 E21.70594
G1 X151.142 Y128.425 E21.72818
G1 X150.944 Y129.064 E21.75043
G1 X150.672 Y129.675 E21.77268
G1 X150.328 Y130.249 E21.79493
G1 X149.919 Y130.778 E21.81717
G1 X149.679 Y131.036 E21.82889
G1 X149.453 Y131.264 E21.83957
G1 X148.955 Y131.71 E21.86181
G1 X148.406 Y132.094 E21.88409
G1 X147.816 Y132.409 E21.90633
G1 X147.193 Y132.652 E21.92858
G1 X146.545 Y132.819 E21.95083
G1 X145.882 Y132.907 E21.97308
G1 X145.447 Y132.922 E21.98755
G1 X141.621 Y132.902 E22.11481
G1 X141.255 Y132.888 E22.12699
G1 X135.757 Y132.499 E22.31031
G1 X131.719 Y132.414 E22.44465
G1 X84.024 Y132.454 E24.03099
G1 X77.094 Y132.896 E24.26195
G1 X76.74 Y132.907 E24.27373
G1 X73.253 Y132.909 E24.38971
G1 X72.585 Y132.869 E24.41197
G1 X71.927 Y132.75 E24.43421
G1 X71.287 Y132.554 E24.45647
G1 X70.676 Y132.282 E24.47871
G1 X70.101 Y131.94 E24.50096
G1 X69.421 Y131.395 E24.52995
G1 X68.992 Y130.993 E24.5495
G1 X68.532 Y130.507 E24.57176
G1 X68.133 Y129.97 E24.59401
G1 X67.801 Y129.389 E24.61627
G1 X67.541 Y128.773 E24.63851
G1 X67.356 Y128.13 E24.66076
G1 X67.249 Y127.47 E24.683
G1 X67.221 Y126.905 E24.70181
G1 X67.225 Y116.073 E25.06209
G1 X67.259 Y115.458 E25.08257
G1 X67.503 Y113.257 E25.15623
G1 X67.883 Y107.881 E25.33548
G1 X67.958 Y102.559 E25.51251
G1 X67.729 Y97.201 E25.69088
G1 X67.242 Y92.069 E25.86234
G1 X67.218 Y91.413 E25.88417
G1 X67.267 Y89.251 E25.9561
G1 X67.285 Y88.913 E25.96735
G1 X67.44 Y87.051 E26.0295
G1 X67.536 Y86.389 E26.05175
G1 X67.709 Y85.743 E26.07399
G1 X67.958 Y85.122 E26.09624
G1 X68.28 Y84.536 E26.11848
G1 X68.669 Y83.991 E26.14075
G1 X69.121 Y83.498 E26.163
G1 X69.628 Y83.061 E26.18526
M204 S5000
M205 X30 Y30
G0 F3600 X69.502 Y83.688
M204 S500
M205 X20 Y20
G1 F1800 X70.002 Y83.282 E26.20668
G1 X70.549 Y82.941 E26.22812
G1 X71.135 Y82.67 E26.2496
G1 X71.749 Y82.474 E26.27103
G1 X72.382 Y82.355 E26.29246
G1 X73.02 Y82.316 E26.31372
G1 X145.501 Y82.306 E28.72444
G1 X146.145 Y82.346 E28.7459
G1 X146.778 Y82.465 E28.76733
G1 X147.392 Y82.662 E28.78877
G1 X147.977 Y82.933 E28.81022
G1 X148.524 Y83.274 E28.83166
G1 X149.024 Y83.681 E28.8531
G1 X149.471 Y84.146 E28.87455
G1 X149.856 Y84.663 E28.89599
G1 X150.174 Y85.223 E28.91741
G1 X150.421 Y85.819 E28.93887
G1 X150.592 Y86.441 E28.96032
G1 X150.685 Y87.081 E28.98183
G1 X150.853 Y89.129 E29.05018
G1 X150.869 Y89.476 E29.06173
G1 X150.901 Y91.608 E29.13265
G1 X150.878 Y92.186 E29.15189
G1 X150.396 Y97.182 E29.31883
G1 X150.167 Y102.545 E29.49737
G1 X150.242 Y107.895 E29.67533
G1 X150.625 Y113.31 E29.85588
G1 X150.885 Y115.89 E29.94213
G1 X150.911 Y116.416 E29.95964
G1 X150.902 Y127.098 E30.31493
G1 X150.861 Y127.742 E30.33639
G1 X150.742 Y128.375 E30.35781
G1 X150.544 Y128.989 E30.37927
G1 X150.273 Y129.574 E30.40071
G1 X149.931 Y130.12 E30.42214
G1 X149.395 Y130.755 E30.44978
G1 X149.169 Y130.983 E30.46046
G1 X148.688 Y131.412 E30.48189
G1 X148.157 Y131.778 E30.50334
G1 X147.585 Y132.075 E30.52478
G1 X146.981 Y132.3 E30.54622
G1 X146.353 Y132.447 E30.56767
G1 X145.449 Y132.522 E30.59784
G1 X141.623 Y132.502 E30.7251
G1 X141.283 Y132.489 E30.73641
G1 X135.774 Y132.099 E30.9201
G1 X131.727 Y132.014 E31.05474
G1 X83.998 Y132.054 E32.64221
G1 X77.068 Y132.496 E32.87317
G1 X76.74 Y132.507 E32.88409
G1 X73.253 Y132.509 E33.00006
G1 X72.61 Y132.469 E33.02149
G1 X71.976 Y132.35 E33.04295
G1 X71.362 Y132.154 E33.06438
G1 X70.777 Y131.883 E33.08583
G1 X70.23 Y131.542 E33.10727
G1 X69.694 Y131.103 E33.13031
G1 X69.265 Y130.701 E33.14986
G1 X68.823 Y130.232 E33.1713
G1 X68.442 Y129.712 E33.19274
G1 X68.129 Y129.149 E33.21416
G1 X67.888 Y128.551 E33.23561
G1 X67.722 Y127.928 E33.25705
G1 X67.635 Y127.289 E33.2785
G1 X67.621 Y126.905 E33.29128
G1 X67.625 Y116.073 E33.65156
G1 X67.657 Y115.502 E33.67058
G1 X67.901 Y113.304 E33.74413
G1 X68.283 Y107.897 E33.92442
G1 X68.358 Y102.548 E34.10234
G1 X68.129 Y97.184 E34.28091
G1 X67.64 Y92.031 E34.45307
G1 X67.618 Y91.422 E34.47334
G1 X67.667 Y89.26 E34.54527
G1 X67.684 Y88.947 E34.55569
G1 X67.839 Y87.085 E34.61784
G1 X67.932 Y86.447 E34.63928
G1 X68.104 Y85.825 E34.66075
G1 X68.351 Y85.23 E34.68217
G1 X68.669 Y84.669 E34.70362
G1 X69.055 Y84.153 E34.72506
G1 X69.502 Y83.688 E34.74651
M204 S5000
M205 X30 Y30
G1 F3600 E28.74651
G0 F3600 X72.351 Y89.447
G0 X73.012 Y90.432
M204 S500
M205 X20 Y20
;TYPE:SUPPORT
G1 F3600 E34.74651
G1 F1800 X73.046 Y90.466 E34.74811
G1 X76.677 Y90.466 E34.86887
G1 X76.112 Y91.031 E34.89545
G1 X76.112 Y91.727 E34.9186
G1 X73.131 Y91.73 E35.01775
G1 X73.012 Y91.611 E35.02335
G1 X73.012 Y90.432 E35.06256
M204 S5000
M205 X30 Y30
G0 F3600 X73.172 Y90.678
M204 S500
M205 X20 Y20
G1 F1800 X76.238 Y90.678 E35.16453
M204 S5000
M205 X30 Y30
G0 F3600 X74.676 Y90.626
M204 S500
M205 X20 Y20
G1 F1800 X74.676 Y91.568 E35.19587
M204 S5000
M205 X30 Y30
G0 F3600 X73.012 Y116.292
M204 S500
M205 X20 Y20
G1 F1800 X73.047 Y116.327 E35.19751
G1 X76.112 Y116.327 E35.29945
G1 X76.112 Y127.07 E35.65677
G1 X76.166 Y127.124 E35.65931
G1 X73.309 Y127.132 E35.75433
G1 X73.012 Y126.835 E35.7683
G1 X73.012 Y116.292 E36.11896
M204 S5000
M205 X30 Y30
G0 F3600 X73.172 Y117.348
M204 S500
M205 X20 Y20
G1 F1800 X75.952 Y117.348 E36.21143
M204 S5000
M205 X30 Y30
G0 F3600 X74.676 Y116.487
M204 S500
M205 X20 Y20
G1 F1800 X74.676 Y126.969 E36.56006
M204 S5000
M205 X30 Y30
G0 F3600 X75.951 Y125.349
M204 S500
M205 X20 Y20
G1 F1800 X73.171 Y125.349 E36.65252
M204 S5000
M205 X30 Y30
G0 F3600 X73.171 Y122.682
M204 S500
M205 X20 Y20
G1 F1800 X75.951 Y122.682 E36.74499
M204 S5000
M205 X30 Y30
G0 F3600 X75.951 Y120.015
M204 S500
M205 X20 Y20
G1 F1800 X73.171 Y120.015 E36.83745
M204 S5000
M205 X30 Y30
G1 F3600 E30.83745
G0 F3600 X76.351 Y126.971
G0 X76.855 Y127.475
G0 X141.669 Y127.475
G0 X142.173 Y126.971
G0 X142.412 Y116.327
M204 S500
M205 X20 Y20
G1 F3600 E36.83745
G1 F1800 X145.141 Y116.327 E36.92822
G1 X145.487 Y116.232 E36.94015
G1 X145.512 Y116.243 E36.94106
G1 X145.512 Y127.017 E37.2994
G1 X145.396 Y127.133 E37.30486
G1 X142.349 Y127.133 E37.4062
G1 X142.412 Y127.07 E37.40917
G1 X142.412 Y116.327 E37.76648
M204 S5000
M205 X30 Y30
G0 F3600 X142.572 Y117.348
M204 S500
M205 X20 Y20
G1 F1800 X145.352 Y117.348 E37.85894
M204 S5000
M205 X30 Y30
G0 F3600 X144.018 Y116.487
M204 S500
M205 X20 Y20
G1 F1800 X144.018 Y126.973 E38.20771
M204 S5000
M205 X30 Y30
G0 F3600 X145.352 Y125.349
M204 S500
M205 X20 Y20
G1 F1800 X142.572 Y125.349 E38.30017
M204 S5000
M205 X30 Y30
G0 F3600 X142.572 Y122.682
M204 S500
M205 X20 Y20
G1 F1800 X145.352 Y122.682 E38.39264
M204 S5000
M205 X30 Y30
G0 F3600 X145.352 Y120.015
M204 S500
M205 X20 Y20
G1 F1800 X142.572 Y120.015 E38.4851
M204 S5000
M205 X30 Y30
G0 F3600 X142.412 Y91.727
M204 S500
M205 X20 Y20
G1 F1800 X142.412 Y91.032 E38.50821
G1 X141.846 Y90.466 E38.53484
G1 X145.478 Y90.466 E38.65564
G1 X145.512 Y90.432 E38.65724
G1 X145.512 Y91.613 E38.69652
G1 X145.396 Y91.729 E38.70197
G1 X142.412 Y91.727 E38.80122
M204 S5000
M205 X30 Y30
G0 F3600 X142.286 Y90.678
M204 S500
M205 X20 Y20
G1 F1800 X145.352 Y90.678 E38.9032
M204 S5000
M205 X30 Y30
G0 F3600 X144.018 Y90.626
M204 S500
M205 X20 Y20
G1 F1800 X144.018 Y91.568 E38.93453
M204 S5000
M205 X30 Y30
G1 F3600 E32.93453
;MESH:21e5ca76-5afd-4def-befa-c3871104cc53.stl
G0 F3600 X144.018 Y89.955
G0 X144.018 Y88.67
G0 X136.451 Y88.192
G0 X136.451 Y88.092
M204 S500
M205 X20 Y20
;TYPE:WALL-INNER
G1 F3600 E38.93453
G1 F1800 X140.059 Y88.081 E39.05453
G1 X144.912 Y88.094 E39.21594
G1 X144.912 Y88.69 E39.23577
G1 X73.612 Y88.69 E41.60722
G1 X73.612 Y88.094 E41.62704
G1 X78.465 Y88.08 E41.78845
G1 X82.073 Y88.091 E41.90845
G1 X136.451 Y88.092 E43.71707
M204 S5000
M205 X30 Y30
G0 F3600 X136.45 Y87.692
M204 S500
M205 X20 Y20
;TYPE:WALL-OUTER
G1 F1800 X140.059 Y87.681 E43.83711
G1 X145.312 Y87.695 E44.01183
G1 X145.312 Y89.09 E44.05822
G1 X73.212 Y89.09 E46.45628
G1 X73.212 Y87.695 E46.50268
G1 X78.465 Y87.68 E46.67739
G1 X82.074 Y87.691 E46.79743
G1 X136.45 Y87.692 E48.60598
M204 S5000
M205 X30 Y30
G0 F3600 X136.65 Y87.692
G0 X136.651 Y88.192
G0 X144.512 Y88.509
M204 S500
M205 X20 Y20
;TYPE:SKIN
G1 F1800 X144.275 Y88.272 E48.61713
M204 S5000
M205 X30 Y30
G0 F3600 X143.946 Y88.509
M204 S500
M205 X20 Y20
G1 F1800 X143.708 Y88.27 E48.62835
M204 S5000
M205 X30 Y30
G0 F3600 X143.38 Y88.509
M204 S500
M205 X20 Y20
G1 F1800 X143.141 Y88.269 E48.63961
M204 S5000
M205 X30 Y30
G0 F3600 X142.815 Y88.509
M204 S500
M205 X20 Y20
G1 F1800 X142.573 Y88.268 E48.65097
M204 S5000
M205 X30 Y30
G0 F3600 X142.249 Y88.509
M204 S500
M205 X20 Y20
G1 F1800 X142.006 Y88.266 E48.6624
M204 S5000
M205 X30 Y30
G0 F3600 X141.683 Y88.509
M204 S500
M205 X20 Y20
G1 F1800 X141.439 Y88.265 E48.67388
M204 S5000
M205 X30 Y30
G0 F3600 X141.118 Y88.509
M204 S500
M205 X20 Y20
G1 F1800 X140.871 Y88.263 E48.68548
M204 S5000
M205 X30 Y30
G0 F3600 X140.552 Y88.509
M204 S500
M205 X20 Y20
G1 F1800 X140.304 Y88.261 E48.69714
M204 S5000
M205 X30 Y30
G0 F3600 X139.986 Y88.509
M204 S500
M205 X20 Y20
G1 F1800 X139.739 Y88.262 E48.70876
M204 S5000
M205 X30 Y30
G0 F3600 X139.42 Y88.509
M204 S500
M205 X20 Y20
G1 F1800 X139.175 Y88.263 E48.72031
M204 S5000
M205 X30 Y30
G0 F3600 X138.855 Y88.509
M204 S500
M205 X20 Y20
