;FLAVOR:Marlin
;TIME:6587
;Filament used: 0.853494m
;Layer height: 0.2
;Generated with Cura_SteamEngine 4.0.0
M140 S80
M105
M190 S80
M104 S230
M105
M109 S230
M82 ;absolute extrusion mode
; Ender 3 Custom Start G-code
G28 ; Home all axes
G92 E0 ; Reset Extruder
G1 Z2.0 F3000 ; Move Z Axis up little to prevent scratching of Heat Bed
G1 X0.1 Y20 Z0.3 F5000.0 ; Move to start position
G1 X0.1 Y200.0 Z0.3 F1500.0 E15 ; Draw the first line
G1 X0.4 Y200.0 Z0.3 F5000.0 ; Move to side a little
G1 X0.4 Y20 Z0.3 F1500.0 E30 ; Draw the second line
G92 E0 ; Reset Extruder
G1 Z2.0 F3000 ; Move Z Axis up little to prevent scratching of Heat Bed
; End of custom start GCode
G92 E0
G1 F3600 E-6
;LAYER_COUNT:193
;LAYER:0
M107
M204 S5000
M205 X30 Y30
G0 F3600 X72.746 Y110.726 Z0.2
M204 S500
M205 X20 Y20
;TYPE:SKIRT
G1 F3600 E0
G1 F1800 X73.38 Y110.395 E0.02379
G1 X74.047 Y110.136 E0.04759
G1 X74.738 Y109.953 E0.07136
G1 X75.446 Y109.848 E0.09517
G1 X76.026 Y109.822 E0.11448
G1 X148.507 Y109.823 E2.52521
G1 X149.221 Y109.863 E2.54899
G1 X149.926 Y109.982 E2.57277
G1 X150.614 Y110.18 E2.59658
G1 X151.275 Y110.453 E2.62037
G1 X151.902 Y110.798 E2.64417
G1 X152.486 Y111.21 E2.66794
G1 X153.02 Y111.686 E2.69173
G1 X153.499 Y112.217 E2.71552
G1 X153.914 Y112.799 E2.73929
G1 X154.263 Y113.424 E2.7631
G1 X154.539 Y114.084 E2.7869
G1 X154.74 Y114.77 E2.81067
G1 X154.863 Y115.475 E2.83448
G1 X154.905 Y116.059 E2.85395
G1 X155.07 Y122.495 E3.06808
G1 X155.072 Y122.652 E3.0733
G1 X155.106 Y156.125 E4.18662
G1 X155.09 Y156.58 E4.20176
G1 X154.89 Y159.429 E4.29676
G1 X154.8 Y160.139 E4.32056
G1 X154.632 Y160.834 E4.34434
G1 X154.387 Y161.506 E4.36813
G1 X154.068 Y162.146 E4.39191
G1 X153.68 Y162.747 E4.41571
G1 X153.228 Y163.301 E4.43949
G1 X152.716 Y163.801 E4.46329
G1 X152.152 Y164.241 E4.48708
G1 X151.543 Y164.615 E4.51085
G1 X150.895 Y164.918 E4.53465
G1 X150.217 Y165.148 E4.55846
G1 X149.519 Y165.3 E4.58222
G1 X148.506 Y165.381 E4.61602
G1 X76.025 Y165.381 E7.02675
G1 X75.311 Y165.341 E7.05053
G1 X74.606 Y165.222 E7.07431
G1 X73.918 Y165.024 E7.09812
G1 X73.257 Y164.751 E7.12191
G1 X72.63 Y164.407 E7.1457
G1 X72.046 Y163.994 E7.16949
G1 X71.512 Y163.519 E7.19326
G1 X71.033 Y162.987 E7.21707
G1 X70.618 Y162.405 E7.24084
G1 X70.269 Y161.78 E7.26465
G1 X69.993 Y161.12 E7.28844
G1 X69.792 Y160.434 E7.31222
G1 X69.641 Y159.43 E7.34599
G1 X69.458 Y156.826 E7.43281
G1 X69.442 Y156.373 E7.44789
G1 X69.462 Y122.427 E8.57694
G1 X69.464 Y122.262 E8.58242
G1 X69.628 Y116.053 E8.78901
G1 X69.687 Y115.34 E8.8128
G1 X69.825 Y114.638 E8.8366
G1 X70.04 Y113.956 E8.86038
G1 X70.331 Y113.303 E8.88416
G1 X70.692 Y112.685 E8.90797
G1 X71.12 Y112.112 E8.93175
G1 X71.609 Y111.59 E8.95554
G1 X72.154 Y111.126 E8.97935
G1 X72.746 Y110.726 E9.00311
M204 S5000
M205 X30 Y30
G0 F3600 X73.123 Y110.971
M204 S500
M205 X20 Y20
G1 F1800 X73.747 Y110.671 E9.02614
G1 X74.402 Y110.446 E9.04918
G1 X75.079 Y110.297 E9.07223
G1 X76.026 Y110.222 E9.10383
G1 X148.507 Y110.223 E11.51456
G1 X149.198 Y110.263 E11.53758
G1 X149.881 Y110.382 E11.56064
G1 X150.544 Y110.58 E11.58365
G1 X151.181 Y110.852 E11.60669
G1 X151.782 Y111.196 E11.62972
G1 X152.34 Y111.607 E11.65277
G1 X152.846 Y112.079 E11.67578
G1 X153.295 Y112.607 E11.69884
G1 X153.68 Y113.183 E11.72188
G1 X153.995 Y113.799 E11.74489
G1 X154.238 Y114.447 E11.76791
G1 X154.405 Y115.12 E11.79097
G1 X154.505 Y116.069 E11.82271
G1 X154.67 Y122.505 E12.03684
G1 X154.672 Y122.653 E12.04177
G1 X154.706 Y156.126 E13.15508
G1 X154.691 Y156.552 E13.16926
G1 X154.491 Y159.401 E13.26425
G1 X154.403 Y160.088 E13.28729
G1 X154.236 Y160.76 E13.31032
G1 X153.993 Y161.409 E13.33337
G1 X153.677 Y162.025 E13.3564
G1 X153.292 Y162.6 E13.37941
G1 X152.843 Y163.128 E13.40246
G1 X152.336 Y163.6 E13.4255
G1 X151.778 Y164.01 E13.44853
G1 X151.177 Y164.354 E13.47157
G1 X150.54 Y164.626 E13.4946
G1 X149.876 Y164.822 E13.51763
G1 X149.194 Y164.941 E13.54066
G1 X148.506 Y164.981 E13.56358
G1 X76.025 Y164.981 E15.97431
G1 X75.334 Y164.941 E15.99733
G1 X74.651 Y164.822 E16.02039
G1 X73.988 Y164.624 E16.0434
G1 X73.351 Y164.352 E16.06644
G1 X72.75 Y164.008 E16.08947
G1 X72.192 Y163.597 E16.11252
G1 X71.686 Y163.125 E16.13553
G1 X71.237 Y162.597 E16.15859
G1 X70.852 Y162.022 E16.1816
G1 X70.537 Y161.405 E16.20464
G1 X70.294 Y160.757 E16.22766
G1 X70.127 Y160.084 E16.25073
G1 X70.04 Y159.402 E16.27359
G1 X69.857 Y156.798 E16.36042
G1 X69.842 Y156.373 E16.37456
G1 X69.862 Y122.427 E17.50361
G1 X69.864 Y122.273 E17.50873
G1 X70.028 Y116.064 E17.71532
G1 X70.086 Y115.373 E17.73838
G1 X70.224 Y114.695 E17.76139
G1 X70.438 Y114.036 E17.78444
G1 X70.727 Y113.407 E17.80746
G1 X71.087 Y112.815 E17.8305
G1 X71.512 Y112.269 E17.85352
G1 X71.998 Y111.775 E17.87657
G1 X72.537 Y111.34 E17.8996
G1 X73.123 Y110.971 E17.92264
M204 S5000
M205 X30 Y30
G0 F3600 X72.919 Y111.563
M204 S500
M205 X20 Y20
G1 F1800 X73.497 Y111.225 E17.94491
G1 X74.111 Y110.96 E17.96715
G1 X74.752 Y110.769 E17.9894
G1 X75.412 Y110.656 E18.01167
G1 X76.026 Y110.622 E18.03212
G1 X148.507 Y110.623 E20.44285
G1 X149.175 Y110.663 E20.4651
G1 X149.833 Y110.782 E20.48734
G1 X150.473 Y110.979 E20.50962
G1 X151.084 Y111.251 E20.53186
G1 X151.658 Y111.594 E20.5541
G1 X152.188 Y112.003 E20.57637
G1 X152.665 Y112.472 E20.59862
G1 X153.083 Y112.995 E20.62089
G1 X153.435 Y113.563 E20.64311
G1 X153.717 Y114.17 E20.66537
G1 X153.925 Y114.806 E20.68763
G1 X154.055 Y115.462 E20.70987
G1 X154.105 Y116.079 E20.73046
G1 X154.27 Y122.515 E20.94459
G1 X154.272 Y122.653 E20.94918
G1 X154.306 Y156.126 E22.0625
G1 X154.292 Y156.524 E22.07575
G1 X154.092 Y159.373 E22.17074
G1 X154.006 Y160.037 E22.19301
G1 X153.84 Y160.685 E22.21525
G1 X153.599 Y161.309 E22.2375
G1 X153.285 Y161.9 E22.25976
G1 X152.903 Y162.449 E22.28201
G1 X152.458 Y162.948 E22.30425
G1 X151.957 Y163.391 E22.32649
G1 X151.406 Y163.771 E22.34875
G1 X150.814 Y164.083 E22.37101
G1 X150.189 Y164.322 E22.39326
G1 X149.54 Y164.485 E22.41552
G1 X148.877 Y164.569 E22.43775
G1 X148.506 Y164.581 E22.45009
G1 X76.025 Y164.581 E24.86082
G1 X75.357 Y164.541 E24.88308
G1 X74.699 Y164.422 E24.90532
G1 X74.059 Y164.225 E24.92759
G1 X73.448 Y163.953 E24.94984
G1 X72.874 Y163.61 E24.97208
G1 X72.344 Y163.201 E24.99434
G1 X71.867 Y162.732 E25.01659
G1 X71.449 Y162.21 E25.03883
G1 X71.097 Y161.641 E25.06109
G1 X70.815 Y161.034 E25.08335
G1 X70.607 Y160.398 E25.1056
G1 X70.477 Y159.742 E25.12785
G1 X70.439 Y159.374 E25.14015
G1 X70.256 Y156.77 E25.22698
G1 X70.242 Y156.374 E25.24015
G1 X70.262 Y122.428 E26.3692
G1 X70.264 Y122.283 E26.37403
G1 X70.428 Y116.074 E26.58061
G1 X70.486 Y115.408 E26.60285
G1 X70.622 Y114.753 E26.6251
G1 X70.836 Y114.119 E26.64735
G1 X71.124 Y113.515 E26.66961
G1 X71.482 Y112.949 E26.69188
G1 X71.904 Y112.431 E26.7141
G1 X72.386 Y111.966 E26.73638
G1 X72.919 Y111.563 E26.7586
M204 S5000
M205 X30 Y30
G0 F3600 X73.299 Y111.794
M204 S500
M205 X20 Y20
G1 F1800 X73.868 Y111.491 E26.78005
G1 X74.47 Y111.26 E26.80149
G1 X75.096 Y111.106 E26.82293
G1 X76.026 Y111.022 E26.85399
G1 X148.507 Y111.023 E29.26472
G1 X149.151 Y111.063 E29.28618
G1 X149.784 Y111.182 E29.3076
G1 X150.398 Y111.379 E29.32905
G1 X150.983 Y111.65 E29.35049
G1 X151.53 Y111.992 E29.37195
G1 X152.03 Y112.398 E29.39337
G1 X152.476 Y112.864 E29.41483
G1 X152.861 Y113.38 E29.43624
G1 X153.18 Y113.941 E29.4577
G1 X153.426 Y114.537 E29.47915
G1 X153.597 Y115.158 E29.50057
G1 X153.705 Y116.09 E29.53178
G1 X153.87 Y122.526 E29.74591
G1 X153.872 Y122.654 E29.75017
G1 X153.906 Y156.127 E30.86349
G1 X153.893 Y156.496 E30.87577
G1 X153.693 Y159.345 E30.97076
G1 X153.608 Y159.984 E30.9922
G1 X153.445 Y160.608 E31.01365
G1 X153.206 Y161.206 E31.03507
G1 X152.894 Y161.771 E31.05653
G1 X152.515 Y162.292 E31.07796
G1 X152.075 Y162.763 E31.0994
G1 X151.579 Y163.176 E31.12087
G1 X151.037 Y163.524 E31.14229
G1 X150.455 Y163.802 E31.16374
G1 X149.844 Y164.006 E31.18517
G1 X149.212 Y164.133 E31.20661
G1 X148.506 Y164.181 E31.23014
G1 X76.025 Y164.181 E33.64087
G1 X75.382 Y164.141 E33.6623
G1 X74.748 Y164.022 E33.68376
G1 X74.134 Y163.825 E33.7052
G1 X73.549 Y163.554 E33.72665
G1 X73.002 Y163.212 E33.7481
G1 X72.502 Y162.806 E33.76952
G1 X72.056 Y162.341 E33.79095
G1 X71.671 Y161.824 E33.81239
G1 X71.352 Y161.263 E33.83386
G1 X71.106 Y160.667 E33.8553
G1 X70.935 Y160.046 E33.87673
G1 X70.838 Y159.346 E33.90023
G1 X70.655 Y156.742 E33.98705
G1 X70.642 Y156.374 E33.9993
G1 X70.662 Y122.428 E35.12835
G1 X70.664 Y122.294 E35.13281
G1 X70.828 Y116.085 E35.33939
G1 X70.885 Y115.443 E35.36083
G1 X71.021 Y114.812 E35.3823
G1 X71.234 Y114.204 E35.40373
G1 X71.52 Y113.626 E35.42517
G1 X71.876 Y113.089 E35.4466
G1 X72.296 Y112.599 E35.46807
G1 X72.772 Y112.166 E35.48947
G1 X73.299 Y111.794 E35.51093
M204 S5000
M205 X30 Y30
G1 F3600 E29.51093
G0 F3600 X75.355 Y120.461
G0 X75.862 Y120.964
G0 X76.923 Y120.962
G0 X77.427 Y120.459
G0 X77.666 Y118.033
M204 S500
M205 X20 Y20
;TYPE:SUPPORT
G1 F3600 E35.51093
G1 F1800 X79.617 Y118.033 E35.57582
G1 X79.83 Y117.868 E35.58478
G1 X144.699 Y117.868 E37.74233
G1 X144.907 Y118.032 E37.75114
G1 X146.866 Y118.032 E37.8163
G1 X146.866 Y120.558 E37.90031
G1 X147.51 Y121.202 E37.9306
G1 X147.566 Y121.202 E37.93247
G1 X147.566 Y123.558 E38.01083
G1 X147.8 Y123.792 E38.02183
G1 X148.482 Y123.792 E38.04452
G1 X148.516 Y123.758 E38.04612
G1 X148.516 Y155.655 E39.10701
G1 X148.482 Y155.621 E39.10861
G1 X147.802 Y155.62 E39.13123
G1 X147.566 Y155.854 E39.14228
G1 X147.566 Y156.317 E39.15768
G1 X147.514 Y156.317 E39.15941
G1 X146.866 Y156.96 E39.18978
G1 X146.866 Y157.3 E39.20108
G1 X77.666 Y157.3 E41.50269
G1 X77.666 Y156.963 E41.51389
G1 X77.022 Y156.319 E41.54419
G1 X76.966 Y156.319 E41.54605
G1 X76.966 Y155.855 E41.56148
G1 X76.732 Y155.621 E41.57249
G1 X76.05 Y155.621 E41.59517
G1 X76.016 Y155.655 E41.59677
G1 X76.016 Y123.757 E42.6577
G1 X76.052 Y123.793 E42.6594
G1 X76.732 Y123.792 E42.68201
G1 X76.966 Y123.558 E42.69302
G1 X76.966 Y121.201 E42.77141
G1 X77.023 Y121.201 E42.77331
G1 X77.666 Y120.558 E42.80355
G1 X77.666 Y118.033 E42.88754
M204 S5000
M205 X30 Y30
G0 F3600 X81.841 Y120.535
M204 S500
M205 X20 Y20
G1 F1800 X81.841 Y142.624 E43.62222
G1 X82.24 Y143.023 E43.64099
G1 X142.033 Y143.024 E45.62971
G1 X142.475 Y142.841 E45.64562
G1 X142.691 Y142.625 E45.65578
G1 X142.691 Y120.535 E46.3905
G1 X142.292 Y120.136 E46.40927
G1 X82.24 Y120.136 E48.4066
G1 X81.841 Y120.535 E48.42537
M204 S5000
M205 X30 Y30
G0 F3600 X82.133 Y120.015
M204 S500
M205 X20 Y20
G1 F1800 X77.825 Y120.015 E48.56866
M204 S5000
M205 X30 Y30
G0 F3600 X77.343 Y121.107
M204 S500
M205 X20 Y20
G1 F1800 X77.343 Y156.413 E49.74294
M204 S5000
M205 X30 Y30
G0 F3600 X76.175 Y154.686
M204 S500
M205 X20 Y20
G1 F1800 X148.356 Y154.686 E52.14369
M204 S5000
M205 X30 Y30
G0 F3600 X148.356 Y152.019
M204 S500
M205 X20 Y20
G1 F1800 X76.175 Y152.019 E54.54444
M204 S5000
M205 X30 Y30
G0 F3600 X76.175 Y149.352
M204 S500
M205 X20 Y20
G1 F1800 X148.356 Y149.352 E56.94519
M204 S5000
M205 X30 Y30
G0 F3600 X148.356 Y146.685
M204 S500
M205 X20 Y20
G1 F1800 X76.175 Y146.685 E59.34594
M204 S5000
M205 X30 Y30
G0 F3600 X76.175 Y144.018
M204 S500
M205 X20 Y20
G1 F1800 X148.356 Y144.018 E61.74669
M204 S5000
M205 X30 Y30
G0 F3600 X148.356 Y141.351
M204 S500
M205 X20 Y20
G1 F1800 X142.851 Y141.351 E61.92978
M204 S5000
M205 X30 Y30
G0 F3600 X141.351 Y143.184
M204 S500
M205 X20 Y20
G1 F1800 X141.351 Y157.14 E62.39396
M204 S5000
M205 X30 Y30
G0 F3600 X138.684 Y157.14
M204 S500
M205 X20 Y20
G1 F1800 X138.684 Y143.184 E62.85814
M204 S5000
M205 X30 Y30
G0 F3600 X136.017 Y143.184
M204 S500
M205 X20 Y20
G1 F1800 X136.017 Y157.14 E63.32232
M204 S5000
M205 X30 Y30
G0 F3600 X133.35 Y157.14
M204 S500
M205 X20 Y20
G1 F1800 X133.35 Y143.184 E63.7865
M204 S5000
M205 X30 Y30
G0 F3600 X130.683 Y143.184
M204 S500
M205 X20 Y20
G1 F1800 X130.683 Y157.14 E64.25068
M204 S5000
M205 X30 Y30
G0 F3600 X128.016 Y157.14
M204 S500
M205 X20 Y20
G1 F1800 X128.016 Y143.184 E64.71485
M204 S5000
M205 X30 Y30
G0 F3600 X125.349 Y143.184
M204 S500
M205 X20 Y20
G1 F1800 X125.349 Y157.14 E65.17903
M204 S5000
M205 X30 Y30
G0 F3600 X122.682 Y157.14
M204 S500
M205 X20 Y20
G1 F1800 X122.682 Y143.184 E65.64321
M204 S5000
M205 X30 Y30
G0 F3600 X120.015 Y143.184
M204 S500
M205 X20 Y20
G1 F1800 X120.015 Y157.14 E66.10739
M204 S5000
M205 X30 Y30
G0 F3600 X117.348 Y157.14
M204 S500
M205 X20 Y20
G1 F1800 X117.348 Y143.184 E66.57157
M204 S5000
M205 X30 Y30
G0 F3600 X114.681 Y143.184
M204 S500
M205 X20 Y20
G1 F1800 X114.681 Y157.14 E67.03575
M204 S5000
M205 X30 Y30
G0 F3600 X112.014 Y157.14
M204 S500
M205 X20 Y20
G1 F1800 X112.014 Y143.184 E67.49992
M204 S5000
M205 X30 Y30
G0 F3600 X109.347 Y143.184
M204 S500
M205 X20 Y20
G1 F1800 X109.347 Y157.14 E67.9641
M204 S5000
M205 X30 Y30
G0 F3600 X106.68 Y157.14
M204 S500
M205 X20 Y20
G1 F1800 X106.68 Y143.184 E68.42828
M204 S5000
M205 X30 Y30
G0 F3600 X104.013 Y143.184
M204 S500
M205 X20 Y20
G1 F1800 X104.013 Y157.14 E68.89246
M204 S5000
M205 X30 Y30
G0 F3600 X101.346 Y157.14
M204 S500
M205 X20 Y20
G1 F1800 X101.346 Y143.184 E69.35664
M204 S5000
M205 X30 Y30
G0 F3600 X98.679 Y143.184
M204 S500
M205 X20 Y20
G1 F1800 X98.679 Y157.14 E69.82082
M204 S5000
M205 X30 Y30
G0 F3600 X96.012 Y157.14
M204 S500
M205 X20 Y20
G1 F1800 X96.012 Y143.184 E70.285
M204 S5000
M205 X30 Y30
G0 F3600 X93.345 Y143.184
M204 S500
M205 X20 Y20
G1 F1800 X93.345 Y157.14 E70.74917
M204 S5000
M205 X30 Y30
G0 F3600 X90.678 Y157.14
M204 S500
M205 X20 Y20
G1 F1800 X90.678 Y143.184 E71.21335
M204 S5000
M205 X30 Y30
G0 F3600 X88.011 Y143.184
M204 S500
M205 X20 Y20
G1 F1800 X88.011 Y157.14 E71.67753
M204 S5000
M205 X30 Y30
G0 F3600 X85.344 Y157.14
M204 S500
M205 X20 Y20
G1 F1800 X85.344 Y143.184 E72.14171
M204 S5000
M205 X30 Y30
G0 F3600 X82.677 Y143.184
M204 S500
M205 X20 Y20
G1 F1800 X82.677 Y157.14 E72.60589
M204 S5000
M205 X30 Y30
G0 F3600 X80.01 Y157.14
M204 S500
M205 X20 Y20
G1 F1800 X80.01 Y118.028 E73.90676
M204 S5000
M205 X30 Y30
G0 F3600 X82.677 Y118.028
M204 S500
M205 X20 Y20
G1 F1800 X82.677 Y119.976 E73.97155
M204 S5000
M205 X30 Y30
G0 F3600 X85.344 Y119.976
M204 S500
M205 X20 Y20
G1 F1800 X85.344 Y118.028 E74.03634
M204 S5000
M205 X30 Y30
G0 F3600 X88.011 Y118.028
M204 S500
M205 X20 Y20
G1 F1800 X88.011 Y119.976 E74.10113
M204 S5000
M205 X30 Y30
G0 F3600 X90.678 Y119.976
M204 S500
M205 X20 Y20
G1 F1800 X90.678 Y118.028 E74.16592
M204 S5000
M205 X30 Y30
G0 F3600 X93.345 Y118.028
M204 S500
M205 X20 Y20
G1 F1800 X93.345 Y119.976 E74.23071
M204 S5000
M205 X30 Y30
G0 F3600 X96.012 Y119.976
M204 S500
M205 X20 Y20
G1 F1800 X96.012 Y118.028 E74.2955
M204 S5000
M205 X30 Y30
G0 F3600 X98.679 Y118.028
M204 S500
M205 X20 Y20
G1 F1800 X98.679 Y119.976 E74.36029
M204 S5000
M205 X30 Y30
G0 F3600 X101.346 Y119.976
M204 S500
M205 X20 Y20
G1 F1800 X101.346 Y118.028 E74.42508
M204 S5000
M205 X30 Y30
G0 F3600 X104.013 Y118.028
M204 S500
M205 X20 Y20
G1 F1800 X104.013 Y119.976 E74.48987
M204 S5000
M205 X30 Y30
G0 F3600 X106.68 Y119.976
M204 S500
M205 X20 Y20
G1 F1800 X106.68 Y118.028 E74.55467
M204 S5000
M205 X30 Y30
G0 F3600 X109.347 Y118.028
M204 S500
M205 X20 Y20
G1 F1800 X109.347 Y119.976 E74.61946
M204 S5000
M205 X30 Y30
G0 F3600 X112.014 Y119.976
M204 S500
M205 X20 Y20
G1 F1800 X112.014 Y118.028 E74.68425
M204 S5000
M205 X30 Y30
G0 F3600 X114.681 Y118.028
M204 S500
M205 X20 Y20
G1 F1800 X114.681 Y119.976 E74.74904
M204 S5000
M205 X30 Y30
G0 F3600 X117.348 Y119.976
M204 S500
M205 X20 Y20
G1 F1800 X117.348 Y118.028 E74.81383
M204 S5000
M205 X30 Y30
G0 F3600 X120.015 Y118.028
M204 S500
M205 X20 Y20
G1 F1800 X120.015 Y119.976 E74.87862
M204 S5000
M205 X30 Y30
G0 F3600 X122.682 Y119.976
M204 S500
M205 X20 Y20
G1 F1800 X122.682 Y118.028 E74.94341
M204 S5000
M205 X30 Y30
G0 F3600 X125.349 Y118.028
M204 S500
M205 X20 Y20
G1 F1800 X125.349 Y119.976 E75.0082
M204 S5000
M205 X30 Y30
G0 F3600 X128.016 Y119.976
M204 S500
M205 X20 Y20
G1 F1800 X128.016 Y118.028 E75.07299
M204 S5000
M205 X30 Y30
G0 F3600 X130.683 Y118.028
M204 S500
M205 X20 Y20
G1 F1800 X130.683 Y119.976 E75.13778
M204 S5000
M205 X30 Y30
G0 F3600 X133.35 Y119.976
M204 S500
M205 X20 Y20
G1 F1800 X133.35 Y118.028 E75.20257
M204 S5000
